( PCB Contour )
( Generated by Rapid-PCB.com )
( Material Size)
( X= 160.000, Y= 100.000, Z= 1.580)
()
G00
G17
G21
G40
G49
G54
G80
G90
G94
G00 F3000 Z3.000
M03 S9000
G00 F3000 X-28.573 Y-10.379
G00 F1500 Z0
G01 F600 Z-0.200
G01 F600 X-28.742 Y-10.415
G01 F600 X-28.901 Y-10.485
G01 F600 X-29.041 Y-10.587
G01 F600 X-29.157 Y-10.716
G01 F600 X-29.244 Y-10.867
G01 F600 X-29.298 Y-11.032
G01 F600 X-29.315 Y-11.200
G01 F600 X-29.315 Y-11.267
G01 F600 X-33.639 Y-11.267
G01 F600 X-33.783 Y-11.298
G01 F600 X-33.917 Y-11.357
G01 F600 X-34.035 Y-11.443
G01 F600 X-34.836 Y-12.244
G01 F600 X-35.637 Y-11.443
G01 F600 X-35.755 Y-11.357
G01 F600 X-35.889 Y-11.298
G01 F600 X-36.032 Y-11.267
G01 F600 X-43.954 Y-11.267
G01 F600 X-43.954 Y-10.924
G01 F600 X-46.038 Y-10.924
G01 F600 X-46.038 Y-13.009
G01 F600 X-43.954 Y-13.009
G01 F600 X-43.954 Y-12.665
G01 F600 X-36.399 Y-12.665
G01 F600 X-35.689 Y-13.375
G01 F600 X-35.685 Y-13.417
G01 F600 X-35.629 Y-13.589
G01 F600 X-35.538 Y-13.746
G01 F600 X-35.417 Y-13.881
G01 F600 X-35.270 Y-13.988
G01 F600 X-35.104 Y-14.062
G01 F600 X-34.927 Y-14.099
G01 F600 X-34.745 Y-14.099
G01 F600 X-34.568 Y-14.062
G01 F600 X-34.402 Y-13.988
G01 F600 X-34.255 Y-13.881
G01 F600 X-34.134 Y-13.746
G01 F600 X-34.043 Y-13.589
G01 F600 X-33.987 Y-13.417
G01 F600 X-33.983 Y-13.375
G01 F600 X-33.273 Y-12.665
G01 F600 X-29.315 Y-12.665
G01 F600 X-29.315 Y-12.732
G01 F600 X-29.298 Y-12.901
G01 F600 X-29.244 Y-13.066
G01 F600 X-29.157 Y-13.216
G01 F600 X-29.041 Y-13.345
G01 F600 X-28.901 Y-13.447
G01 F600 X-28.742 Y-13.517
G01 F600 X-28.573 Y-13.553
G01 F600 X-28.399 Y-13.553
G01 F600 X-28.230 Y-13.517
G01 F600 X-28.071 Y-13.447
G01 F600 X-27.931 Y-13.345
G01 F600 X-27.815 Y-13.216
G01 F600 X-27.728 Y-13.066
G01 F600 X-27.674 Y-12.901
G01 F600 X-27.656 Y-12.732
G01 F600 X-27.656 Y-11.200
G01 F600 X-27.674 Y-11.032
G01 F600 X-27.728 Y-10.867
G01 F600 X-27.815 Y-10.716
G01 F600 X-27.931 Y-10.587
G01 F600 X-28.071 Y-10.485
G01 F600 X-28.230 Y-10.415
G01 F600 X-28.399 Y-10.379
G01 F600 X-28.573 Y-10.379
G00 F3000 Z3.000
G00 F3000 X-23.493 Y-10.379
G00 F1500 Z0
G01 F600 Z-0.200
G01 F600 X-23.662 Y-10.415
G01 F600 X-23.821 Y-10.485
G01 F600 X-23.961 Y-10.587
G01 F600 X-24.077 Y-10.716
G01 F600 X-24.164 Y-10.867
G01 F600 X-24.218 Y-11.032
G01 F600 X-24.235 Y-11.200
G01 F600 X-24.235 Y-12.732
G01 F600 X-24.218 Y-12.901
G01 F600 X-24.164 Y-13.066
G01 F600 X-24.077 Y-13.216
G01 F600 X-23.961 Y-13.345
G01 F600 X-23.821 Y-13.447
G01 F600 X-23.662 Y-13.517
G01 F600 X-23.493 Y-13.553
G01 F600 X-23.319 Y-13.553
G01 F600 X-23.149 Y-13.517
G01 F600 X-22.991 Y-13.447
G01 F600 X-22.851 Y-13.345
G01 F600 X-22.735 Y-13.216
G01 F600 X-22.648 Y-13.066
G01 F600 X-22.594 Y-12.901
G01 F600 X-22.576 Y-12.732
G01 F600 X-22.576 Y-12.665
G01 F600 X-18.619 Y-12.665
G01 F600 X-17.909 Y-13.375
G01 F600 X-17.905 Y-13.417
G01 F600 X-17.849 Y-13.589
G01 F600 X-17.758 Y-13.746
G01 F600 X-17.637 Y-13.881
G01 F600 X-17.490 Y-13.988
G01 F600 X-17.324 Y-14.062
G01 F600 X-17.147 Y-14.099
G01 F600 X-16.965 Y-14.099
G01 F600 X-16.788 Y-14.062
G01 F600 X-16.622 Y-13.988
G01 F600 X-16.475 Y-13.881
G01 F600 X-16.354 Y-13.746
G01 F600 X-16.263 Y-13.589
G01 F600 X-16.207 Y-13.417
G01 F600 X-16.203 Y-13.375
G01 F600 X-15.493 Y-12.665
G01 F600 X-7.938 Y-12.665
G01 F600 X-7.938 Y-13.009
G01 F600 X-5.854 Y-13.009
G01 F600 X-5.854 Y-10.924
G01 F600 X-7.938 Y-10.924
G01 F600 X-7.938 Y-11.267
G01 F600 X-15.859 Y-11.267
G01 F600 X-16.003 Y-11.298
G01 F600 X-16.137 Y-11.357
G01 F600 X-16.255 Y-11.443
G01 F600 X-17.056 Y-12.244
G01 F600 X-17.857 Y-11.443
G01 F600 X-17.975 Y-11.357
G01 F600 X-18.109 Y-11.298
G01 F600 X-18.253 Y-11.267
G01 F600 X-22.576 Y-11.267
G01 F600 X-22.576 Y-11.200
G01 F600 X-22.594 Y-11.032
G01 F600 X-22.648 Y-10.867
G01 F600 X-22.735 Y-10.716
G01 F600 X-22.851 Y-10.587
G01 F600 X-22.991 Y-10.485
G01 F600 X-23.149 Y-10.415
G01 F600 X-23.319 Y-10.379
G01 F600 X-23.493 Y-10.379
G00 F3000 Z3.000
G00 F3000 X-26.033 Y-10.379
G00 F1500 Z0
G01 F600 Z-0.200
G01 F600 X-26.202 Y-10.415
G01 F600 X-26.361 Y-10.485
G01 F600 X-26.501 Y-10.587
G01 F600 X-26.617 Y-10.716
G01 F600 X-26.704 Y-10.867
G01 F600 X-26.758 Y-11.032
G01 F600 X-26.775 Y-11.200
G01 F600 X-26.775 Y-12.732
G01 F600 X-26.758 Y-12.901
G01 F600 X-26.704 Y-13.066
G01 F600 X-26.648 Y-13.162
G01 F600 X-26.648 Y-15.077
G01 F600 X-34.308 Y-15.077
G01 F600 X-34.477 Y-14.908
G01 F600 X-35.195 Y-14.908
G01 F600 X-35.703 Y-15.417
G01 F600 X-35.704 Y-15.651
G01 F600 X-36.399 Y-16.347
G01 F600 X-43.954 Y-16.347
G01 F600 X-43.954 Y-16.004
G01 F600 X-46.038 Y-16.004
G01 F600 X-46.038 Y-18.088
G01 F600 X-43.954 Y-18.088
G01 F600 X-43.954 Y-17.745
G01 F600 X-36.032 Y-17.745
G01 F600 X-35.889 Y-17.715
G01 F600 X-35.755 Y-17.655
G01 F600 X-35.637 Y-17.569
G01 F600 X-34.711 Y-16.644
G01 F600 X-34.477 Y-16.644
G01 F600 X-34.308 Y-16.475
G01 F600 X-17.584 Y-16.475
G01 F600 X-17.415 Y-16.644
G01 F600 X-17.181 Y-16.644
G01 F600 X-16.255 Y-17.569
G01 F600 X-16.137 Y-17.655
G01 F600 X-16.003 Y-17.715
G01 F600 X-15.859 Y-17.745
G01 F600 X-7.938 Y-17.745
G01 F600 X-7.938 Y-18.088
G01 F600 X-5.854 Y-18.088
G01 F600 X-5.854 Y-16.004
G01 F600 X-7.938 Y-16.004
G01 F600 X-7.938 Y-16.347
G01 F600 X-15.493 Y-16.347
G01 F600 X-16.188 Y-15.651
G01 F600 X-16.188 Y-15.417
G01 F600 X-16.697 Y-14.908
G01 F600 X-17.415 Y-14.908
G01 F600 X-17.584 Y-15.077
G01 F600 X-25.243 Y-15.077
G01 F600 X-25.243 Y-13.162
G01 F600 X-25.188 Y-13.066
G01 F600 X-25.134 Y-12.901
G01 F600 X-25.116 Y-12.732
G01 F600 X-25.116 Y-11.200
G01 F600 X-25.134 Y-11.032
G01 F600 X-25.188 Y-10.867
G01 F600 X-25.275 Y-10.716
G01 F600 X-25.391 Y-10.587
G01 F600 X-25.531 Y-10.485
G01 F600 X-25.690 Y-10.415
G01 F600 X-25.859 Y-10.379
G01 F600 X-26.033 Y-10.379
G00 F3000 Z3.000
G00 F3000 X-26.043 Y-10.279
G00 F1500 Z0
G01 F600 Z-0.200
G01 F600 X-26.234 Y-10.319
G01 F600 X-26.411 Y-10.398
G01 F600 X-26.569 Y-10.513
G01 F600 X-26.699 Y-10.657
G01 F600 X-26.796 Y-10.826
G01 F600 X-26.856 Y-11.011
G01 F600 X-26.875 Y-11.195
G01 F600 X-26.875 Y-12.737
G01 F600 X-26.856 Y-12.921
G01 F600 X-26.796 Y-13.106
G01 F600 X-26.748 Y-13.189
G01 F600 X-26.748 Y-14.977
G01 F600 X-34.267 Y-14.977
G01 F600 X-34.435 Y-14.808
G01 F600 X-35.237 Y-14.808
G01 F600 X-35.803 Y-15.375
G01 F600 X-35.804 Y-15.610
G01 F600 X-36.441 Y-16.247
G01 F600 X-43.854 Y-16.247
G01 F600 X-43.854 Y-15.904
G01 F600 X-46.138 Y-15.904
G01 F600 X-46.138 Y-18.189
G01 F600 X-43.854 Y-18.189
G01 F600 X-43.854 Y-17.845
G01 F600 X-36.022 Y-17.845
G01 F600 X-35.858 Y-17.810
G01 F600 X-35.704 Y-17.742
G01 F600 X-35.572 Y-17.646
G01 F600 X-34.670 Y-16.744
G01 F600 X-34.435 Y-16.744
G01 F600 X-34.267 Y-16.575
G01 F600 X-17.625 Y-16.575
G01 F600 X-17.457 Y-16.744
G01 F600 X-17.222 Y-16.744
G01 F600 X-16.320 Y-17.646
G01 F600 X-16.188 Y-17.742
G01 F600 X-16.034 Y-17.810
G01 F600 X-15.870 Y-17.845
G01 F600 X-8.038 Y-17.845
G01 F600 X-8.038 Y-18.189
G01 F600 X-5.753 Y-18.189
G01 F600 X-5.753 Y-15.904
G01 F600 X-8.038 Y-15.904
G01 F600 X-8.038 Y-16.247
G01 F600 X-15.451 Y-16.247
G01 F600 X-16.088 Y-15.610
G01 F600 X-16.088 Y-15.375
G01 F600 X-16.655 Y-14.808
G01 F600 X-17.457 Y-14.808
G01 F600 X-17.625 Y-14.977
G01 F600 X-25.143 Y-14.977
G01 F600 X-25.143 Y-13.189
G01 F600 X-25.096 Y-13.106
G01 F600 X-25.036 Y-12.921
G01 F600 X-25.016 Y-12.737
G01 F600 X-25.016 Y-11.195
G01 F600 X-25.036 Y-11.011
G01 F600 X-25.096 Y-10.826
G01 F600 X-25.193 Y-10.657
G01 F600 X-25.323 Y-10.513
G01 F600 X-25.481 Y-10.398
G01 F600 X-25.658 Y-10.319
G01 F600 X-25.849 Y-10.279
G01 F600 X-26.043 Y-10.279
G00 F3000 Z3.000
G00 F3000 X-23.503 Y-10.279
G00 F1500 Z0
G01 F600 Z-0.200
G01 F600 X-23.694 Y-10.319
G01 F600 X-23.871 Y-10.398
G01 F600 X-24.029 Y-10.513
G01 F600 X-24.159 Y-10.657
G01 F600 X-24.256 Y-10.826
G01 F600 X-24.316 Y-11.011
G01 F600 X-24.335 Y-11.195
G01 F600 X-24.335 Y-12.737
G01 F600 X-24.316 Y-12.921
G01 F600 X-24.256 Y-13.106
G01 F600 X-24.159 Y-13.275
G01 F600 X-24.029 Y-13.419
G01 F600 X-23.871 Y-13.534
G01 F600 X-23.694 Y-13.613
G01 F600 X-23.503 Y-13.653
G01 F600 X-23.309 Y-13.653
G01 F600 X-23.118 Y-13.613
G01 F600 X-22.941 Y-13.534
G01 F600 X-22.783 Y-13.419
G01 F600 X-22.653 Y-13.275
G01 F600 X-22.556 Y-13.106
G01 F600 X-22.496 Y-12.921
G01 F600 X-22.479 Y-12.765
G01 F600 X-18.661 Y-12.765
G01 F600 X-18.005 Y-13.421
G01 F600 X-18.003 Y-13.437
G01 F600 X-17.941 Y-13.630
G01 F600 X-17.839 Y-13.805
G01 F600 X-17.704 Y-13.956
G01 F600 X-17.540 Y-14.075
G01 F600 X-17.355 Y-14.157
G01 F600 X-17.157 Y-14.199
G01 F600 X-16.955 Y-14.199
G01 F600 X-16.757 Y-14.157
G01 F600 X-16.572 Y-14.075
G01 F600 X-16.408 Y-13.956
G01 F600 X-16.272 Y-13.805
G01 F600 X-16.171 Y-13.630
G01 F600 X-16.108 Y-13.437
G01 F600 X-16.107 Y-13.421
G01 F600 X-15.451 Y-12.765
G01 F600 X-8.038 Y-12.765
G01 F600 X-8.038 Y-13.109
G01 F600 X-5.753 Y-13.109
G01 F600 X-5.753 Y-10.824
G01 F600 X-8.038 Y-10.824
G01 F600 X-8.038 Y-11.167
G01 F600 X-15.870 Y-11.167
G01 F600 X-16.034 Y-11.202
G01 F600 X-16.188 Y-11.270
G01 F600 X-16.320 Y-11.366
G01 F600 X-17.056 Y-12.102
G01 F600 X-17.792 Y-11.366
G01 F600 X-17.924 Y-11.270
G01 F600 X-18.078 Y-11.202
G01 F600 X-18.242 Y-11.167
G01 F600 X-22.479 Y-11.167
G01 F600 X-22.496 Y-11.011
G01 F600 X-22.556 Y-10.826
G01 F600 X-22.653 Y-10.657
G01 F600 X-22.783 Y-10.513
G01 F600 X-22.941 Y-10.398
G01 F600 X-23.118 Y-10.319
G01 F600 X-23.309 Y-10.279
G01 F600 X-23.503 Y-10.279
G00 F3000 Z3.000
G00 F3000 X-28.583 Y-10.279
G00 F1500 Z0
G01 F600 Z-0.200
G01 F600 X-28.774 Y-10.319
G01 F600 X-28.951 Y-10.398
G01 F600 X-29.109 Y-10.513
G01 F600 X-29.239 Y-10.657
G01 F600 X-29.336 Y-10.826
G01 F600 X-29.396 Y-11.011
G01 F600 X-29.412 Y-11.167
G01 F600 X-33.650 Y-11.167
G01 F600 X-33.814 Y-11.202
G01 F600 X-33.968 Y-11.270
G01 F600 X-34.100 Y-11.366
G01 F600 X-34.836 Y-12.102
G01 F600 X-35.572 Y-11.366
G01 F600 X-35.704 Y-11.270
G01 F600 X-35.858 Y-11.202
G01 F600 X-36.022 Y-11.167
G01 F600 X-43.854 Y-11.167
G01 F600 X-43.854 Y-10.824
G01 F600 X-46.138 Y-10.824
G01 F600 X-46.138 Y-13.109
G01 F600 X-43.854 Y-13.109
G01 F600 X-43.854 Y-12.765
G01 F600 X-36.441 Y-12.765
G01 F600 X-35.785 Y-13.421
G01 F600 X-35.783 Y-13.437
G01 F600 X-35.721 Y-13.630
G01 F600 X-35.619 Y-13.805
G01 F600 X-35.484 Y-13.956
G01 F600 X-35.320 Y-14.075
G01 F600 X-35.135 Y-14.157
G01 F600 X-34.937 Y-14.199
G01 F600 X-34.735 Y-14.199
G01 F600 X-34.537 Y-14.157
G01 F600 X-34.352 Y-14.075
G01 F600 X-34.188 Y-13.956
G01 F600 X-34.052 Y-13.805
G01 F600 X-33.951 Y-13.630
G01 F600 X-33.889 Y-13.437
G01 F600 X-33.887 Y-13.421
G01 F600 X-33.231 Y-12.765
G01 F600 X-29.412 Y-12.765
G01 F600 X-29.396 Y-12.921
G01 F600 X-29.336 Y-13.106
G01 F600 X-29.239 Y-13.275
G01 F600 X-29.109 Y-13.419
G01 F600 X-28.951 Y-13.534
G01 F600 X-28.774 Y-13.613
G01 F600 X-28.583 Y-13.653
G01 F600 X-28.389 Y-13.653
G01 F600 X-28.198 Y-13.613
G01 F600 X-28.021 Y-13.534
G01 F600 X-27.863 Y-13.419
G01 F600 X-27.733 Y-13.275
G01 F600 X-27.636 Y-13.106
G01 F600 X-27.576 Y-12.921
G01 F600 X-27.556 Y-12.737
G01 F600 X-27.556 Y-11.195
G01 F600 X-27.576 Y-11.011
G01 F600 X-27.636 Y-10.826
G01 F600 X-27.733 Y-10.657
G01 F600 X-27.863 Y-10.513
G01 F600 X-28.021 Y-10.398
G01 F600 X-28.198 Y-10.319
G01 F600 X-28.389 Y-10.279
G01 F600 X-28.583 Y-10.279
G00 F3000 Z3.000
G00 F3000 Z3.000
G00 F3000 X0.000 Y0.000
M05
M30
%