( Made using CamBam - http://www.cambam.co.uk )
( cylinder 3/14/2016 5:06:21 PM )
( T0 : 3.17 )
G21 G90 G91.1 G64 G40
G0 Z3.0
( T0 : 3.17 )
T0 M6
( 3DSurface1 )
G17
M3 S1000
G0 X-12.6672 Y-46.9017
G0 Z1.0
G1 F200.0 Z-0.4
G2 F800.0 X-12.771 Y-46.8629 I0.5028 J1.5032
G1 X-24.1066 Y-42.1675
G2 X-24.4649 Y-41.9607 I0.6066 J1.4643
G1 X-34.1989 Y-34.4915
G2 X-34.4915 Y-34.1989 I0.9649 J1.2575
G1 X-41.9607 Y-24.4649
G2 X-42.1675 Y-24.1066 I1.2575 J0.9649
G1 X-46.8629 Y-12.771
G2 X-46.97 Y-12.3714 I1.4643 J0.6066
G1 X-48.5714 Y-0.2069
G2 Y0.2069 I1.5714 J0.2069
G1 X-46.97 Y12.3714
G2 X-46.8629 Y12.771 I1.5714 J-0.2069
G1 X-42.1675 Y24.1066
G2 X-41.9607 Y24.4649 I1.4643 J-0.6066
G1 X-34.4915 Y34.1989
G2 X-34.1989 Y34.4915 I1.2575 J-0.9649
G1 X-24.4649 Y41.9607
G2 X-24.1066 Y42.1675 I0.9649 J-1.2575
G1 X-12.771 Y46.8629
G2 X-12.3714 Y46.97 I0.6066 J-1.4643
G1 X-0.2069 Y48.5714
G2 X0.2069 I0.2069 J-1.5714
G1 X12.3714 Y46.97
G2 X12.771 Y46.8629 I-0.2069 J-1.5714
G1 X24.1066 Y42.1675
G2 X24.4649 Y41.9607 I-0.6066 J-1.4643
G1 X34.1989 Y34.4915
G2 X34.4915 Y34.1989 I-0.9649 J-1.2575
G1 X41.9607 Y24.4649
G2 X42.1675 Y24.1066 I-1.2575 J-0.9649
G1 X46.8629 Y12.771
G2 X46.97 Y12.3714 I-1.4643 J-0.6066
G1 X48.5714 Y0.2069
G2 Y-0.2069 I-1.5714 J-0.2069
G1 X46.97 Y-12.3714
G2 X46.8629 Y-12.771 I-1.5714 J0.2069
G1 X42.1675 Y-24.1066
G2 X41.9607 Y-24.4649 I-1.4643 J0.6066
G1 X34.4915 Y-34.1989
G2 X34.1989 Y-34.4915 I-1.2575 J0.9649
G1 X24.4649 Y-41.9607
G2 X24.1066 Y-42.1675 I-0.9649 J1.2575
G1 X12.771 Y-46.8629
G2 X12.6672 Y-46.9017 I-0.6066 J1.4643
G0 Z3.0
G0 X0.3357 Y-35.0444
G0 Z1.0
G1 F200.0 Z-0.4
G1 F800.0 X0.2568 Y-35.1224
G1 X0.1604 Y-35.1773
G1 X0.053 Y-35.2054
G1 X-0.0579 Y-35.2048
G1 X-0.1649 Y-35.1754
G1 X-0.2607 Y-35.1194
G1 X-0.3387 Y-35.0405
G1 X-0.3936 Y-34.9441
G1 X-0.4217 Y-34.8367
G1 X-0.4211 Y-34.7258
G1 X-0.3917 Y-34.6188
G1 X-0.3357 Y-34.523
G1 X-0.2568 Y-34.445
G1 X-0.1604 Y-34.3901
G1 X-0.053 Y-34.362
G1 X0.0579 Y-34.3626
G1 X0.1649 Y-34.392
G1 X0.2607 Y-34.448
G1 X0.3387 Y-34.5269
G1 X0.3936 Y-34.6233
G1 X0.4217 Y-34.7307
G1 X0.4211 Y-34.8416
G1 X0.3917 Y-34.9486
G1 X0.3357 Y-35.0444
G1 F200.0 X0.7814 Y-35.4953
G1 F800.0 X0.6431 Y-35.632
G1 X0.4016 Y-35.7695
G1 X0.1328 Y-35.8399
G1 X-0.1451 Y-35.8383
G1 X-0.4131 Y-35.7648
G1 X-0.6529 Y-35.6244
G1 X-0.8483 Y-35.4268
G1 X-0.9858 Y-35.1853
G1 X-1.0562 Y-34.9165
G1 X-1.0546 Y-34.6386
G1 X-0.9811 Y-34.3706
G1 X-0.8407 Y-34.1308
G1 X-0.6431 Y-33.9354
G1 X-0.4016 Y-33.7979
G1 X-0.1328 Y-33.7275
G1 X0.1451 Y-33.7291
G1 X0.4131 Y-33.8026
G1 X0.6529 Y-33.943
G1 X0.8483 Y-34.1406
G1 X0.9858 Y-34.3821
G1 X1.0562 Y-34.6509
G1 X1.0546 Y-34.9288
G1 X0.9811 Y-35.1968
G1 X0.8407 Y-35.4366
G1 X0.7814 Y-35.4953
G1 F200.0 X1.6728 Y-36.3971
G1 F800.0 X1.4158 Y-36.6511
G1 X0.8842 Y-36.9539
G1 X0.2924 Y-37.1088
G1 X-0.3194 Y-37.1053
G1 X-0.9094 Y-36.9435
G1 X-1.4374 Y-36.6346
G1 X-1.8674 Y-36.1995
G1 X-2.1702 Y-35.6679
G1 X-2.3251 Y-35.0761
G1 X-2.3216 Y-34.4643
G1 X-2.1598 Y-33.8743
G1 X-1.8508 Y-33.3463
G1 X-1.4158 Y-32.9163
G1 X-0.8842 Y-32.6135
G1 X-0.2924 Y-32.4586
G1 X0.3194 Y-32.4621
G1 X0.9094 Y-32.6239
G1 X1.4374 Y-32.9329
G1 X1.8674 Y-33.3679
G1 X2.1702 Y-33.8995
G1 X2.3251 Y-34.4913
G1 X2.3216 Y-35.1031
G1 X2.1598 Y-35.6931
G1 X1.8508 Y-36.2211
G1 X1.6728 Y-36.3971
G1 F200.0 X2.5641 Y-37.2989
G1 F800.0 X2.1884 Y-37.6703
G1 X1.3667 Y-38.1384
G1 X0.4519 Y-38.3778
G1 X-0.4937 Y-38.3723
G1 X-1.4057 Y-38.1222
G1 X-2.2218 Y-37.6447
G1 X-2.8866 Y-36.9721
G1 X-3.3547 Y-36.1504
G1 X-3.5941 Y-35.2356
G1 X-3.5886 Y-34.29
G1 X-3.3385 Y-33.378
G1 X-2.861 Y-32.5619
G1 X-2.1884 Y-31.8971
G1 X-1.3667 Y-31.4291
G1 X-0.4519 Y-31.1896
G1 X0.4937 Y-31.1951
G1 X1.4057 Y-31.4452
G1 X2.2218 Y-31.9227
G1 X2.8866 Y-32.5953
G1 X3.3547 Y-33.417
G1 X3.5941 Y-34.3318
G1 X3.5886 Y-35.2774
G1 X3.3385 Y-36.1894
G1 X2.861 Y-37.0055
G1 X2.5641 Y-37.2989
G1 F200.0 X3.4555 Y-38.2007
G1 F800.0 X2.9611 Y-38.6895
G1 X1.8493 Y-39.3228
G1 X0.6115 Y-39.6467
G1 X-0.668 Y-39.6393
G1 X-1.902 Y-39.3009
G1 X-3.0063 Y-38.6548
G1 X-3.9058 Y-37.7448
G1 X-4.5391 Y-36.633
G1 X-4.863 Y-35.3952
G1 X-4.8556 Y-34.1157
G1 X-4.5172 Y-32.8817
G1 X-3.8711 Y-31.7774
G1 X-2.9611 Y-30.8779
G1 X-1.8493 Y-30.2446
G1 X-0.6115 Y-29.9207
G1 X0.668 Y-29.9281
G1 X1.902 Y-30.2665
G1 X3.0063 Y-30.9126
G1 X3.9058 Y-31.8226
G1 X4.5391 Y-32.9344
G1 X4.863 Y-34.1722
G1 X4.8556 Y-35.4517
G1 X4.5172 Y-36.6857
G1 X3.8711 Y-37.79
G1 X3.4555 Y-38.2007
G0 Z3.0
G0 X0.3357 Y-35.0444
G0 Z0.6
G1 F200.0 Z-0.8
G1 F800.0 X0.2568 Y-35.1224
G1 X0.1604 Y-35.1773
G1 X0.053 Y-35.2054
G1 X-0.0579 Y-35.2048
G1 X-0.1649 Y-35.1754
G1 X-0.2607 Y-35.1194
G1 X-0.3387 Y-35.0405
G1 X-0.3936 Y-34.9441
G1 X-0.4217 Y-34.8367
G1 X-0.4211 Y-34.7258
G1 X-0.3917 Y-34.6188
G1 X-0.3357 Y-34.523
G1 X-0.2568 Y-34.445
G1 X-0.1604 Y-34.3901
G1 X-0.053 Y-34.362
G1 X0.0579 Y-34.3626
G1 X0.1649 Y-34.392
G1 X0.2607 Y-34.448
G1 X0.3387 Y-34.5269
G1 X0.3936 Y-34.6233
G1 X0.4217 Y-34.7307
G1 X0.4211 Y-34.8416
G1 X0.3917 Y-34.9486
G1 X0.3357 Y-35.0444
G1 F200.0 X0.7814 Y-35.4953
G1 F800.0 X0.6431 Y-35.632
G1 X0.4016 Y-35.7695
G1 X0.1328 Y-35.8399
G1 X-0.1451 Y-35.8383
G1 X-0.4131 Y-35.7648
G1 X-0.6529 Y-35.6244
G1 X-0.8483 Y-35.4268
G1 X-0.9858 Y-35.1853
G1 X-1.0562 Y-34.9165
G1 X-1.0546 Y-34.6386
G1 X-0.9811 Y-34.3706
G1 X-0.8407 Y-34.1308
G1 X-0.6431 Y-33.9354
G1 X-0.4016 Y-33.7979
G1 X-0.1328 Y-33.7275
G1 X0.1451 Y-33.7291
G1 X0.4131 Y-33.8026
G1 X0.6529 Y-33.943
G1 X0.8483 Y-34.1406
G1 X0.9858 Y-34.3821
G1 X1.0562 Y-34.6509
G1 X1.0546 Y-34.9288
G1 X0.9811 Y-35.1968
G1 X0.8407 Y-35.4366
G1 X0.7814 Y-35.4953
G1 F200.0 X1.6728 Y-36.3971
G1 F800.0 X1.4158 Y-36.6511
G1 X0.8842 Y-36.9539
G1 X0.2924 Y-37.1088
G1 X-0.3194 Y-37.1053
G1 X-0.9094 Y-36.9435
G1 X-1.4374 Y-36.6346
G1 X-1.8674 Y-36.1995
G1 X-2.1702 Y-35.6679
G1 X-2.3251 Y-35.0761
G1 X-2.3216 Y-34.4643
G1 X-2.1598 Y-33.8743
G1 X-1.8508 Y-33.3463
G1 X-1.4158 Y-32.9163
G1 X-0.8842 Y-32.6135
G1 X-0.2924 Y-32.4586
G1 X0.3194 Y-32.4621
G1 X0.9094 Y-32.6239
G1 X1.4374 Y-32.9329
G1 X1.8674 Y-33.3679
G1 X2.1702 Y-33.8995
G1 X2.3251 Y-34.4913
G1 X2.3216 Y-35.1031
G1 X2.1598 Y-35.6931
G1 X1.8508 Y-36.2211
G1 X1.6728 Y-36.3971
G1 F200.0 X2.5641 Y-37.2989
G1 F800.0 X2.1884 Y-37.6703
G1 X1.3667 Y-38.1384
G1 X0.4519 Y-38.3778
G1 X-0.4937 Y-38.3723
G1 X-1.4057 Y-38.1222
G1 X-2.2218 Y-37.6447
G1 X-2.8866 Y-36.9721
G1 X-3.3547 Y-36.1504
G1 X-3.5941 Y-35.2356
G1 X-3.5886 Y-34.29
G1 X-3.3385 Y-33.378
G1 X-2.861 Y-32.5619
G1 X-2.1884 Y-31.8971
G1 X-1.3667 Y-31.4291
G1 X-0.4519 Y-31.1896
G1 X0.4937 Y-31.1951
G1 X1.4057 Y-31.4452
G1 X2.2218 Y-31.9227
G1 X2.8866 Y-32.5953
G1 X3.3547 Y-33.417
G1 X3.5941 Y-34.3318
G1 X3.5886 Y-35.2774
G1 X3.3385 Y-36.1894
G1 X2.861 Y-37.0055
G1 X2.5641 Y-37.2989
G1 F200.0 X3.4555 Y-38.2007
G1 F800.0 X2.9611 Y-38.6895
G1 X1.8493 Y-39.3228
G1 X0.6115 Y-39.6467
G1 X-0.668 Y-39.6393
G1 X-1.902 Y-39.3009
G1 X-3.0063 Y-38.6548
G1 X-3.9058 Y-37.7448
G1 X-4.5391 Y-36.633
G1 X-4.863 Y-35.3952
G1 X-4.8556 Y-34.1157
G1 X-4.5172 Y-32.8817
G1 X-3.8711 Y-31.7774
G1 X-2.9611 Y-30.8779
G1 X-1.8493 Y-30.2446
G1 X-0.6115 Y-29.9207
G1 X0.668 Y-29.9281
G1 X1.902 Y-30.2665
G1 X3.0063 Y-30.9126
G1 X3.9058 Y-31.8226
G1 X4.5391 Y-32.9344
G1 X4.863 Y-34.1722
G1 X4.8556 Y-35.4517
G1 X4.5172 Y-36.6857
G1 X3.8711 Y-37.79
G1 X3.4555 Y-38.2007
G0 Z3.0
G0 X0.3357 Y-35.0444
G0 Z0.2
G1 F200.0 Z-1.2
G1 F800.0 X0.2568 Y-35.1224
G1 X0.1604 Y-35.1773
G1 X0.053 Y-35.2054
G1 X-0.0579 Y-35.2048
G1 X-0.1649 Y-35.1754
G1 X-0.2607 Y-35.1194
G1 X-0.3387 Y-35.0405
G1 X-0.3936 Y-34.9441
G1 X-0.4217 Y-34.8367
G1 X-0.4211 Y-34.7258
G1 X-0.3917 Y-34.6188
G1 X-0.3357 Y-34.523
G1 X-0.2568 Y-34.445
G1 X-0.1604 Y-34.3901
G1 X-0.053 Y-34.362
G1 X0.0579 Y-34.3626
G1 X0.1649 Y-34.392
G1 X0.2607 Y-34.448
G1 X0.3387 Y-34.5269
G1 X0.3936 Y-34.6233
G1 X0.4217 Y-34.7307
G1 X0.4211 Y-34.8416
G1 X0.3917 Y-34.9486
G1 X0.3357 Y-35.0444
G1 F200.0 X0.7814 Y-35.4953
G1 F800.0 X0.6431 Y-35.632
G1 X0.4016 Y-35.7695
G1 X0.1328 Y-35.8399
G1 X-0.1451 Y-35.8383
G1 X-0.4131 Y-35.7648
G1 X-0.6529 Y-35.6244
G1 X-0.8483 Y-35.4268
G1 X-0.9858 Y-35.1853
G1 X-1.0562 Y-34.9165
G1 X-1.0546 Y-34.6386
G1 X-0.9811 Y-34.3706
G1 X-0.8407 Y-34.1308
G1 X-0.6431 Y-33.9354
G1 X-0.4016 Y-33.7979
G1 X-0.1328 Y-33.7275
G1 X0.1451 Y-33.7291
G1 X0.4131 Y-33.8026
G1 X0.6529 Y-33.943
G1 X0.8483 Y-34.1406
G1 X0.9858 Y-34.3821
G1 X1.0562 Y-34.6509
G1 X1.0546 Y-34.9288
G1 X0.9811 Y-35.1968
G1 X0.8407 Y-35.4366
G1 X0.7814 Y-35.4953
G1 F200.0 X1.6728 Y-36.3971
G1 F800.0 X1.4158 Y-36.6511
G1 X0.8842 Y-36.9539
G1 X0.2924 Y-37.1088
G1 X-0.3194 Y-37.1053
G1 X-0.9094 Y-36.9435
G1 X-1.4374 Y-36.6346
G1 X-1.8674 Y-36.1995
G1 X-2.1702 Y-35.6679
G1 X-2.3251 Y-35.0761
G1 X-2.3216 Y-34.4643
G1 X-2.1598 Y-33.8743
G1 X-1.8508 Y-33.3463
G1 X-1.4158 Y-32.9163
G1 X-0.8842 Y-32.6135
G1 X-0.2924 Y-32.4586
G1 X0.3194 Y-32.4621
G1 X0.9094 Y-32.6239
G1 X1.4374 Y-32.9329
G1 X1.8674 Y-33.3679
G1 X2.1702 Y-33.8995
G1 X2.3251 Y-34.4913
G1 X2.3216 Y-35.1031
G1 X2.1598 Y-35.6931
G1 X1.8508 Y-36.2211
G1 X1.6728 Y-36.3971
G1 F200.0 X2.5641 Y-37.2989
G1 F800.0 X2.1884 Y-37.6703
G1 X1.3667 Y-38.1384
G1 X0.4519 Y-38.3778
G1 X-0.4937 Y-38.3723
G1 X-1.4057 Y-38.1222
G1 X-2.2218 Y-37.6447
G1 X-2.8866 Y-36.9721
G1 X-3.3547 Y-36.1504
G1 X-3.5941 Y-35.2356
G1 X-3.5886 Y-34.29
G1 X-3.3385 Y-33.378
G1 X-2.861 Y-32.5619
G1 X-2.1884 Y-31.8971
G1 X-1.3667 Y-31.4291
G1 X-0.4519 Y-31.1896
G1 X0.4937 Y-31.1951
G1 X1.4057 Y-31.4452
G1 X2.2218 Y-31.9227
G1 X2.8866 Y-32.5953
G1 X3.3547 Y-33.417
G1 X3.5941 Y-34.3318
G1 X3.5886 Y-35.2774
G1 X3.3385 Y-36.1894
G1 X2.861 Y-37.0055
G1 X2.5641 Y-37.2989
G1 F200.0 X3.4555 Y-38.2007
G1 F800.0 X2.9611 Y-38.6895
G1 X1.8493 Y-39.3228
G1 X0.6115 Y-39.6467
G1 X-0.668 Y-39.6393
G1 X-1.902 Y-39.3009
G1 X-3.0063 Y-38.6548
G1 X-3.9058 Y-37.7448
G1 X-4.5391 Y-36.633
G1 X-4.863 Y-35.3952
G1 X-4.8556 Y-34.1157
G1 X-4.5172 Y-32.8817
G1 X-3.8711 Y-31.7774
G1 X-2.9611 Y-30.8779
G1 X-1.8493 Y-30.2446
G1 X-0.6115 Y-29.9207
G1 X0.668 Y-29.9281
G1 X1.902 Y-30.2665
G1 X3.0063 Y-30.9126
G1 X3.9058 Y-31.8226
G1 X4.5391 Y-32.9344
G1 X4.863 Y-34.1722
G1 X4.8556 Y-35.4517
G1 X4.5172 Y-36.6857
G1 X3.8711 Y-37.79
G1 X3.4555 Y-38.2007
G0 Z3.0
G0 X0.3357 Y-35.0444
G0 Z-0.2
G1 F200.0 Z-1.6
G1 F800.0 X0.2568 Y-35.1224
G1 X0.1604 Y-35.1773
G1 X0.053 Y-35.2054
G1 X-0.0579 Y-35.2048
G1 X-0.1649 Y-35.1754
G1 X-0.2607 Y-35.1194
G1 X-0.3387 Y-35.0405
G1 X-0.3936 Y-34.9441
G1 X-0.4217 Y-34.8367
G1 X-0.4211 Y-34.7258
G1 X-0.3917 Y-34.6188
G1 X-0.3357 Y-34.523
G1 X-0.2568 Y-34.445
G1 X-0.1604 Y-34.3901
G1 X-0.053 Y-34.362
G1 X0.0579 Y-34.3626
G1 X0.1649 Y-34.392
G1 X0.2607 Y-34.448
G1 X0.3387 Y-34.5269
G1 X0.3936 Y-34.6233
G1 X0.4217 Y-34.7307
G1 X0.4211 Y-34.8416
G1 X0.3917 Y-34.9486
G1 X0.3357 Y-35.0444
G1 F200.0 X0.7814 Y-35.4953
G1 F800.0 X0.6431 Y-35.632
G1 X0.4016 Y-35.7695
G1 X0.1328 Y-35.8399
G1 X-0.1451 Y-35.8383
G1 X-0.4131 Y-35.7648
G1 X-0.6529 Y-35.6244
G1 X-0.8483 Y-35.4268
G1 X-0.9858 Y-35.1853
G1 X-1.0562 Y-34.9165
G1 X-1.0546 Y-34.6386
G1 X-0.9811 Y-34.3706
G1 X-0.8407 Y-34.1308
G1 X-0.6431 Y-33.9354
G1 X-0.4016 Y-33.7979
G1 X-0.1328 Y-33.7275
G1 X0.1451 Y-33.7291
G1 X0.4131 Y-33.8026
G1 X0.6529 Y-33.943
G1 X0.8483 Y-34.1406
G1 X0.9858 Y-34.3821
G1 X1.0562 Y-34.6509
G1 X1.0546 Y-34.9288
G1 X0.9811 Y-35.1968
G1 X0.8407 Y-35.4366
G1 X0.7814 Y-35.4953
G1 F200.0 X1.6728 Y-36.3971
G1 F800.0 X1.4158 Y-36.6511
G1 X0.8842 Y-36.9539
G1 X0.2924 Y-37.1088
G1 X-0.3194 Y-37.1053
G1 X-0.9094 Y-36.9435
G1 X-1.4374 Y-36.6346
G1 X-1.8674 Y-36.1995
G1 X-2.1702 Y-35.6679
G1 X-2.3251 Y-35.0761
G1 X-2.3216 Y-34.4643
G1 X-2.1598 Y-33.8743
G1 X-1.8508 Y-33.3463
G1 X-1.4158 Y-32.9163
G1 X-0.8842 Y-32.6135
G1 X-0.2924 Y-32.4586
G1 X0.3194 Y-32.4621
G1 X0.9094 Y-32.6239
G1 X1.4374 Y-32.9329
G1 X1.8674 Y-33.3679
G1 X2.1702 Y-33.8995
G1 X2.3251 Y-34.4913
G1 X2.3216 Y-35.1031
G1 X2.1598 Y-35.6931
G1 X1.8508 Y-36.2211
G1 X1.6728 Y-36.3971
G1 F200.0 X2.5641 Y-37.2989
G1 F800.0 X2.1884 Y-37.6703
G1 X1.3667 Y-38.1384
G1 X0.4519 Y-38.3778
G1 X-0.4937 Y-38.3723
G1 X-1.4057 Y-38.1222
G1 X-2.2218 Y-37.6447
G1 X-2.8866 Y-36.9721
G1 X-3.3547 Y-36.1504
G1 X-3.5941 Y-35.2356
G1 X-3.5886 Y-34.29
G1 X-3.3385 Y-33.378
G1 X-2.861 Y-32.5619
G1 X-2.1884 Y-31.8971
G1 X-1.3667 Y-31.4291
G1 X-0.4519 Y-31.1896
G1 X0.4937 Y-31.1951
G1 X1.4057 Y-31.4452
G1 X2.2218 Y-31.9227
G1 X2.8866 Y-32.5953
G1 X3.3547 Y-33.417
G1 X3.5941 Y-34.3318
G1 X3.5886 Y-35.2774
G1 X3.3385 Y-36.1894
G1 X2.861 Y-37.0055
G1 X2.5641 Y-37.2989
G1 F200.0 X3.4555 Y-38.2007
G1 F800.0 X2.9611 Y-38.6895
G1 X1.8493 Y-39.3228
G1 X0.6115 Y-39.6467
G1 X-0.668 Y-39.6393
G1 X-1.902 Y-39.3009
G1 X-3.0063 Y-38.6548
G1 X-3.9058 Y-37.7448
G1 X-4.5391 Y-36.633
G1 X-4.863 Y-35.3952
G1 X-4.8556 Y-34.1157
G1 X-4.5172 Y-32.8817
G1 X-3.8711 Y-31.7774
G1 X-2.9611 Y-30.8779
G1 X-1.8493 Y-30.2446
G1 X-0.6115 Y-29.9207
G1 X0.668 Y-29.9281
G1 X1.902 Y-30.2665
G1 X3.0063 Y-30.9126
G1 X3.9058 Y-31.8226
G1 X4.5391 Y-32.9344
G1 X4.863 Y-34.1722
G1 X4.8556 Y-35.4517
G1 X4.5172 Y-36.6857
G1 X3.8711 Y-37.79
G1 X3.4555 Y-38.2007
G0 Z3.0
G0 X0.3357 Y-35.0444
G0 Z-0.6
G1 F200.0 Z-2.0
G1 F800.0 X0.2568 Y-35.1224
G1 X0.1604 Y-35.1773
G1 X0.053 Y-35.2054
G1 X-0.0579 Y-35.2048
G1 X-0.1649 Y-35.1754
G1 X-0.2607 Y-35.1194
G1 X-0.3387 Y-35.0405
G1 X-0.3936 Y-34.9441
G1 X-0.4217 Y-34.8367
G1 X-0.4211 Y-34.7258
G1 X-0.3917 Y-34.6188
G1 X-0.3357 Y-34.523
G1 X-0.2568 Y-34.445
G1 X-0.1604 Y-34.3901
G1 X-0.053 Y-34.362
G1 X0.0579 Y-34.3626
G1 X0.1649 Y-34.392
G1 X0.2607 Y-34.448
G1 X0.3387 Y-34.5269
G1 X0.3936 Y-34.6233
G1 X0.4217 Y-34.7307
G1 X0.4211 Y-34.8416
G1 X0.3917 Y-34.9486
G1 X0.3357 Y-35.0444
G1 F200.0 X0.7814 Y-35.4953
G1 F800.0 X0.6431 Y-35.632
G1 X0.4016 Y-35.7695
G1 X0.1328 Y-35.8399
G1 X-0.1451 Y-35.8383
G1 X-0.4131 Y-35.7648
G1 X-0.6529 Y-35.6244
G1 X-0.8483 Y-35.4268
G1 X-0.9858 Y-35.1853
G1 X-1.0562 Y-34.9165
G1 X-1.0546 Y-34.6386
G1 X-0.9811 Y-34.3706
G1 X-0.8407 Y-34.1308
G1 X-0.6431 Y-33.9354
G1 X-0.4016 Y-33.7979
G1 X-0.1328 Y-33.7275
G1 X0.1451 Y-33.7291
G1 X0.4131 Y-33.8026
G1 X0.6529 Y-33.943
G1 X0.8483 Y-34.1406
G1 X0.9858 Y-34.3821
G1 X1.0562 Y-34.6509
G1 X1.0546 Y-34.9288
G1 X0.9811 Y-35.1968
G1 X0.8407 Y-35.4366
G1 X0.7814 Y-35.4953
G1 F200.0 X1.6728 Y-36.3971
G1 F800.0 X1.4158 Y-36.6511
G1 X0.8842 Y-36.9539
G1 X0.2924 Y-37.1088
G1 X-0.3194 Y-37.1053
G1 X-0.9094 Y-36.9435
G1 X-1.4374 Y-36.6346
G1 X-1.8674 Y-36.1995
G1 X-2.1702 Y-35.6679
G1 X-2.3251 Y-35.0761
G1 X-2.3216 Y-34.4643
G1 X-2.1598 Y-33.8743
G1 X-1.8508 Y-33.3463
G1 X-1.4158 Y-32.9163
G1 X-0.8842 Y-32.6135
G1 X-0.2924 Y-32.4586
G1 X0.3194 Y-32.4621
G1 X0.9094 Y-32.6239
G1 X1.4374 Y-32.9329
G1 X1.8674 Y-33.3679
G1 X2.1702 Y-33.8995
G1 X2.3251 Y-34.4913
G1 X2.3216 Y-35.1031
G1 X2.1598 Y-35.6931
G1 X1.8508 Y-36.2211
G1 X1.6728 Y-36.3971
G1 F200.0 X2.5641 Y-37.2989
G1 F800.0 X2.1884 Y-37.6703
G1 X1.3667 Y-38.1384
G1 X0.4519 Y-38.3778
G1 X-0.4937 Y-38.3723
G1 X-1.4057 Y-38.1222
G1 X-2.2218 Y-37.6447
G1 X-2.8866 Y-36.9721
G1 X-3.3547 Y-36.1504
G1 X-3.5941 Y-35.2356
G1 X-3.5886 Y-34.29
G1 X-3.3385 Y-33.378
G1 X-2.861 Y-32.5619
G1 X-2.1884 Y-31.8971
G1 X-1.3667 Y-31.4291
G1 X-0.4519 Y-31.1896
G1 X0.4937 Y-31.1951
G1 X1.4057 Y-31.4452
G1 X2.2218 Y-31.9227
G1 X2.8866 Y-32.5953
G1 X3.3547 Y-33.417
G1 X3.5941 Y-34.3318
G1 X3.5886 Y-35.2774
G1 X3.3385 Y-36.1894
G1 X2.861 Y-37.0055
G1 X2.5641 Y-37.2989
G1 F200.0 X3.4555 Y-38.2007
G1 F800.0 X2.9611 Y-38.6895
G1 X1.8493 Y-39.3228
G1 X0.6115 Y-39.6467
G1 X-0.668 Y-39.6393
G1 X-1.902 Y-39.3009
G1 X-3.0063 Y-38.6548
G1 X-3.9058 Y-37.7448
G1 X-4.5391 Y-36.633
G1 X-4.863 Y-35.3952
G1 X-4.8556 Y-34.1157
G1 X-4.5172 Y-32.8817
G1 X-3.8711 Y-31.7774
G1 X-2.9611 Y-30.8779
G1 X-1.8493 Y-30.2446
G1 X-0.6115 Y-29.9207
G1 X0.668 Y-29.9281
G1 X1.902 Y-30.2665
G1 X3.0063 Y-30.9126
G1 X3.9058 Y-31.8226
G1 X4.5391 Y-32.9344
G1 X4.863 Y-34.1722
G1 X4.8556 Y-35.4517
G1 X4.5172 Y-36.6857
G1 X3.8711 Y-37.79
G1 X3.4555 Y-38.2007
G0 Z3.0
G0 X0.3357 Y-35.0444
G0 Z-1.0
G1 F200.0 Z-2.4
G1 F800.0 X0.2568 Y-35.1224
G1 X0.1604 Y-35.1773
G1 X0.053 Y-35.2054
G1 X-0.0579 Y-35.2048
G1 X-0.1649 Y-35.1754
G1 X-0.2607 Y-35.1194
G1 X-0.3387 Y-35.0405
G1 X-0.3936 Y-34.9441
G1 X-0.4217 Y-34.8367
G1 X-0.4211 Y-34.7258
G1 X-0.3917 Y-34.6188
G1 X-0.3357 Y-34.523
G1 X-0.2568 Y-34.445
G1 X-0.1604 Y-34.3901
G1 X-0.053 Y-34.362
G1 X0.0579 Y-34.3626
G1 X0.1649 Y-34.392
G1 X0.2607 Y-34.448
G1 X0.3387 Y-34.5269
G1 X0.3936 Y-34.6233
G1 X0.4217 Y-34.7307
G1 X0.4211 Y-34.8416
G1 X0.3917 Y-34.9486
G1 X0.3357 Y-35.0444
G1 F200.0 X0.7814 Y-35.4953
G1 F800.0 X0.6431 Y-35.632
G1 X0.4016 Y-35.7695
G1 X0.1328 Y-35.8399
G1 X-0.1451 Y-35.8383
G1 X-0.4131 Y-35.7648
G1 X-0.6529 Y-35.6244
G1 X-0.8483 Y-35.4268
G1 X-0.9858 Y-35.1853
G1 X-1.0562 Y-34.9165
G1 X-1.0546 Y-34.6386
G1 X-0.9811 Y-34.3706
G1 X-0.8407 Y-34.1308
G1 X-0.6431 Y-33.9354
G1 X-0.4016 Y-33.7979
G1 X-0.1328 Y-33.7275
G1 X0.1451 Y-33.7291
G1 X0.4131 Y-33.8026
G1 X0.6529 Y-33.943
G1 X0.8483 Y-34.1406
G1 X0.9858 Y-34.3821
G1 X1.0562 Y-34.6509
G1 X1.0546 Y-34.9288
G1 X0.9811 Y-35.1968
G1 X0.8407 Y-35.4366
G1 X0.7814 Y-35.4953
G1 F200.0 X1.6728 Y-36.3971
G1 F800.0 X1.4158 Y-36.6511
G1 X0.8842 Y-36.9539
G1 X0.2924 Y-37.1088
G1 X-0.3194 Y-37.1053
G1 X-0.9094 Y-36.9435
G1 X-1.4374 Y-36.6346
G1 X-1.8674 Y-36.1995
G1 X-2.1702 Y-35.6679
G1 X-2.3251 Y-35.0761
G1 X-2.3216 Y-34.4643
G1 X-2.1598 Y-33.8743
G1 X-1.8508 Y-33.3463
G1 X-1.4158 Y-32.9163
G1 X-0.8842 Y-32.6135
G1 X-0.2924 Y-32.4586
G1 X0.3194 Y-32.4621
G1 X0.9094 Y-32.6239
G1 X1.4374 Y-32.9329
G1 X1.8674 Y-33.3679
G1 X2.1702 Y-33.8995
G1 X2.3251 Y-34.4913
G1 X2.3216 Y-35.1031
G1 X2.1598 Y-35.6931
G1 X1.8508 Y-36.2211
G1 X1.6728 Y-36.3971
G1 F200.0 X2.5641 Y-37.2989
G1 F800.0 X2.1884 Y-37.6703
G1 X1.3667 Y-38.1384
G1 X0.4519 Y-38.3778
G1 X-0.4937 Y-38.3723
G1 X-1.4057 Y-38.1222
G1 X-2.2218 Y-37.6447
G1 X-2.8866 Y-36.9721
G1 X-3.3547 Y-36.1504
G1 X-3.5941 Y-35.2356
G1 X-3.5886 Y-34.29
G1 X-3.3385 Y-33.378
G1 X-2.861 Y-32.5619
G1 X-2.1884 Y-31.8971
G1 X-1.3667 Y-31.4291
G1 X-0.4519 Y-31.1896
G1 X0.4937 Y-31.1951
G1 X1.4057 Y-31.4452
G1 X2.2218 Y-31.9227
G1 X2.8866 Y-32.5953
G1 X3.3547 Y-33.417
G1 X3.5941 Y-34.3318
G1 X3.5886 Y-35.2774
G1 X3.3385 Y-36.1894
G1 X2.861 Y-37.0055
G1 X2.5641 Y-37.2989
G1 F200.0 X3.4555 Y-38.2007
G1 F800.0 X2.9611 Y-38.6895
G1 X1.8493 Y-39.3228
G1 X0.6115 Y-39.6467
G1 X-0.668 Y-39.6393
G1 X-1.902 Y-39.3009
G1 X-3.0063 Y-38.6548
G1 X-3.9058 Y-37.7448
G1 X-4.5391 Y-36.633
G1 X-4.863 Y-35.3952
G1 X-4.8556 Y-34.1157
G1 X-4.5172 Y-32.8817
G1 X-3.8711 Y-31.7774
G1 X-2.9611 Y-30.8779
G1 X-1.8493 Y-30.2446
G1 X-0.6115 Y-29.9207
G1 X0.668 Y-29.9281
G1 X1.902 Y-30.2665
G1 X3.0063 Y-30.9126
G1 X3.9058 Y-31.8226
G1 X4.5391 Y-32.9344
G1 X4.863 Y-34.1722
G1 X4.8556 Y-35.4517
G1 X4.5172 Y-36.6857
G1 X3.8711 Y-37.79
G1 X3.4555 Y-38.2007
G0 Z3.0
G0 X0.3357 Y-35.0444
G0 Z-1.4
G1 F200.0 Z-2.5
G1 F800.0 X0.2568 Y-35.1224
G1 X0.1604 Y-35.1773
G1 X0.053 Y-35.2054
G1 X-0.0579 Y-35.2048
G1 X-0.1649 Y-35.1754
G1 X-0.2607 Y-35.1194
G1 X-0.3387 Y-35.0405
G1 X-0.3936 Y-34.9441
G1 X-0.4217 Y-34.8367
G1 X-0.4211 Y-34.7258
G1 X-0.3917 Y-34.6188
G1 X-0.3357 Y-34.523
G1 X-0.2568 Y-34.445
G1 X-0.1604 Y-34.3901
G1 X-0.053 Y-34.362
G1 X0.0579 Y-34.3626
G1 X0.1649 Y-34.392
G1 X0.2607 Y-34.448
G1 X0.3387 Y-34.5269
G1 X0.3936 Y-34.6233
G1 X0.4217 Y-34.7307
G1 X0.4211 Y-34.8416
G1 X0.3917 Y-34.9486
G1 X0.3357 Y-35.0444
G1 F200.0 X0.7814 Y-35.4953
G1 F800.0 X0.6431 Y-35.632
G1 X0.4016 Y-35.7695
G1 X0.1328 Y-35.8399
G1 X-0.1451 Y-35.8383
G1 X-0.4131 Y-35.7648
G1 X-0.6529 Y-35.6244
G1 X-0.8483 Y-35.4268
G1 X-0.9858 Y-35.1853
G1 X-1.0562 Y-34.9165
G1 X-1.0546 Y-34.6386
G1 X-0.9811 Y-34.3706
G1 X-0.8407 Y-34.1308
G1 X-0.6431 Y-33.9354
G1 X-0.4016 Y-33.7979
G1 X-0.1328 Y-33.7275
G1 X0.1451 Y-33.7291
G1 X0.4131 Y-33.8026
G1 X0.6529 Y-33.943
G1 X0.8483 Y-34.1406
G1 X0.9858 Y-34.3821
G1 X1.0562 Y-34.6509
G1 X1.0546 Y-34.9288
G1 X0.9811 Y-35.1968
G1 X0.8407 Y-35.4366
G1 X0.7814 Y-35.4953
G1 F200.0 X1.6728 Y-36.3971
G1 F800.0 X1.4158 Y-36.6511
G1 X0.8842 Y-36.9539
G1 X0.2924 Y-37.1088
G1 X-0.3194 Y-37.1053
G1 X-0.9094 Y-36.9435
G1 X-1.4374 Y-36.6346
G1 X-1.8674 Y-36.1995
G1 X-2.1702 Y-35.6679
G1 X-2.3251 Y-35.0761
G1 X-2.3216 Y-34.4643
G1 X-2.1598 Y-33.8743
G1 X-1.8508 Y-33.3463
G1 X-1.4158 Y-32.9163
G1 X-0.8842 Y-32.6135
G1 X-0.2924 Y-32.4586
G1 X0.3194 Y-32.4621
G1 X0.9094 Y-32.6239
G1 X1.4374 Y-32.9329
G1 X1.8674 Y-33.3679
G1 X2.1702 Y-33.8995
G1 X2.3251 Y-34.4913
G1 X2.3216 Y-35.1031
G1 X2.1598 Y-35.6931
G1 X1.8508 Y-36.2211
G1 X1.6728 Y-36.3971
G1 F200.0 X2.5641 Y-37.2989
G1 F800.0 X2.1884 Y-37.6703
G1 X1.3667 Y-38.1384
G1 X0.4519 Y-38.3778
G1 X-0.4937 Y-38.3723
G1 X-1.4057 Y-38.1222
G1 X-2.2218 Y-37.6447
G1 X-2.8866 Y-36.9721
G1 X-3.3547 Y-36.1504
G1 X-3.5941 Y-35.2356
G1 X-3.5886 Y-34.29
G1 X-3.3385 Y-33.378
G1 X-2.861 Y-32.5619
G1 X-2.1884 Y-31.8971
G1 X-1.3667 Y-31.4291
G1 X-0.4519 Y-31.1896
G1 X0.4937 Y-31.1951
G1 X1.4057 Y-31.4452
G1 X2.2218 Y-31.9227
G1 X2.8866 Y-32.5953
G1 X3.3547 Y-33.417
G1 X3.5941 Y-34.3318
G1 X3.5886 Y-35.2774
G1 X3.3385 Y-36.1894
G1 X2.861 Y-37.0055
G1 X2.5641 Y-37.2989
G1 F200.0 X3.4555 Y-38.2007
G1 F800.0 X2.9611 Y-38.6895
G1 X1.8493 Y-39.3228
G1 X0.6115 Y-39.6467
G1 X-0.668 Y-39.6393
G1 X-1.902 Y-39.3009
G1 X-3.0063 Y-38.6548
G1 X-3.9058 Y-37.7448
G1 X-4.5391 Y-36.633
G1 X-4.863 Y-35.3952
G1 X-4.8556 Y-34.1157
G1 X-4.5172 Y-32.8817
G1 X-3.8711 Y-31.7774
G1 X-2.9611 Y-30.8779
G1 X-1.8493 Y-30.2446
G1 X-0.6115 Y-29.9207
G1 X0.668 Y-29.9281
G1 X1.902 Y-30.2665
G1 X3.0063 Y-30.9126
G1 X3.9058 Y-31.8226
G1 X4.5391 Y-32.9344
G1 X4.863 Y-34.1722
G1 X4.8556 Y-35.4517
G1 X4.5172 Y-36.6857
G1 X3.8711 Y-37.79
G1 X3.4555 Y-38.2007
G0 Z3.0
G0 X-11.585 Y-48.4048
G0 Z1.0
G1 F200.0 Z-0.4
G3 F800.0 X-12.6672 Y-46.9017 I-1.585 J0.0
G3 X-12.3714 Y-46.97 I0.5028 J1.5032
G1 X-11.585 Y-47.0735
G1 Y-48.4048
G1 Y-58.106
G3 X-10.0 Y-59.691 I1.585 J0.0
G1 X10.0
G3 X11.585 Y-58.106 I0.0 J1.585
G1 Y-48.4048
G1 Y-47.0735
G1 X12.3714 Y-46.97
G3 X12.6672 Y-46.9017 I-0.2069 J1.5714
G3 X11.585 Y-48.4048 I0.5028 J-1.5032
G0 Z3.0
G0 X-11.585
G0 Z0.6
G1 F200.0 Z-0.8
G3 F800.0 X-12.6672 Y-46.9017 I-1.585 J0.0
G3 X-12.3714 Y-46.97 I0.5028 J1.5032
G1 X-11.585 Y-47.0735
G1 Y-48.4048
G1 Y-58.106
G3 X-10.0 Y-59.691 I1.585 J0.0
G1 X10.0
G3 X11.585 Y-58.106 I0.0 J1.585
G1 Y-48.4048
G1 Y-47.0735
G1 X12.3714 Y-46.97
G3 X12.6672 Y-46.9017 I-0.2069 J1.5714
G3 X11.585 Y-48.4048 I0.5028 J-1.5032
G0 Z3.0
G0 X-12.6672 Y-46.9017
G0 Z0.2
G1 F200.0 Z-0.8
G2 F800.0 X-12.771 Y-46.8629 I0.5028 J1.5032
G1 X-24.1066 Y-42.1675
G2 X-24.4649 Y-41.9607 I0.6066 J1.4643
G1 X-34.1989 Y-34.4915
G2 X-34.4915 Y-34.1989 I0.9649 J1.2575
G1 X-41.9607 Y-24.4649
G2 X-42.1675 Y-24.1066 I1.2575 J0.9649
G1 X-46.8629 Y-12.771
G2 X-46.97 Y-12.3714 I1.4643 J0.6066
G1 X-48.5714 Y-0.2069
G2 Y0.2069 I1.5714 J0.2069
G1 X-46.97 Y12.3714
G2 X-46.8629 Y12.771 I1.5714 J-0.2069
G1 X-42.1675 Y24.1066
G2 X-41.9607 Y24.4649 I1.4643 J-0.6066
G1 X-34.4915 Y34.1989
G2 X-34.1989 Y34.4915 I1.2575 J-0.9649
G1 X-24.4649 Y41.9607
G2 X-24.1066 Y42.1675 I0.9649 J-1.2575
G1 X-12.771 Y46.8629
G2 X-12.3714 Y46.97 I0.6066 J-1.4643
G1 X-0.2069 Y48.5714
G2 X0.2069 I0.2069 J-1.5714
G1 X12.3714 Y46.97
G2 X12.771 Y46.8629 I-0.2069 J-1.5714
G1 X24.1066 Y42.1675
G2 X24.4649 Y41.9607 I-0.6066 J-1.4643
G1 X34.1989 Y34.4915
G2 X34.4915 Y34.1989 I-0.9649 J-1.2575
G1 X41.9607 Y24.4649
G2 X42.1675 Y24.1066 I-1.2575 J-0.9649
G1 X46.8629 Y12.771
G2 X46.97 Y12.3714 I-1.4643 J-0.6066
G1 X48.5714 Y0.2069
G2 Y-0.2069 I-1.5714 J-0.2069
G1 X46.97 Y-12.3714
G2 X46.8629 Y-12.771 I-1.5714 J0.2069
G1 X42.1675 Y-24.1066
G2 X41.9607 Y-24.4649 I-1.4643 J0.6066
G1 X34.4915 Y-34.1989
G2 X34.1989 Y-34.4915 I-1.2575 J0.9649
G1 X24.4649 Y-41.9607
G2 X24.1066 Y-42.1675 I-0.9649 J1.2575
G1 X12.771 Y-46.8629
G2 X12.6672 Y-46.9017 I-0.6066 J1.4643
G0 Z3.0
G0 X-11.585 Y-48.4048
G0 Z0.2
G1 F200.0 Z-1.2
G3 F800.0 X-12.6672 Y-46.9017 I-1.585 J0.0
G3 X-12.3714 Y-46.97 I0.5028 J1.5032
G1 X-11.585 Y-47.0735
G1 Y-48.4048
G1 Y-58.106
G3 X-10.0 Y-59.691 I1.585 J0.0
G1 X10.0
G3 X11.585 Y-58.106 I0.0 J1.585
G1 Y-48.4048
G1 Y-47.0735
G1 X12.3714 Y-46.97
G3 X12.6672 Y-46.9017 I-0.2069 J1.5714
G3 X11.585 Y-48.4048 I0.5028 J-1.5032
G0 Z3.0
G0 X-12.6672 Y-46.9017
G0 Z-0.2
G1 F200.0 Z-1.2
G2 F800.0 X-12.771 Y-46.8629 I0.5028 J1.5032
G1 X-24.1066 Y-42.1675
G2 X-24.4649 Y-41.9607 I0.6066 J1.4643
G1 X-34.1989 Y-34.4915
G2 X-34.4915 Y-34.1989 I0.9649 J1.2575
G1 X-41.9607 Y-24.4649
G2 X-42.1675 Y-24.1066 I1.2575 J0.9649
G1 X-46.8629 Y-12.771
G2 X-46.97 Y-12.3714 I1.4643 J0.6066
G1 X-48.5714 Y-0.2069
G2 Y0.2069 I1.5714 J0.2069
G1 X-46.97 Y12.3714
G2 X-46.8629 Y12.771 I1.5714 J-0.2069
G1 X-42.1675 Y24.1066
G2 X-41.9607 Y24.4649 I1.4643 J-0.6066
G1 X-34.4915 Y34.1989
G2 X-34.1989 Y34.4915 I1.2575 J-0.9649
G1 X-24.4649 Y41.9607
G2 X-24.1066 Y42.1675 I0.9649 J-1.2575
G1 X-12.771 Y46.8629
G2 X-12.3714 Y46.97 I0.6066 J-1.4643
G1 X-0.2069 Y48.5714
G2 X0.2069 I0.2069 J-1.5714
G1 X12.3714 Y46.97
G2 X12.771 Y46.8629 I-0.2069 J-1.5714
G1 X24.1066 Y42.1675
G2 X24.4649 Y41.9607 I-0.6066 J-1.4643
G1 X34.1989 Y34.4915
G2 X34.4915 Y34.1989 I-0.9649 J-1.2575
G1 X41.9607 Y24.4649
G2 X42.1675 Y24.1066 I-1.2575 J-0.9649
G1 X46.8629 Y12.771
G2 X46.97 Y12.3714 I-1.4643 J-0.6066
G1 X48.5714 Y0.2069
G2 Y-0.2069 I-1.5714 J-0.2069
G1 X46.97 Y-12.3714
G2 X46.8629 Y-12.771 I-1.5714 J0.2069
G1 X42.1675 Y-24.1066
G2 X41.9607 Y-24.4649 I-1.4643 J0.6066
G1 X34.4915 Y-34.1989
G2 X34.1989 Y-34.4915 I-1.2575 J0.9649
G1 X24.4649 Y-41.9607
G2 X24.1066 Y-42.1675 I-0.9649 J1.2575
G1 X12.771 Y-46.8629
G2 X12.6672 Y-46.9017 I-0.6066 J1.4643
G0 Z3.0
G0 X-11.585 Y-48.4048
G0 Z-0.2
G1 F200.0 Z-1.6
G3 F800.0 X-12.6672 Y-46.9017 I-1.585 J0.0
G3 X-12.3714 Y-46.97 I0.5028 J1.5032
G1 X-11.585 Y-47.0735
G1 Y-48.4048
G1 Y-58.106
G3 X-10.0 Y-59.691 I1.585 J0.0
G1 X10.0
G3 X11.585 Y-58.106 I0.0 J1.585
G1 Y-48.4048
G1 Y-47.0735
G1 X12.3714 Y-46.97
G3 X12.6672 Y-46.9017 I-0.2069 J1.5714
G3 X11.585 Y-48.4048 I0.5028 J-1.5032
G0 Z3.0
G0 X-12.6672 Y-46.9017
G0 Z-0.6
G1 F200.0 Z-1.6
G2 F800.0 X-12.771 Y-46.8629 I0.5028 J1.5032
G1 X-24.1066 Y-42.1675
G2 X-24.4649 Y-41.9607 I0.6066 J1.4643
G1 X-34.1989 Y-34.4915
G2 X-34.4915 Y-34.1989 I0.9649 J1.2575
G1 X-41.9607 Y-24.4649
G2 X-42.1675 Y-24.1066 I1.2575 J0.9649
G1 X-46.8629 Y-12.771
G2 X-46.97 Y-12.3714 I1.4643 J0.6066
G1 X-48.5714 Y-0.2069
G2 Y0.2069 I1.5714 J0.2069
G1 X-46.97 Y12.3714
G2 X-46.8629 Y12.771 I1.5714 J-0.2069
G1 X-42.1675 Y24.1066
G2 X-41.9607 Y24.4649 I1.4643 J-0.6066
G1 X-34.4915 Y34.1989
G2 X-34.1989 Y34.4915 I1.2575 J-0.9649
G1 X-24.4649 Y41.9607
G2 X-24.1066 Y42.1675 I0.9649 J-1.2575
G1 X-12.771 Y46.8629
G2 X-12.3714 Y46.97 I0.6066 J-1.4643
G1 X-0.2069 Y48.5714
G2 X0.2069 I0.2069 J-1.5714
G1 X12.3714 Y46.97
G2 X12.771 Y46.8629 I-0.2069 J-1.5714
G1 X24.1066 Y42.1675
G2 X24.4649 Y41.9607 I-0.6066 J-1.4643
G1 X34.1989 Y34.4915
G2 X34.4915 Y34.1989 I-0.9649 J-1.2575
G1 X41.9607 Y24.4649
G2 X42.1675 Y24.1066 I-1.2575 J-0.9649
G1 X46.8629 Y12.771
G2 X46.97 Y12.3714 I-1.4643 J-0.6066
G1 X48.5714 Y0.2069
G2 Y-0.2069 I-1.5714 J-0.2069
G1 X46.97 Y-12.3714
G2 X46.8629 Y-12.771 I-1.5714 J0.2069
G1 X42.1675 Y-24.1066
G2 X41.9607 Y-24.4649 I-1.4643 J0.6066
G1 X34.4915 Y-34.1989
G2 X34.1989 Y-34.4915 I-1.2575 J0.9649
G1 X24.4649 Y-41.9607
G2 X24.1066 Y-42.1675 I-0.9649 J1.2575
G1 X12.771 Y-46.8629
G2 X12.6672 Y-46.9017 I-0.6066 J1.4643
G0 Z3.0
G0 X-11.585 Y-48.4048
G0 Z-0.6
G1 F200.0 Z-2.0
G3 F800.0 X-12.6672 Y-46.9017 I-1.585 J0.0
G3 X-12.3714 Y-46.97 I0.5028 J1.5032
G1 X-11.585 Y-47.0735
G1 Y-48.4048
G1 Y-58.106
G3 X-10.0 Y-59.691 I1.585 J0.0
G1 X10.0
G3 X11.585 Y-58.106 I0.0 J1.585
G1 Y-48.4048
G1 Y-47.0735
G1 X12.3714 Y-46.97
G3 X12.6672 Y-46.9017 I-0.2069 J1.5714
G3 X11.585 Y-48.4048 I0.5028 J-1.5032
G0 Z3.0
G0 X-12.6672 Y-46.9017
G0 Z-1.0
G1 F200.0 Z-2.0
G2 F800.0 X-12.771 Y-46.8629 I0.5028 J1.5032
G1 X-24.1066 Y-42.1675
G2 X-24.4649 Y-41.9607 I0.6066 J1.4643
G1 X-34.1989 Y-34.4915
G2 X-34.4915 Y-34.1989 I0.9649 J1.2575
G1 X-41.9607 Y-24.4649
G2 X-42.1675 Y-24.1066 I1.2575 J0.9649
G1 X-46.8629 Y-12.771
G2 X-46.97 Y-12.3714 I1.4643 J0.6066
G1 X-48.5714 Y-0.2069
G2 Y0.2069 I1.5714 J0.2069
G1 X-46.97 Y12.3714
G2 X-46.8629 Y12.771 I1.5714 J-0.2069
G1 X-42.1675 Y24.1066
G2 X-41.9607 Y24.4649 I1.4643 J-0.6066
G1 X-34.4915 Y34.1989
G2 X-34.1989 Y34.4915 I1.2575 J-0.9649
G1 X-24.4649 Y41.9607
G2 X-24.1066 Y42.1675 I0.9649 J-1.2575
G1 X-12.771 Y46.8629
G2 X-12.3714 Y46.97 I0.6066 J-1.4643
G1 X-0.2069 Y48.5714
G2 X0.2069 I0.2069 J-1.5714
G1 X12.3714 Y46.97
G2 X12.771 Y46.8629 I-0.2069 J-1.5714
G1 X24.1066 Y42.1675
G2 X24.4649 Y41.9607 I-0.6066 J-1.4643
G1 X34.1989 Y34.4915
G2 X34.4915 Y34.1989 I-0.9649 J-1.2575
G1 X41.9607 Y24.4649
G2 X42.1675 Y24.1066 I-1.2575 J-0.9649
G1 X46.8629 Y12.771
G2 X46.97 Y12.3714 I-1.4643 J-0.6066
G1 X48.5714 Y0.2069
G2 Y-0.2069 I-1.5714 J-0.2069
G1 X46.97 Y-12.3714
G2 X46.8629 Y-12.771 I-1.5714 J0.2069
G1 X42.1675 Y-24.1066
G2 X41.9607 Y-24.4649 I-1.4643 J0.6066
G1 X34.4915 Y-34.1989
G2 X34.1989 Y-34.4915 I-1.2575 J0.9649
G1 X24.4649 Y-41.9607
G2 X24.1066 Y-42.1675 I-0.9649 J1.2575
G1 X12.771 Y-46.8629
G2 X12.6672 Y-46.9017 I-0.6066 J1.4643
G0 Z3.0
G0 X-11.585 Y-48.4048
G0 Z-1.0
G1 F200.0 Z-2.4
G3 F800.0 X-12.6672 Y-46.9017 I-1.585 J0.0
G3 X-12.3714 Y-46.97 I0.5028 J1.5032
G1 X-11.585 Y-47.0735
G1 Y-48.4048
G1 Y-58.106
G3 X-10.0 Y-59.691 I1.585 J0.0
G1 X10.0
G3 X11.585 Y-58.106 I0.0 J1.585
G1 Y-48.4048
G1 Y-47.0735
G1 X12.3714 Y-46.97
G3 X12.6672 Y-46.9017 I-0.2069 J1.5714
G3 X11.585 Y-48.4048 I0.5028 J-1.5032
G0 Z3.0
G0 X-12.6672 Y-46.9017
G0 Z-1.4
G1 F200.0 Z-2.4
G2 F800.0 X-12.771 Y-46.8629 I0.5028 J1.5032
G1 X-24.1066 Y-42.1675
G2 X-24.4649 Y-41.9607 I0.6066 J1.4643
G1 X-34.1989 Y-34.4915
G2 X-34.4915 Y-34.1989 I0.9649 J1.2575
G1 X-41.9607 Y-24.4649
G2 X-42.1675 Y-24.1066 I1.2575 J0.9649
G1 X-46.8629 Y-12.771
G2 X-46.97 Y-12.3714 I1.4643 J0.6066
G1 X-48.5714 Y-0.2069
G2 Y0.2069 I1.5714 J0.2069
G1 X-46.97 Y12.3714
G2 X-46.8629 Y12.771 I1.5714 J-0.2069
G1 X-42.1675 Y24.1066
G2 X-41.9607 Y24.4649 I1.4643 J-0.6066
G1 X-34.4915 Y34.1989
G2 X-34.1989 Y34.4915 I1.2575 J-0.9649
G1 X-24.4649 Y41.9607
G2 X-24.1066 Y42.1675 I0.9649 J-1.2575
G1 X-12.771 Y46.8629
G2 X-12.3714 Y46.97 I0.6066 J-1.4643
G1 X-0.2069 Y48.5714
G2 X0.2069 I0.2069 J-1.5714
G1 X12.3714 Y46.97
G2 X12.771 Y46.8629 I-0.2069 J-1.5714
G1 X24.1066 Y42.1675
G2 X24.4649 Y41.9607 I-0.6066 J-1.4643
G1 X34.1989 Y34.4915
G2 X34.4915 Y34.1989 I-0.9649 J-1.2575
G1 X41.9607 Y24.4649
G2 X42.1675 Y24.1066 I-1.2575 J-0.9649
G1 X46.8629 Y12.771
G2 X46.97 Y12.3714 I-1.4643 J-0.6066
G1 X48.5714 Y0.2069
G2 Y-0.2069 I-1.5714 J-0.2069
G1 X46.97 Y-12.3714
G2 X46.8629 Y-12.771 I-1.5714 J0.2069
G1 X42.1675 Y-24.1066
G2 X41.9607 Y-24.4649 I-1.4643 J0.6066
G1 X34.4915 Y-34.1989
G2 X34.1989 Y-34.4915 I-1.2575 J0.9649
G1 X24.4649 Y-41.9607
G2 X24.1066 Y-42.1675 I-0.9649 J1.2575
G1 X12.771 Y-46.8629
G2 X12.6672 Y-46.9017 I-0.6066 J1.4643
G0 Z3.0
G0 X-11.585 Y-48.4048
G0 Z-1.4
G1 F200.0 Z-2.5
G3 F800.0 X-12.6672 Y-46.9017 I-1.585 J0.0
G3 X-12.3714 Y-46.97 I0.5028 J1.5032
G1 X-11.585 Y-47.0735
G1 Y-48.4048
G1 Y-58.106
G3 X-10.0 Y-59.691 I1.585 J0.0
G1 X10.0
G3 X11.585 Y-58.106 I0.0 J1.585
G1 Y-48.4048
G1 Y-47.0735
G1 X12.3714 Y-46.97
G3 X12.6672 Y-46.9017 I-0.2069 J1.5714
G3 X11.585 Y-48.4048 I0.5028 J-1.5032
G0 Z3.0
G0 X-12.6672 Y-46.9017
G0 Z-1.5
G1 F200.0 Z-2.5
G2 F800.0 X-12.771 Y-46.8629 I0.5028 J1.5032
G1 X-24.1066 Y-42.1675
G2 X-24.4649 Y-41.9607 I0.6066 J1.4643
G1 X-34.1989 Y-34.4915
G2 X-34.4915 Y-34.1989 I0.9649 J1.2575
G1 X-41.9607 Y-24.4649
G2 X-42.1675 Y-24.1066 I1.2575 J0.9649
G1 X-46.8629 Y-12.771
G2 X-46.97 Y-12.3714 I1.4643 J0.6066
G1 X-48.5714 Y-0.2069
G2 Y0.2069 I1.5714 J0.2069
G1 X-46.97 Y12.3714
G2 X-46.8629 Y12.771 I1.5714 J-0.2069
G1 X-42.1675 Y24.1066
G2 X-41.9607 Y24.4649 I1.4643 J-0.6066
G1 X-34.4915 Y34.1989
G2 X-34.1989 Y34.4915 I1.2575 J-0.9649
G1 X-24.4649 Y41.9607
G2 X-24.1066 Y42.1675 I0.9649 J-1.2575
G1 X-12.771 Y46.8629
G2 X-12.3714 Y46.97 I0.6066 J-1.4643
G1 X-0.2069 Y48.5714
G2 X0.2069 I0.2069 J-1.5714
G1 X12.3714 Y46.97
G2 X12.771 Y46.8629 I-0.2069 J-1.5714
G1 X24.1066 Y42.1675
G2 X24.4649 Y41.9607 I-0.6066 J-1.4643
G1 X34.1989 Y34.4915
G2 X34.4915 Y34.1989 I-0.9649 J-1.2575
G1 X41.9607 Y24.4649
G2 X42.1675 Y24.1066 I-1.2575 J-0.9649
G1 X46.8629 Y12.771
G2 X46.97 Y12.3714 I-1.4643 J-0.6066
G1 X48.5714 Y0.2069
G2 Y-0.2069 I-1.5714 J-0.2069
G1 X46.97 Y-12.3714
G2 X46.8629 Y-12.771 I-1.5714 J0.2069
G1 X42.1675 Y-24.1066
G2 X41.9607 Y-24.4649 I-1.4643 J0.6066
G1 X34.4915 Y-34.1989
G2 X34.1989 Y-34.4915 I-1.2575 J0.9649
G1 X24.4649 Y-41.9607
G2 X24.1066 Y-42.1675 I-0.9649 J1.2575
G1 X12.771 Y-46.8629
G2 X12.6672 Y-46.9017 I-0.6066 J1.4643
G0 Z3.0
G0 X22.9618 Y-26.5969
G0 Z1.0
G1 F200.0 Z-0.4
G1 F800.0 X22.8738 Y-26.5293
G1 X22.8063 Y-26.4413
G1 X22.7638 Y-26.3388
G1 X22.7493 Y-26.2288
G1 X22.7638 Y-26.1188
G1 X22.8063 Y-26.0163
G1 X22.8738 Y-25.9283
G1 X22.9618 Y-25.8607
G1 X23.0643 Y-25.8182
G1 X23.1743 Y-25.8038
G1 X23.2844 Y-25.8182
G1 X23.3869 Y-25.8607
G1 X23.4749 Y-25.9283
G1 X23.5424 Y-26.0163
G1 X23.5849 Y-26.1188
G1 X23.5994 Y-26.2288
G1 X23.5849 Y-26.3388
G1 X23.5424 Y-26.4413
G1 X23.4749 Y-26.5293
G1 X23.3869 Y-26.5969
G1 X23.2844 Y-26.6393
G1 X23.1743 Y-26.6538
G1 X23.0643 Y-26.6393
G1 X22.9618 Y-26.5969
G1 F200.0 X22.5759 Y-27.0999
G1 F800.0 X22.4216 Y-26.9815
G1 X22.2525 Y-26.761
G1 X22.1461 Y-26.5043
G1 X22.1098 Y-26.2288
G1 X22.1461 Y-25.9533
G1 X22.2525 Y-25.6965
G1 X22.4216 Y-25.4761
G1 X22.6421 Y-25.3069
G1 X22.8988 Y-25.2006
G1 X23.1743 Y-25.1643
G1 X23.4499 Y-25.2006
G1 X23.7066 Y-25.3069
G1 X23.9271 Y-25.4761
G1 X24.0962 Y-25.6965
G1 X24.2026 Y-25.9533
G1 X24.2388 Y-26.2288
G1 X24.2026 Y-26.5043
G1 X24.0962 Y-26.761
G1 X23.9271 Y-26.9815
G1 X23.7066 Y-27.1507
G1 X23.4499 Y-27.257
G1 X23.1743 Y-27.2933
G1 X22.8988 Y-27.257
G1 X22.6421 Y-27.1507
G1 X22.5759 Y-27.0999
G1 F200.0 X21.804 Y-28.1058
G1 F800.0 X21.5173 Y-27.8859
G1 X21.1449 Y-27.4005
G1 X20.9108 Y-26.8353
G1 X20.8309 Y-26.2288
G1 X20.9108 Y-25.6223
G1 X21.1449 Y-25.0571
G1 X21.5173 Y-24.5717
G1 X22.0026 Y-24.1993
G1 X22.5678 Y-23.9652
G1 X23.1743 Y-23.8854
G1 X23.7809 Y-23.9652
G1 X24.3461 Y-24.1993
G1 X24.8314 Y-24.5717
G1 X25.2038 Y-25.0571
G1 X25.4379 Y-25.6223
G1 X25.5178 Y-26.2288
G1 X25.4379 Y-26.8353
G1 X25.2038 Y-27.4005
G1 X24.8314 Y-27.8859
G1 X24.3461 Y-28.2583
G1 X23.7809 Y-28.4924
G1 X23.1743 Y-28.5722
G1 X22.5678 Y-28.4924
G1 X22.0026 Y-28.2583
G1 X21.804 Y-28.1058
G1 F200.0 X21.0321 Y-29.1118
G1 F800.0 X20.6129 Y-28.7902
G1 X20.0373 Y-28.04
G1 X19.6754 Y-27.1663
G1 X19.552 Y-26.2288
G1 X19.6754 Y-25.2913
G1 X20.0373 Y-24.4176
G1 X20.6129 Y-23.6674
G1 X21.3632 Y-23.0917
G1 X22.2368 Y-22.7298
G1 X23.1743 Y-22.6064
G1 X24.1119 Y-22.7298
G1 X24.9855 Y-23.0917
G1 X25.7358 Y-23.6674
G1 X26.3114 Y-24.4176
G1 X26.6733 Y-25.2913
G1 X26.7967 Y-26.2288
G1 X26.6733 Y-27.1663
G1 X26.3114 Y-28.04
G1 X25.7358 Y-28.7902
G1 X24.9855 Y-29.3659
G1 X24.1119 Y-29.7277
G1 X23.1743 Y-29.8512
G1 X22.2368 Y-29.7277
G1 X21.3632 Y-29.3659
G1 X21.0321 Y-29.1118
G1 F200.0 X20.2601 Y-30.1178
G1 F800.0 X19.7086 Y-29.6946
G1 X18.9297 Y-28.6795
G1 X18.44 Y-27.4974
G1 X18.273 Y-26.2288
G1 X18.44 Y-24.9602
G1 X18.9297 Y-23.7781
G1 X19.7086 Y-22.763
G1 X20.7237 Y-21.9841
G1 X21.9058 Y-21.4945
G1 X23.1743 Y-21.3275
G1 X24.4429 Y-21.4945
G1 X25.625 Y-21.9841
G1 X26.6401 Y-22.763
G1 X27.419 Y-23.7781
G1 X27.9087 Y-24.9602
G1 X28.0757 Y-26.2288
G1 X27.9087 Y-27.4974
G1 X27.419 Y-28.6795
G1 X26.6401 Y-29.6946
G1 X25.625 Y-30.4735
G1 X24.4429 Y-30.9631
G1 X23.1743 Y-31.1301
G1 X21.9058 Y-30.9631
G1 X20.7237 Y-30.4735
G1 X20.2601 Y-30.1178
G0 Z3.0
G0 X22.9618 Y-26.5969
G0 Z0.6
G1 F200.0 Z-0.8
G1 F800.0 X22.8738 Y-26.5293
G1 X22.8063 Y-26.4413
G1 X22.7638 Y-26.3388
G1 X22.7493 Y-26.2288
G1 X22.7638 Y-26.1188
G1 X22.8063 Y-26.0163
G1 X22.8738 Y-25.9283
G1 X22.9618 Y-25.8607
G1 X23.0643 Y-25.8182
G1 X23.1743 Y-25.8038
G1 X23.2844 Y-25.8182
G1 X23.3869 Y-25.8607
G1 X23.4749 Y-25.9283
G1 X23.5424 Y-26.0163
G1 X23.5849 Y-26.1188
G1 X23.5994 Y-26.2288
G1 X23.5849 Y-26.3388
G1 X23.5424 Y-26.4413
G1 X23.4749 Y-26.5293
G1 X23.3869 Y-26.5969
G1 X23.2844 Y-26.6393
G1 X23.1743 Y-26.6538
G1 X23.0643 Y-26.6393
G1 X22.9618 Y-26.5969
G1 F200.0 X22.5759 Y-27.0999
G1 F800.0 X22.4216 Y-26.9815
G1 X22.2525 Y-26.761
G1 X22.1461 Y-26.5043
G1 X22.1098 Y-26.2288
G1 X22.1461 Y-25.9533
G1 X22.2525 Y-25.6965
G1 X22.4216 Y-25.4761
G1 X22.6421 Y-25.3069
G1 X22.8988 Y-25.2006
G1 X23.1743 Y-25.1643
G1 X23.4499 Y-25.2006
G1 X23.7066 Y-25.3069
G1 X23.9271 Y-25.4761
G1 X24.0962 Y-25.6965
G1 X24.2026 Y-25.9533
G1 X24.2388 Y-26.2288
G1 X24.2026 Y-26.5043
G1 X24.0962 Y-26.761
G1 X23.9271 Y-26.9815
G1 X23.7066 Y-27.1507
G1 X23.4499 Y-27.257
G1 X23.1743 Y-27.2933
G1 X22.8988 Y-27.257
G1 X22.6421 Y-27.1507
G1 X22.5759 Y-27.0999
G1 F200.0 X21.804 Y-28.1058
G1 F800.0 X21.5173 Y-27.8859
G1 X21.1449 Y-27.4005
G1 X20.9108 Y-26.8353
G1 X20.8309 Y-26.2288
G1 X20.9108 Y-25.6223
G1 X21.1449 Y-25.0571
G1 X21.5173 Y-24.5717
G1 X22.0026 Y-24.1993
G1 X22.5678 Y-23.9652
G1 X23.1743 Y-23.8854
G1 X23.7809 Y-23.9652
G1 X24.3461 Y-24.1993
G1 X24.8314 Y-24.5717
G1 X25.2038 Y-25.0571
G1 X25.4379 Y-25.6223
G1 X25.5178 Y-26.2288
G1 X25.4379 Y-26.8353
G1 X25.2038 Y-27.4005
G1 X24.8314 Y-27.8859
G1 X24.3461 Y-28.2583
G1 X23.7809 Y-28.4924
G1 X23.1743 Y-28.5722
G1 X22.5678 Y-28.4924
G1 X22.0026 Y-28.2583
G1 X21.804 Y-28.1058
G1 F200.0 X21.0321 Y-29.1118
G1 F800.0 X20.6129 Y-28.7902
G1 X20.0373 Y-28.04
G1 X19.6754 Y-27.1663
G1 X19.552 Y-26.2288
G1 X19.6754 Y-25.2913
G1 X20.0373 Y-24.4176
G1 X20.6129 Y-23.6674
G1 X21.3632 Y-23.0917
G1 X22.2368 Y-22.7298
G1 X23.1743 Y-22.6064
G1 X24.1119 Y-22.7298
G1 X24.9855 Y-23.0917
G1 X25.7358 Y-23.6674
G1 X26.3114 Y-24.4176
G1 X26.6733 Y-25.2913
G1 X26.7967 Y-26.2288
G1 X26.6733 Y-27.1663
G1 X26.3114 Y-28.04
G1 X25.7358 Y-28.7902
G1 X24.9855 Y-29.3659
G1 X24.1119 Y-29.7277
G1 X23.1743 Y-29.8512
G1 X22.2368 Y-29.7277
G1 X21.3632 Y-29.3659
G1 X21.0321 Y-29.1118
G1 F200.0 X20.2601 Y-30.1178
G1 F800.0 X19.7086 Y-29.6946
G1 X18.9297 Y-28.6795
G1 X18.44 Y-27.4974
G1 X18.273 Y-26.2288
G1 X18.44 Y-24.9602
G1 X18.9297 Y-23.7781
G1 X19.7086 Y-22.763
G1 X20.7237 Y-21.9841
G1 X21.9058 Y-21.4945
G1 X23.1743 Y-21.3275
G1 X24.4429 Y-21.4945
G1 X25.625 Y-21.9841
G1 X26.6401 Y-22.763
G1 X27.419 Y-23.7781
G1 X27.9087 Y-24.9602
G1 X28.0757 Y-26.2288
G1 X27.9087 Y-27.4974
G1 X27.419 Y-28.6795
G1 X26.6401 Y-29.6946
G1 X25.625 Y-30.4735
G1 X24.4429 Y-30.9631
G1 X23.1743 Y-31.1301
G1 X21.9058 Y-30.9631
G1 X20.7237 Y-30.4735
G1 X20.2601 Y-30.1178
G0 Z3.0
G0 X22.9618 Y-26.5969
G0 Z0.2
G1 F200.0 Z-1.2
G1 F800.0 X22.8738 Y-26.5293
G1 X22.8063 Y-26.4413
G1 X22.7638 Y-26.3388
G1 X22.7493 Y-26.2288
G1 X22.7638 Y-26.1188
G1 X22.8063 Y-26.0163
G1 X22.8738 Y-25.9283
G1 X22.9618 Y-25.8607
G1 X23.0643 Y-25.8182
G1 X23.1743 Y-25.8038
G1 X23.2844 Y-25.8182
G1 X23.3869 Y-25.8607
G1 X23.4749 Y-25.9283
G1 X23.5424 Y-26.0163
G1 X23.5849 Y-26.1188
G1 X23.5994 Y-26.2288
G1 X23.5849 Y-26.3388
G1 X23.5424 Y-26.4413
G1 X23.4749 Y-26.5293
G1 X23.3869 Y-26.5969
G1 X23.2844 Y-26.6393
G1 X23.1743 Y-26.6538
G1 X23.0643 Y-26.6393
G1 X22.9618 Y-26.5969
G1 F200.0 X22.5759 Y-27.0999
G1 F800.0 X22.4216 Y-26.9815
G1 X22.2525 Y-26.761
G1 X22.1461 Y-26.5043
G1 X22.1098 Y-26.2288
G1 X22.1461 Y-25.9533
G1 X22.2525 Y-25.6965
G1 X22.4216 Y-25.4761
G1 X22.6421 Y-25.3069
G1 X22.8988 Y-25.2006
G1 X23.1743 Y-25.1643
G1 X23.4499 Y-25.2006
G1 X23.7066 Y-25.3069
G1 X23.9271 Y-25.4761
G1 X24.0962 Y-25.6965
G1 X24.2026 Y-25.9533
G1 X24.2388 Y-26.2288
G1 X24.2026 Y-26.5043
G1 X24.0962 Y-26.761
G1 X23.9271 Y-26.9815
G1 X23.7066 Y-27.1507
G1 X23.4499 Y-27.257
G1 X23.1743 Y-27.2933
G1 X22.8988 Y-27.257
G1 X22.6421 Y-27.1507
G1 X22.5759 Y-27.0999
G1 F200.0 X21.804 Y-28.1058
G1 F800.0 X21.5173 Y-27.8859
G1 X21.1449 Y-27.4005
G1 X20.9108 Y-26.8353
G1 X20.8309 Y-26.2288
G1 X20.9108 Y-25.6223
G1 X21.1449 Y-25.0571
G1 X21.5173 Y-24.5717
G1 X22.0026 Y-24.1993
G1 X22.5678 Y-23.9652
G1 X23.1743 Y-23.8854
G1 X23.7809 Y-23.9652
G1 X24.3461 Y-24.1993
G1 X24.8314 Y-24.5717
G1 X25.2038 Y-25.0571
G1 X25.4379 Y-25.6223
G1 X25.5178 Y-26.2288
G1 X25.4379 Y-26.8353
G1 X25.2038 Y-27.4005
G1 X24.8314 Y-27.8859
G1 X24.3461 Y-28.2583
G1 X23.7809 Y-28.4924
G1 X23.1743 Y-28.5722
G1 X22.5678 Y-28.4924
G1 X22.0026 Y-28.2583
G1 X21.804 Y-28.1058
G1 F200.0 X21.0321 Y-29.1118
G1 F800.0 X20.6129 Y-28.7902
G1 X20.0373 Y-28.04
G1 X19.6754 Y-27.1663
G1 X19.552 Y-26.2288
G1 X19.6754 Y-25.2913
G1 X20.0373 Y-24.4176
G1 X20.6129 Y-23.6674
G1 X21.3632 Y-23.0917
G1 X22.2368 Y-22.7298
G1 X23.1743 Y-22.6064
G1 X24.1119 Y-22.7298
G1 X24.9855 Y-23.0917
G1 X25.7358 Y-23.6674
G1 X26.3114 Y-24.4176
G1 X26.6733 Y-25.2913
G1 X26.7967 Y-26.2288
G1 X26.6733 Y-27.1663
G1 X26.3114 Y-28.04
G1 X25.7358 Y-28.7902
G1 X24.9855 Y-29.3659
G1 X24.1119 Y-29.7277
G1 X23.1743 Y-29.8512
G1 X22.2368 Y-29.7277
G1 X21.3632 Y-29.3659
G1 X21.0321 Y-29.1118
G1 F200.0 X20.2601 Y-30.1178
G1 F800.0 X19.7086 Y-29.6946
G1 X18.9297 Y-28.6795
G1 X18.44 Y-27.4974
G1 X18.273 Y-26.2288
G1 X18.44 Y-24.9602
G1 X18.9297 Y-23.7781
G1 X19.7086 Y-22.763
G1 X20.7237 Y-21.9841
G1 X21.9058 Y-21.4945
G1 X23.1743 Y-21.3275
G1 X24.4429 Y-21.4945
G1 X25.625 Y-21.9841
G1 X26.6401 Y-22.763
G1 X27.419 Y-23.7781
G1 X27.9087 Y-24.9602
G1 X28.0757 Y-26.2288
G1 X27.9087 Y-27.4974
G1 X27.419 Y-28.6795
G1 X26.6401 Y-29.6946
G1 X25.625 Y-30.4735
G1 X24.4429 Y-30.9631
G1 X23.1743 Y-31.1301
G1 X21.9058 Y-30.9631
G1 X20.7237 Y-30.4735
G1 X20.2601 Y-30.1178
G0 Z3.0
G0 X22.9618 Y-26.5969
G0 Z-0.2
G1 F200.0 Z-1.6
G1 F800.0 X22.8738 Y-26.5293
G1 X22.8063 Y-26.4413
G1 X22.7638 Y-26.3388
G1 X22.7493 Y-26.2288
G1 X22.7638 Y-26.1188
G1 X22.8063 Y-26.0163
G1 X22.8738 Y-25.9283
G1 X22.9618 Y-25.8607
G1 X23.0643 Y-25.8182
G1 X23.1743 Y-25.8038
G1 X23.2844 Y-25.8182
G1 X23.3869 Y-25.8607
G1 X23.4749 Y-25.9283
G1 X23.5424 Y-26.0163
G1 X23.5849 Y-26.1188
G1 X23.5994 Y-26.2288
G1 X23.5849 Y-26.3388
G1 X23.5424 Y-26.4413
G1 X23.4749 Y-26.5293
G1 X23.3869 Y-26.5969
G1 X23.2844 Y-26.6393
G1 X23.1743 Y-26.6538
G1 X23.0643 Y-26.6393
G1 X22.9618 Y-26.5969
G1 F200.0 X22.5759 Y-27.0999
G1 F800.0 X22.4216 Y-26.9815
G1 X22.2525 Y-26.761
G1 X22.1461 Y-26.5043
G1 X22.1098 Y-26.2288
G1 X22.1461 Y-25.9533
G1 X22.2525 Y-25.6965
G1 X22.4216 Y-25.4761
G1 X22.6421 Y-25.3069
G1 X22.8988 Y-25.2006
G1 X23.1743 Y-25.1643
G1 X23.4499 Y-25.2006
G1 X23.7066 Y-25.3069
G1 X23.9271 Y-25.4761
G1 X24.0962 Y-25.6965
G1 X24.2026 Y-25.9533
G1 X24.2388 Y-26.2288
G1 X24.2026 Y-26.5043
G1 X24.0962 Y-26.761
G1 X23.9271 Y-26.9815
G1 X23.7066 Y-27.1507
G1 X23.4499 Y-27.257
G1 X23.1743 Y-27.2933
G1 X22.8988 Y-27.257
G1 X22.6421 Y-27.1507
G1 X22.5759 Y-27.0999
G1 F200.0 X21.804 Y-28.1058
G1 F800.0 X21.5173 Y-27.8859
G1 X21.1449 Y-27.4005
G1 X20.9108 Y-26.8353
G1 X20.8309 Y-26.2288
G1 X20.9108 Y-25.6223
G1 X21.1449 Y-25.0571
G1 X21.5173 Y-24.5717
G1 X22.0026 Y-24.1993
G1 X22.5678 Y-23.9652
G1 X23.1743 Y-23.8854
G1 X23.7809 Y-23.9652
G1 X24.3461 Y-24.1993
G1 X24.8314 Y-24.5717
G1 X25.2038 Y-25.0571
G1 X25.4379 Y-25.6223
G1 X25.5178 Y-26.2288
G1 X25.4379 Y-26.8353
G1 X25.2038 Y-27.4005
G1 X24.8314 Y-27.8859
G1 X24.3461 Y-28.2583
G1 X23.7809 Y-28.4924
G1 X23.1743 Y-28.5722
G1 X22.5678 Y-28.4924
G1 X22.0026 Y-28.2583
G1 X21.804 Y-28.1058
G1 F200.0 X21.0321 Y-29.1118
G1 F800.0 X20.6129 Y-28.7902
G1 X20.0373 Y-28.04
G1 X19.6754 Y-27.1663
G1 X19.552 Y-26.2288
G1 X19.6754 Y-25.2913
G1 X20.0373 Y-24.4176
G1 X20.6129 Y-23.6674
G1 X21.3632 Y-23.0917
G1 X22.2368 Y-22.7298
G1 X23.1743 Y-22.6064
G1 X24.1119 Y-22.7298
G1 X24.9855 Y-23.0917
G1 X25.7358 Y-23.6674
G1 X26.3114 Y-24.4176
G1 X26.6733 Y-25.2913
G1 X26.7967 Y-26.2288
G1 X26.6733 Y-27.1663
G1 X26.3114 Y-28.04
G1 X25.7358 Y-28.7902
G1 X24.9855 Y-29.3659
G1 X24.1119 Y-29.7277
G1 X23.1743 Y-29.8512
G1 X22.2368 Y-29.7277
G1 X21.3632 Y-29.3659
G1 X21.0321 Y-29.1118
G1 F200.0 X20.2601 Y-30.1178
G1 F800.0 X19.7086 Y-29.6946
G1 X18.9297 Y-28.6795
G1 X18.44 Y-27.4974
G1 X18.273 Y-26.2288
G1 X18.44 Y-24.9602
G1 X18.9297 Y-23.7781
G1 X19.7086 Y-22.763
G1 X20.7237 Y-21.9841
G1 X21.9058 Y-21.4945
G1 X23.1743 Y-21.3275
G1 X24.4429 Y-21.4945
G1 X25.625 Y-21.9841
G1 X26.6401 Y-22.763
G1 X27.419 Y-23.7781
G1 X27.9087 Y-24.9602
G1 X28.0757 Y-26.2288
G1 X27.9087 Y-27.4974
G1 X27.419 Y-28.6795
G1 X26.6401 Y-29.6946
G1 X25.625 Y-30.4735
G1 X24.4429 Y-30.9631
G1 X23.1743 Y-31.1301
G1 X21.9058 Y-30.9631
G1 X20.7237 Y-30.4735
G1 X20.2601 Y-30.1178
G0 Z3.0
G0 X22.9618 Y-26.5969
G0 Z-0.6
G1 F200.0 Z-2.0
G1 F800.0 X22.8738 Y-26.5293
G1 X22.8063 Y-26.4413
G1 X22.7638 Y-26.3388
G1 X22.7493 Y-26.2288
G1 X22.7638 Y-26.1188
G1 X22.8063 Y-26.0163
G1 X22.8738 Y-25.9283
G1 X22.9618 Y-25.8607
G1 X23.0643 Y-25.8182
G1 X23.1743 Y-25.8038
G1 X23.2844 Y-25.8182
G1 X23.3869 Y-25.8607
G1 X23.4749 Y-25.9283
G1 X23.5424 Y-26.0163
G1 X23.5849 Y-26.1188
G1 X23.5994 Y-26.2288
G1 X23.5849 Y-26.3388
G1 X23.5424 Y-26.4413
G1 X23.4749 Y-26.5293
G1 X23.3869 Y-26.5969
G1 X23.2844 Y-26.6393
G1 X23.1743 Y-26.6538
G1 X23.0643 Y-26.6393
G1 X22.9618 Y-26.5969
G1 F200.0 X22.5759 Y-27.0999
G1 F800.0 X22.4216 Y-26.9815
G1 X22.2525 Y-26.761
G1 X22.1461 Y-26.5043
G1 X22.1098 Y-26.2288
G1 X22.1461 Y-25.9533
G1 X22.2525 Y-25.6965
G1 X22.4216 Y-25.4761
G1 X22.6421 Y-25.3069
G1 X22.8988 Y-25.2006
G1 X23.1743 Y-25.1643
G1 X23.4499 Y-25.2006
G1 X23.7066 Y-25.3069
G1 X23.9271 Y-25.4761
G1 X24.0962 Y-25.6965
G1 X24.2026 Y-25.9533
G1 X24.2388 Y-26.2288
G1 X24.2026 Y-26.5043
G1 X24.0962 Y-26.761
G1 X23.9271 Y-26.9815
G1 X23.7066 Y-27.1507
G1 X23.4499 Y-27.257
G1 X23.1743 Y-27.2933
G1 X22.8988 Y-27.257
G1 X22.6421 Y-27.1507
G1 X22.5759 Y-27.0999
G1 F200.0 X21.804 Y-28.1058
G1 F800.0 X21.5173 Y-27.8859
G1 X21.1449 Y-27.4005
G1 X20.9108 Y-26.8353
G1 X20.8309 Y-26.2288
G1 X20.9108 Y-25.6223
G1 X21.1449 Y-25.0571
G1 X21.5173 Y-24.5717
G1 X22.0026 Y-24.1993
G1 X22.5678 Y-23.9652
G1 X23.1743 Y-23.8854
G1 X23.7809 Y-23.9652
G1 X24.3461 Y-24.1993
G1 X24.8314 Y-24.5717
G1 X25.2038 Y-25.0571
G1 X25.4379 Y-25.6223
G1 X25.5178 Y-26.2288
G1 X25.4379 Y-26.8353
G1 X25.2038 Y-27.4005
G1 X24.8314 Y-27.8859
G1 X24.3461 Y-28.2583
G1 X23.7809 Y-28.4924
G1 X23.1743 Y-28.5722
G1 X22.5678 Y-28.4924
G1 X22.0026 Y-28.2583
G1 X21.804 Y-28.1058
G1 F200.0 X21.0321 Y-29.1118
G1 F800.0 X20.6129 Y-28.7902
G1 X20.0373 Y-28.04
G1 X19.6754 Y-27.1663
G1 X19.552 Y-26.2288
G1 X19.6754 Y-25.2913
G1 X20.0373 Y-24.4176
G1 X20.6129 Y-23.6674
G1 X21.3632 Y-23.0917
G1 X22.2368 Y-22.7298
G1 X23.1743 Y-22.6064
G1 X24.1119 Y-22.7298
G1 X24.9855 Y-23.0917
G1 X25.7358 Y-23.6674
G1 X26.3114 Y-24.4176
G1 X26.6733 Y-25.2913
G1 X26.7967 Y-26.2288
G1 X26.6733 Y-27.1663
G1 X26.3114 Y-28.04
G1 X25.7358 Y-28.7902
G1 X24.9855 Y-29.3659
G1 X24.1119 Y-29.7277
G1 X23.1743 Y-29.8512
G1 X22.2368 Y-29.7277
G1 X21.3632 Y-29.3659
G1 X21.0321 Y-29.1118
G1 F200.0 X20.2601 Y-30.1178
G1 F800.0 X19.7086 Y-29.6946
G1 X18.9297 Y-28.6795
G1 X18.44 Y-27.4974
G1 X18.273 Y-26.2288
G1 X18.44 Y-24.9602
G1 X18.9297 Y-23.7781
G1 X19.7086 Y-22.763
G1 X20.7237 Y-21.9841
G1 X21.9058 Y-21.4945
G1 X23.1743 Y-21.3275
G1 X24.4429 Y-21.4945
G1 X25.625 Y-21.9841
G1 X26.6401 Y-22.763
G1 X27.419 Y-23.7781
G1 X27.9087 Y-24.9602
G1 X28.0757 Y-26.2288
G1 X27.9087 Y-27.4974
G1 X27.419 Y-28.6795
G1 X26.6401 Y-29.6946
G1 X25.625 Y-30.4735
G1 X24.4429 Y-30.9631
G1 X23.1743 Y-31.1301
G1 X21.9058 Y-30.9631
G1 X20.7237 Y-30.4735
G1 X20.2601 Y-30.1178
G0 Z3.0
G0 X22.9618 Y-26.5969
G0 Z-1.0
G1 F200.0 Z-2.4
G1 F800.0 X22.8738 Y-26.5293
G1 X22.8063 Y-26.4413
G1 X22.7638 Y-26.3388
G1 X22.7493 Y-26.2288
G1 X22.7638 Y-26.1188
G1 X22.8063 Y-26.0163
G1 X22.8738 Y-25.9283
G1 X22.9618 Y-25.8607
G1 X23.0643 Y-25.8182
G1 X23.1743 Y-25.8038
G1 X23.2844 Y-25.8182
G1 X23.3869 Y-25.8607
G1 X23.4749 Y-25.9283
G1 X23.5424 Y-26.0163
G1 X23.5849 Y-26.1188
G1 X23.5994 Y-26.2288
G1 X23.5849 Y-26.3388
G1 X23.5424 Y-26.4413
G1 X23.4749 Y-26.5293
G1 X23.3869 Y-26.5969
G1 X23.2844 Y-26.6393
G1 X23.1743 Y-26.6538
G1 X23.0643 Y-26.6393
G1 X22.9618 Y-26.5969
G1 F200.0 X22.5759 Y-27.0999
G1 F800.0 X22.4216 Y-26.9815
G1 X22.2525 Y-26.761
G1 X22.1461 Y-26.5043
G1 X22.1098 Y-26.2288
G1 X22.1461 Y-25.9533
G1 X22.2525 Y-25.6965
G1 X22.4216 Y-25.4761
G1 X22.6421 Y-25.3069
G1 X22.8988 Y-25.2006
G1 X23.1743 Y-25.1643
G1 X23.4499 Y-25.2006
G1 X23.7066 Y-25.3069
G1 X23.9271 Y-25.4761
G1 X24.0962 Y-25.6965
G1 X24.2026 Y-25.9533
G1 X24.2388 Y-26.2288
G1 X24.2026 Y-26.5043
G1 X24.0962 Y-26.761
G1 X23.9271 Y-26.9815
G1 X23.7066 Y-27.1507
G1 X23.4499 Y-27.257
G1 X23.1743 Y-27.2933
G1 X22.8988 Y-27.257
G1 X22.6421 Y-27.1507
G1 X22.5759 Y-27.0999
G1 F200.0 X21.804 Y-28.1058
G1 F800.0 X21.5173 Y-27.8859
G1 X21.1449 Y-27.4005
G1 X20.9108 Y-26.8353
G1 X20.8309 Y-26.2288
G1 X20.9108 Y-25.6223
G1 X21.1449 Y-25.0571
G1 X21.5173 Y-24.5717
G1 X22.0026 Y-24.1993
G1 X22.5678 Y-23.9652
G1 X23.1743 Y-23.8854
G1 X23.7809 Y-23.9652
G1 X24.3461 Y-24.1993
G1 X24.8314 Y-24.5717
G1 X25.2038 Y-25.0571
G1 X25.4379 Y-25.6223
G1 X25.5178 Y-26.2288
G1 X25.4379 Y-26.8353
G1 X25.2038 Y-27.4005
G1 X24.8314 Y-27.8859
G1 X24.3461 Y-28.2583
G1 X23.7809 Y-28.4924
G1 X23.1743 Y-28.5722
G1 X22.5678 Y-28.4924
G1 X22.0026 Y-28.2583
G1 X21.804 Y-28.1058
G1 F200.0 X21.0321 Y-29.1118
G1 F800.0 X20.6129 Y-28.7902
G1 X20.0373 Y-28.04
G1 X19.6754 Y-27.1663
G1 X19.552 Y-26.2288
G1 X19.6754 Y-25.2913
G1 X20.0373 Y-24.4176
G1 X20.6129 Y-23.6674
G1 X21.3632 Y-23.0917
G1 X22.2368 Y-22.7298
G1 X23.1743 Y-22.6064
G1 X24.1119 Y-22.7298
G1 X24.9855 Y-23.0917
G1 X25.7358 Y-23.6674
G1 X26.3114 Y-24.4176
G1 X26.6733 Y-25.2913
G1 X26.7967 Y-26.2288
G1 X26.6733 Y-27.1663
G1 X26.3114 Y-28.04
G1 X25.7358 Y-28.7902
G1 X24.9855 Y-29.3659
G1 X24.1119 Y-29.7277
G1 X23.1743 Y-29.8512
G1 X22.2368 Y-29.7277
G1 X21.3632 Y-29.3659
G1 X21.0321 Y-29.1118
G1 F200.0 X20.2601 Y-30.1178
G1 F800.0 X19.7086 Y-29.6946
G1 X18.9297 Y-28.6795
G1 X18.44 Y-27.4974
G1 X18.273 Y-26.2288
G1 X18.44 Y-24.9602
G1 X18.9297 Y-23.7781
G1 X19.7086 Y-22.763
G1 X20.7237 Y-21.9841
G1 X21.9058 Y-21.4945
G1 X23.1743 Y-21.3275
G1 X24.4429 Y-21.4945
G1 X25.625 Y-21.9841
G1 X26.6401 Y-22.763
G1 X27.419 Y-23.7781
G1 X27.9087 Y-24.9602
G1 X28.0757 Y-26.2288
G1 X27.9087 Y-27.4974
G1 X27.419 Y-28.6795
G1 X26.6401 Y-29.6946
G1 X25.625 Y-30.4735
G1 X24.4429 Y-30.9631
G1 X23.1743 Y-31.1301
G1 X21.9058 Y-30.9631
G1 X20.7237 Y-30.4735
G1 X20.2601 Y-30.1178
G0 Z3.0
G0 X22.9618 Y-26.5969
G0 Z-1.4
G1 F200.0 Z-2.5
G1 F800.0 X22.8738 Y-26.5293
G1 X22.8063 Y-26.4413
G1 X22.7638 Y-26.3388
G1 X22.7493 Y-26.2288
G1 X22.7638 Y-26.1188
G1 X22.8063 Y-26.0163
G1 X22.8738 Y-25.9283
G1 X22.9618 Y-25.8607
G1 X23.0643 Y-25.8182
G1 X23.1743 Y-25.8038
G1 X23.2844 Y-25.8182
G1 X23.3869 Y-25.8607
G1 X23.4749 Y-25.9283
G1 X23.5424 Y-26.0163
G1 X23.5849 Y-26.1188
G1 X23.5994 Y-26.2288
G1 X23.5849 Y-26.3388
G1 X23.5424 Y-26.4413
G1 X23.4749 Y-26.5293
G1 X23.3869 Y-26.5969
G1 X23.2844 Y-26.6393
G1 X23.1743 Y-26.6538
G1 X23.0643 Y-26.6393
G1 X22.9618 Y-26.5969
G1 F200.0 X22.5759 Y-27.0999
G1 F800.0 X22.4216 Y-26.9815
G1 X22.2525 Y-26.761
G1 X22.1461 Y-26.5043
G1 X22.1098 Y-26.2288
G1 X22.1461 Y-25.9533
G1 X22.2525 Y-25.6965
G1 X22.4216 Y-25.4761
G1 X22.6421 Y-25.3069
G1 X22.8988 Y-25.2006
G1 X23.1743 Y-25.1643
G1 X23.4499 Y-25.2006
G1 X23.7066 Y-25.3069
G1 X23.9271 Y-25.4761
G1 X24.0962 Y-25.6965
G1 X24.2026 Y-25.9533
G1 X24.2388 Y-26.2288
G1 X24.2026 Y-26.5043
G1 X24.0962 Y-26.761
G1 X23.9271 Y-26.9815
G1 X23.7066 Y-27.1507
G1 X23.4499 Y-27.257
G1 X23.1743 Y-27.2933
G1 X22.8988 Y-27.257
G1 X22.6421 Y-27.1507
G1 X22.5759 Y-27.0999
G1 F200.0 X21.804 Y-28.1058
G1 F800.0 X21.5173 Y-27.8859
G1 X21.1449 Y-27.4005
G1 X20.9108 Y-26.8353
G1 X20.8309 Y-26.2288
G1 X20.9108 Y-25.6223
G1 X21.1449 Y-25.0571
G1 X21.5173 Y-24.5717
G1 X22.0026 Y-24.1993
G1 X22.5678 Y-23.9652
G1 X23.1743 Y-23.8854
G1 X23.7809 Y-23.9652
G1 X24.3461 Y-24.1993
G1 X24.8314 Y-24.5717
G1 X25.2038 Y-25.0571
G1 X25.4379 Y-25.6223
G1 X25.5178 Y-26.2288
G1 X25.4379 Y-26.8353
G1 X25.2038 Y-27.4005
G1 X24.8314 Y-27.8859
G1 X24.3461 Y-28.2583
G1 X23.7809 Y-28.4924
G1 X23.1743 Y-28.5722
G1 X22.5678 Y-28.4924
G1 X22.0026 Y-28.2583
G1 X21.804 Y-28.1058
G1 F200.0 X21.0321 Y-29.1118
G1 F800.0 X20.6129 Y-28.7902
G1 X20.0373 Y-28.04
G1 X19.6754 Y-27.1663
G1 X19.552 Y-26.2288
G1 X19.6754 Y-25.2913
G1 X20.0373 Y-24.4176
G1 X20.6129 Y-23.6674
G1 X21.3632 Y-23.0917
G1 X22.2368 Y-22.7298
G1 X23.1743 Y-22.6064
G1 X24.1119 Y-22.7298
G1 X24.9855 Y-23.0917
G1 X25.7358 Y-23.6674
G1 X26.3114 Y-24.4176
G1 X26.6733 Y-25.2913
G1 X26.7967 Y-26.2288
G1 X26.6733 Y-27.1663
G1 X26.3114 Y-28.04
G1 X25.7358 Y-28.7902
G1 X24.9855 Y-29.3659
G1 X24.1119 Y-29.7277
G1 X23.1743 Y-29.8512
G1 X22.2368 Y-29.7277
G1 X21.3632 Y-29.3659
G1 X21.0321 Y-29.1118
G1 F200.0 X20.2601 Y-30.1178
G1 F800.0 X19.7086 Y-29.6946
G1 X18.9297 Y-28.6795
G1 X18.44 Y-27.4974
G1 X18.273 Y-26.2288
G1 X18.44 Y-24.9602
G1 X18.9297 Y-23.7781
G1 X19.7086 Y-22.763
G1 X20.7237 Y-21.9841
G1 X21.9058 Y-21.4945
G1 X23.1743 Y-21.3275
G1 X24.4429 Y-21.4945
G1 X25.625 Y-21.9841
G1 X26.6401 Y-22.763
G1 X27.419 Y-23.7781
G1 X27.9087 Y-24.9602
G1 X28.0757 Y-26.2288
G1 X27.9087 Y-27.4974
G1 X27.419 Y-28.6795
G1 X26.6401 Y-29.6946
G1 X25.625 Y-30.4735
G1 X24.4429 Y-30.9631
G1 X23.1743 Y-31.1301
G1 X21.9058 Y-30.9631
G1 X20.7237 Y-30.4735
G1 X20.2601 Y-30.1178
G0 Z3.0
G0 X34.6025 Y-0.3845
G0 Z1.0
G1 F200.0 Z-0.4
G1 F800.0 X34.5092 Y-0.3245
G1 X34.4346 Y-0.2424
G1 X34.3837 Y-0.1437
G1 X34.3601 Y-0.0353
G1 X34.3654 Y0.0755
G1 X34.3992 Y0.1812
G1 X34.4592 Y0.2745
G1 X34.5413 Y0.3491
G1 X34.64 Y0.4
G1 X34.7484 Y0.4236
G1 X34.8592 Y0.4183
G1 X34.9649 Y0.3845
G1 X35.0582 Y0.3245
G1 X35.1329 Y0.2424
G1 X35.1837 Y0.1437
G1 X35.2073 Y0.0353
G1 X35.202 Y-0.0755
G1 X35.1682 Y-0.1812
G1 X35.1082 Y-0.2745
G1 X35.0261 Y-0.3491
G1 X34.9274 Y-0.4
G1 X34.819 Y-0.4236
G1 X34.7082 Y-0.4183
G1 X34.6025 Y-0.3845
G1 F200.0 X34.2597 Y-0.9178
G1 F800.0 X34.0962 Y-0.8127
G1 X33.9092 Y-0.607
G1 X33.7819 Y-0.36
G1 X33.7229 Y-0.0885
G1 X33.7361 Y0.1891
G1 X33.8208 Y0.4538
G1 X33.971 Y0.6876
G1 X34.1767 Y0.8745
G1 X34.4237 Y1.0018
G1 X34.6952 Y1.0608
G1 X34.9728 Y1.0476
G1 X35.2375 Y0.9629
G1 X35.4713 Y0.8127
G1 X35.6582 Y0.607
G1 X35.7855 Y0.36
G1 X35.8445 Y0.0885
G1 X35.8313 Y-0.1891
G1 X35.7466 Y-0.4538
G1 X35.5964 Y-0.6876
G1 X35.3907 Y-0.8745
G1 X35.1437 Y-1.0018
G1 X34.8722 Y-1.0608
G1 X34.5946 Y-1.0476
G1 X34.3299 Y-0.9629
G1 X34.2597 Y-0.9178
G1 F200.0 X33.5741 Y-1.9844
G1 F800.0 X33.2701 Y-1.789
G1 X32.8586 Y-1.3363
G1 X32.5784 Y-0.7926
G1 X32.4484 Y-0.1948
G1 X32.4775 Y0.4163
G1 X32.6639 Y0.999
G1 X32.9947 Y1.5136
G1 X33.4474 Y1.9251
G1 X33.9911 Y2.2053
G1 X34.5889 Y2.3353
G1 X35.2 Y2.3062
G1 X35.7827 Y2.1198
G1 X36.2973 Y1.789
G1 X36.7088 Y1.3363
G1 X36.9891 Y0.7926
G1 X37.119 Y0.1948
G1 X37.0899 Y-0.4163
G1 X36.9035 Y-0.999
G1 X36.5728 Y-1.5136
G1 X36.12 Y-1.9251
G1 X35.5763 Y-2.2053
G1 X34.9785 Y-2.3353
G1 X34.3674 Y-2.3062
G1 X33.7847 Y-2.1198
G1 X33.5741 Y-1.9844
G1 F200.0 X32.8884 Y-3.0511
G1 F800.0 X32.444 Y-2.7654
G1 X31.808 Y-2.0657
G1 X31.3748 Y-1.2251
G1 X31.1739 Y-0.3011
G1 X31.1817 Y-0.136
G1 X31.2189 Y0.6435
G1 X31.507 Y1.5442
G1 X32.0183 Y2.3397
G1 X32.7181 Y2.9757
G1 X33.5586 Y3.4089
G1 X34.4826 Y3.6098
G1 X35.4272 Y3.5648
G1 X36.3279 Y3.2768
G1 X37.1234 Y2.7654
G1 X37.7594 Y2.0657
G1 X38.1926 Y1.2251
G1 X38.3936 Y0.3011
G1 X38.3485 Y-0.6435
G1 X38.0605 Y-1.5442
G1 X37.5491 Y-2.3397
G1 X36.8494 Y-2.9757
G1 X36.0088 Y-3.4089
G1 X35.0848 Y-3.6098
G1 X34.1402 Y-3.5648
G1 X33.2395 Y-3.2768
G1 X32.8884 Y-3.0511
G1 F200.0 X32.2028 Y-4.1177
G1 F800.0 X31.618 Y-3.7418
G1 X30.7574 Y-2.795
G1 X30.1712 Y-1.6576
G1 X29.8993 Y-0.4074
G1 X29.9152 Y-0.0756
G1 X29.9603 Y0.8707
G1 X30.35 Y2.0894
G1 X31.0419 Y3.1657
G1 X31.9887 Y4.0263
G1 X33.1261 Y4.6125
G1 X34.3763 Y4.8844
G1 X35.6544 Y4.8234
G1 X36.8731 Y4.4337
G1 X37.9494 Y3.7418
G1 X38.81 Y2.795
G1 X39.3962 Y1.6576
G1 X39.6681 Y0.4074
G1 X39.6071 Y-0.8707
G1 X39.2174 Y-2.0894
G1 X38.5255 Y-3.1657
G1 X37.5787 Y-4.0263
G1 X36.4413 Y-4.6125
G1 X35.1911 Y-4.8844
G1 X33.913 Y-4.8234
G1 X32.6943 Y-4.4337
G1 X32.2028 Y-4.1177
G0 Z3.0
G0 X34.6025 Y-0.3845
G0 Z0.6
G1 F200.0 Z-0.8
G1 F800.0 X34.5092 Y-0.3245
G1 X34.4346 Y-0.2424
G1 X34.3837 Y-0.1437
G1 X34.3601 Y-0.0353
G1 X34.3654 Y0.0755
G1 X34.3992 Y0.1812
G1 X34.4592 Y0.2745
G1 X34.5413 Y0.3491
G1 X34.64 Y0.4
G1 X34.7484 Y0.4236
G1 X34.8592 Y0.4183
G1 X34.9649 Y0.3845
G1 X35.0582 Y0.3245
G1 X35.1329 Y0.2424
G1 X35.1837 Y0.1437
G1 X35.2073 Y0.0353
G1 X35.202 Y-0.0755
G1 X35.1682 Y-0.1812
G1 X35.1082 Y-0.2745
G1 X35.0261 Y-0.3491
G1 X34.9274 Y-0.4
G1 X34.819 Y-0.4236
G1 X34.7082 Y-0.4183
G1 X34.6025 Y-0.3845
G1 F200.0 X34.2597 Y-0.9178
G1 F800.0 X34.0962 Y-0.8127
G1 X33.9092 Y-0.607
G1 X33.7819 Y-0.36
G1 X33.7229 Y-0.0885
G1 X33.7361 Y0.1891
G1 X33.8208 Y0.4538
G1 X33.971 Y0.6876
G1 X34.1767 Y0.8745
G1 X34.4237 Y1.0018
G1 X34.6952 Y1.0608
G1 X34.9728 Y1.0476
G1 X35.2375 Y0.9629
G1 X35.4713 Y0.8127
G1 X35.6582 Y0.607
G1 X35.7855 Y0.36
G1 X35.8445 Y0.0885
G1 X35.8313 Y-0.1891
G1 X35.7466 Y-0.4538
G1 X35.5964 Y-0.6876
G1 X35.3907 Y-0.8745
G1 X35.1437 Y-1.0018
G1 X34.8722 Y-1.0608
G1 X34.5946 Y-1.0476
G1 X34.3299 Y-0.9629
G1 X34.2597 Y-0.9178
G1 F200.0 X33.5741 Y-1.9844
G1 F800.0 X33.2701 Y-1.789
G1 X32.8586 Y-1.3363
G1 X32.5784 Y-0.7926
G1 X32.4484 Y-0.1948
G1 X32.4775 Y0.4163
G1 X32.6639 Y0.999
G1 X32.9947 Y1.5136
G1 X33.4474 Y1.9251
G1 X33.9911 Y2.2053
G1 X34.5889 Y2.3353
G1 X35.2 Y2.3062
G1 X35.7827 Y2.1198
G1 X36.2973 Y1.789
G1 X36.7088 Y1.3363
G1 X36.9891 Y0.7926
G1 X37.119 Y0.1948
G1 X37.0899 Y-0.4163
G1 X36.9035 Y-0.999
G1 X36.5728 Y-1.5136
G1 X36.12 Y-1.9251
G1 X35.5763 Y-2.2053
G1 X34.9785 Y-2.3353
G1 X34.3674 Y-2.3062
G1 X33.7847 Y-2.1198
G1 X33.5741 Y-1.9844
G1 F200.0 X32.8884 Y-3.0511
G1 F800.0 X32.444 Y-2.7654
G1 X31.808 Y-2.0657
G1 X31.3748 Y-1.2251
G1 X31.1739 Y-0.3011
G1 X31.1817 Y-0.136
G1 X31.2189 Y0.6435
G1 X31.507 Y1.5442
G1 X32.0183 Y2.3397
G1 X32.7181 Y2.9757
G1 X33.5586 Y3.4089
G1 X34.4826 Y3.6098
G1 X35.4272 Y3.5648
G1 X36.3279 Y3.2768
G1 X37.1234 Y2.7654
G1 X37.7594 Y2.0657
G1 X38.1926 Y1.2251
G1 X38.3936 Y0.3011
G1 X38.3485 Y-0.6435
G1 X38.0605 Y-1.5442
G1 X37.5491 Y-2.3397
G1 X36.8494 Y-2.9757
G1 X36.0088 Y-3.4089
G1 X35.0848 Y-3.6098
G1 X34.1402 Y-3.5648
G1 X33.2395 Y-3.2768
G1 X32.8884 Y-3.0511
G1 F200.0 X32.2028 Y-4.1177
G1 F800.0 X31.618 Y-3.7418
G1 X30.7574 Y-2.795
G1 X30.1712 Y-1.6576
G1 X29.8993 Y-0.4074
G1 X29.9152 Y-0.0756
G1 X29.9603 Y0.8707
G1 X30.35 Y2.0894
G1 X31.0419 Y3.1657
G1 X31.9887 Y4.0263
G1 X33.1261 Y4.6125
G1 X34.3763 Y4.8844
G1 X35.6544 Y4.8234
G1 X36.8731 Y4.4337
G1 X37.9494 Y3.7418
G1 X38.81 Y2.795
G1 X39.3962 Y1.6576
G1 X39.6681 Y0.4074
G1 X39.6071 Y-0.8707
G1 X39.2174 Y-2.0894
G1 X38.5255 Y-3.1657
G1 X37.5787 Y-4.0263
G1 X36.4413 Y-4.6125
G1 X35.1911 Y-4.8844
G1 X33.913 Y-4.8234
G1 X32.6943 Y-4.4337
G1 X32.2028 Y-4.1177
G0 Z3.0
G0 X34.6025 Y-0.3845
G0 Z0.2
G1 F200.0 Z-1.2
G1 F800.0 X34.5092 Y-0.3245
G1 X34.4346 Y-0.2424
G1 X34.3837 Y-0.1437
G1 X34.3601 Y-0.0353
G1 X34.3654 Y0.0755
G1 X34.3992 Y0.1812
G1 X34.4592 Y0.2745
G1 X34.5413 Y0.3491
G1 X34.64 Y0.4
G1 X34.7484 Y0.4236
G1 X34.8592 Y0.4183
G1 X34.9649 Y0.3845
G1 X35.0582 Y0.3245
G1 X35.1329 Y0.2424
G1 X35.1837 Y0.1437
G1 X35.2073 Y0.0353
G1 X35.202 Y-0.0755
G1 X35.1682 Y-0.1812
G1 X35.1082 Y-0.2745
G1 X35.0261 Y-0.3491
G1 X34.9274 Y-0.4
G1 X34.819 Y-0.4236
G1 X34.7082 Y-0.4183
G1 X34.6025 Y-0.3845
G1 F200.0 X34.2597 Y-0.9178
G1 F800.0 X34.0962 Y-0.8127
G1 X33.9092 Y-0.607
G1 X33.7819 Y-0.36
G1 X33.7229 Y-0.0885
G1 X33.7361 Y0.1891
G1 X33.8208 Y0.4538
G1 X33.971 Y0.6876
G1 X34.1767 Y0.8745
G1 X34.4237 Y1.0018
G1 X34.6952 Y1.0608
G1 X34.9728 Y1.0476
G1 X35.2375 Y0.9629
G1 X35.4713 Y0.8127
G1 X35.6582 Y0.607
G1 X35.7855 Y0.36
G1 X35.8445 Y0.0885
G1 X35.8313 Y-0.1891
G1 X35.7466 Y-0.4538
G1 X35.5964 Y-0.6876
G1 X35.3907 Y-0.8745
G1 X35.1437 Y-1.0018
G1 X34.8722 Y-1.0608
G1 X34.5946 Y-1.0476
G1 X34.3299 Y-0.9629
G1 X34.2597 Y-0.9178
G1 F200.0 X33.5741 Y-1.9844
G1 F800.0 X33.2701 Y-1.789
G1 X32.8586 Y-1.3363
G1 X32.5784 Y-0.7926
G1 X32.4484 Y-0.1948
G1 X32.4775 Y0.4163
G1 X32.6639 Y0.999
G1 X32.9947 Y1.5136
G1 X33.4474 Y1.9251
G1 X33.9911 Y2.2053
G1 X34.5889 Y2.3353
G1 X35.2 Y2.3062
G1 X35.7827 Y2.1198
G1 X36.2973 Y1.789
G1 X36.7088 Y1.3363
G1 X36.9891 Y0.7926
G1 X37.119 Y0.1948
G1 X37.0899 Y-0.4163
G1 X36.9035 Y-0.999
G1 X36.5728 Y-1.5136
G1 X36.12 Y-1.9251
G1 X35.5763 Y-2.2053
G1 X34.9785 Y-2.3353
G1 X34.3674 Y-2.3062
G1 X33.7847 Y-2.1198
G1 X33.5741 Y-1.9844
G1 F200.0 X32.8884 Y-3.0511
G1 F800.0 X32.444 Y-2.7654
G1 X31.808 Y-2.0657
G1 X31.3748 Y-1.2251
G1 X31.1739 Y-0.3011
G1 X31.1817 Y-0.136
G1 X31.2189 Y0.6435
G1 X31.507 Y1.5442
G1 X32.0183 Y2.3397
G1 X32.7181 Y2.9757
G1 X33.5586 Y3.4089
G1 X34.4826 Y3.6098
G1 X35.4272 Y3.5648
G1 X36.3279 Y3.2768
G1 X37.1234 Y2.7654
G1 X37.7594 Y2.0657
G1 X38.1926 Y1.2251
G1 X38.3936 Y0.3011
G1 X38.3485 Y-0.6435
G1 X38.0605 Y-1.5442
G1 X37.5491 Y-2.3397
G1 X36.8494 Y-2.9757
G1 X36.0088 Y-3.4089
G1 X35.0848 Y-3.6098
G1 X34.1402 Y-3.5648
G1 X33.2395 Y-3.2768
G1 X32.8884 Y-3.0511
G1 F200.0 X32.2028 Y-4.1177
G1 F800.0 X31.618 Y-3.7418
G1 X30.7574 Y-2.795
G1 X30.1712 Y-1.6576
G1 X29.8993 Y-0.4074
G1 X29.9152 Y-0.0756
G1 X29.9603 Y0.8707
G1 X30.35 Y2.0894
G1 X31.0419 Y3.1657
G1 X31.9887 Y4.0263
G1 X33.1261 Y4.6125
G1 X34.3763 Y4.8844
G1 X35.6544 Y4.8234
G1 X36.8731 Y4.4337
G1 X37.9494 Y3.7418
G1 X38.81 Y2.795
G1 X39.3962 Y1.6576
G1 X39.6681 Y0.4074
G1 X39.6071 Y-0.8707
G1 X39.2174 Y-2.0894
G1 X38.5255 Y-3.1657
G1 X37.5787 Y-4.0263
G1 X36.4413 Y-4.6125
G1 X35.1911 Y-4.8844
G1 X33.913 Y-4.8234
G1 X32.6943 Y-4.4337
G1 X32.2028 Y-4.1177
G0 Z3.0
G0 X34.6025 Y-0.3845
G0 Z-0.2
G1 F200.0 Z-1.6
G1 F800.0 X34.5092 Y-0.3245
G1 X34.4346 Y-0.2424
G1 X34.3837 Y-0.1437
G1 X34.3601 Y-0.0353
G1 X34.3654 Y0.0755
G1 X34.3992 Y0.1812
G1 X34.4592 Y0.2745
G1 X34.5413 Y0.3491
G1 X34.64 Y0.4
G1 X34.7484 Y0.4236
G1 X34.8592 Y0.4183
G1 X34.9649 Y0.3845
G1 X35.0582 Y0.3245
G1 X35.1329 Y0.2424
G1 X35.1837 Y0.1437
G1 X35.2073 Y0.0353
G1 X35.202 Y-0.0755
G1 X35.1682 Y-0.1812
G1 X35.1082 Y-0.2745
G1 X35.0261 Y-0.3491
G1 X34.9274 Y-0.4
G1 X34.819 Y-0.4236
G1 X34.7082 Y-0.4183
G1 X34.6025 Y-0.3845
G1 F200.0 X34.2597 Y-0.9178
G1 F800.0 X34.0962 Y-0.8127
G1 X33.9092 Y-0.607
G1 X33.7819 Y-0.36
G1 X33.7229 Y-0.0885
G1 X33.7361 Y0.1891
G1 X33.8208 Y0.4538
G1 X33.971 Y0.6876
G1 X34.1767 Y0.8745
G1 X34.4237 Y1.0018
G1 X34.6952 Y1.0608
G1 X34.9728 Y1.0476
G1 X35.2375 Y0.9629
G1 X35.4713 Y0.8127
G1 X35.6582 Y0.607
G1 X35.7855 Y0.36
G1 X35.8445 Y0.0885
G1 X35.8313 Y-0.1891
G1 X35.7466 Y-0.4538
G1 X35.5964 Y-0.6876
G1 X35.3907 Y-0.8745
G1 X35.1437 Y-1.0018
G1 X34.8722 Y-1.0608
G1 X34.5946 Y-1.0476
G1 X34.3299 Y-0.9629
G1 X34.2597 Y-0.9178
G1 F200.0 X33.5741 Y-1.9844
G1 F800.0 X33.2701 Y-1.789
G1 X32.8586 Y-1.3363
G1 X32.5784 Y-0.7926
G1 X32.4484 Y-0.1948
G1 X32.4775 Y0.4163
G1 X32.6639 Y0.999
G1 X32.9947 Y1.5136
G1 X33.4474 Y1.9251
G1 X33.9911 Y2.2053
G1 X34.5889 Y2.3353
G1 X35.2 Y2.3062
G1 X35.7827 Y2.1198
G1 X36.2973 Y1.789
G1 X36.7088 Y1.3363
G1 X36.9891 Y0.7926
G1 X37.119 Y0.1948
G1 X37.0899 Y-0.4163
G1 X36.9035 Y-0.999
G1 X36.5728 Y-1.5136
G1 X36.12 Y-1.9251
G1 X35.5763 Y-2.2053
G1 X34.9785 Y-2.3353
G1 X34.3674 Y-2.3062
G1 X33.7847 Y-2.1198
G1 X33.5741 Y-1.9844
G1 F200.0 X32.8884 Y-3.0511
G1 F800.0 X32.444 Y-2.7654
G1 X31.808 Y-2.0657
G1 X31.3748 Y-1.2251
G1 X31.1739 Y-0.3011
G1 X31.1817 Y-0.136
G1 X31.2189 Y0.6435
G1 X31.507 Y1.5442
G1 X32.0183 Y2.3397
G1 X32.7181 Y2.9757
G1 X33.5586 Y3.4089
G1 X34.4826 Y3.6098
G1 X35.4272 Y3.5648
G1 X36.3279 Y3.2768
G1 X37.1234 Y2.7654
G1 X37.7594 Y2.0657
G1 X38.1926 Y1.2251
G1 X38.3936 Y0.3011
G1 X38.3485 Y-0.6435
G1 X38.0605 Y-1.5442
G1 X37.5491 Y-2.3397
G1 X36.8494 Y-2.9757
G1 X36.0088 Y-3.4089
G1 X35.0848 Y-3.6098
G1 X34.1402 Y-3.5648
G1 X33.2395 Y-3.2768
G1 X32.8884 Y-3.0511
G1 F200.0 X32.2028 Y-4.1177
G1 F800.0 X31.618 Y-3.7418
G1 X30.7574 Y-2.795
G1 X30.1712 Y-1.6576
G1 X29.8993 Y-0.4074
G1 X29.9152 Y-0.0756
G1 X29.9603 Y0.8707
G1 X30.35 Y2.0894
G1 X31.0419 Y3.1657
G1 X31.9887 Y4.0263
G1 X33.1261 Y4.6125
G1 X34.3763 Y4.8844
G1 X35.6544 Y4.8234
G1 X36.8731 Y4.4337
G1 X37.9494 Y3.7418
G1 X38.81 Y2.795
G1 X39.3962 Y1.6576
G1 X39.6681 Y0.4074
G1 X39.6071 Y-0.8707
G1 X39.2174 Y-2.0894
G1 X38.5255 Y-3.1657
G1 X37.5787 Y-4.0263
G1 X36.4413 Y-4.6125
G1 X35.1911 Y-4.8844
G1 X33.913 Y-4.8234
G1 X32.6943 Y-4.4337
G1 X32.2028 Y-4.1177
G0 Z3.0
G0 X34.6025 Y-0.3845
G0 Z-0.6
G1 F200.0 Z-2.0
G1 F800.0 X34.5092 Y-0.3245
G1 X34.4346 Y-0.2424
G1 X34.3837 Y-0.1437
G1 X34.3601 Y-0.0353
G1 X34.3654 Y0.0755
G1 X34.3992 Y0.1812
G1 X34.4592 Y0.2745
G1 X34.5413 Y0.3491
G1 X34.64 Y0.4
G1 X34.7484 Y0.4236
G1 X34.8592 Y0.4183
G1 X34.9649 Y0.3845
G1 X35.0582 Y0.3245
G1 X35.1329 Y0.2424
G1 X35.1837 Y0.1437
G1 X35.2073 Y0.0353
G1 X35.202 Y-0.0755
G1 X35.1682 Y-0.1812
G1 X35.1082 Y-0.2745
G1 X35.0261 Y-0.3491
G1 X34.9274 Y-0.4
G1 X34.819 Y-0.4236
G1 X34.7082 Y-0.4183
G1 X34.6025 Y-0.3845
G1 F200.0 X34.2597 Y-0.9178
G1 F800.0 X34.0962 Y-0.8127
G1 X33.9092 Y-0.607
G1 X33.7819 Y-0.36
G1 X33.7229 Y-0.0885
G1 X33.7361 Y0.1891
G1 X33.8208 Y0.4538
G1 X33.971 Y0.6876
G1 X34.1767 Y0.8745
G1 X34.4237 Y1.0018
G1 X34.6952 Y1.0608
G1 X34.9728 Y1.0476
G1 X35.2375 Y0.9629
G1 X35.4713 Y0.8127
G1 X35.6582 Y0.607
G1 X35.7855 Y0.36
G1 X35.8445 Y0.0885
G1 X35.8313 Y-0.1891
G1 X35.7466 Y-0.4538
G1 X35.5964 Y-0.6876
G1 X35.3907 Y-0.8745
G1 X35.1437 Y-1.0018
G1 X34.8722 Y-1.0608
G1 X34.5946 Y-1.0476
G1 X34.3299 Y-0.9629
G1 X34.2597 Y-0.9178
G1 F200.0 X33.5741 Y-1.9844
G1 F800.0 X33.2701 Y-1.789
G1 X32.8586 Y-1.3363
G1 X32.5784 Y-0.7926
G1 X32.4484 Y-0.1948
G1 X32.4775 Y0.4163
G1 X32.6639 Y0.999
G1 X32.9947 Y1.5136
G1 X33.4474 Y1.9251
G1 X33.9911 Y2.2053
G1 X34.5889 Y2.3353
G1 X35.2 Y2.3062
G1 X35.7827 Y2.1198
G1 X36.2973 Y1.789
G1 X36.7088 Y1.3363
G1 X36.9891 Y0.7926
G1 X37.119 Y0.1948
G1 X37.0899 Y-0.4163
G1 X36.9035 Y-0.999
G1 X36.5728 Y-1.5136
G1 X36.12 Y-1.9251
G1 X35.5763 Y-2.2053
G1 X34.9785 Y-2.3353
G1 X34.3674 Y-2.3062
G1 X33.7847 Y-2.1198
G1 X33.5741 Y-1.9844
G1 F200.0 X32.8884 Y-3.0511
G1 F800.0 X32.444 Y-2.7654
G1 X31.808 Y-2.0657
G1 X31.3748 Y-1.2251
G1 X31.1739 Y-0.3011
G1 X31.1817 Y-0.136
G1 X31.2189 Y0.6435
G1 X31.507 Y1.5442
G1 X32.0183 Y2.3397
G1 X32.7181 Y2.9757
G1 X33.5586 Y3.4089
G1 X34.4826 Y3.6098
G1 X35.4272 Y3.5648
G1 X36.3279 Y3.2768
G1 X37.1234 Y2.7654
G1 X37.7594 Y2.0657
G1 X38.1926 Y1.2251
G1 X38.3936 Y0.3011
G1 X38.3485 Y-0.6435
G1 X38.0605 Y-1.5442
G1 X37.5491 Y-2.3397
G1 X36.8494 Y-2.9757
G1 X36.0088 Y-3.4089
G1 X35.0848 Y-3.6098
G1 X34.1402 Y-3.5648
G1 X33.2395 Y-3.2768
G1 X32.8884 Y-3.0511
G1 F200.0 X32.2028 Y-4.1177
G1 F800.0 X31.618 Y-3.7418
G1 X30.7574 Y-2.795
G1 X30.1712 Y-1.6576
G1 X29.8993 Y-0.4074
G1 X29.9152 Y-0.0756
G1 X29.9603 Y0.8707
G1 X30.35 Y2.0894
G1 X31.0419 Y3.1657
G1 X31.9887 Y4.0263
G1 X33.1261 Y4.6125
G1 X34.3763 Y4.8844
G1 X35.6544 Y4.8234
G1 X36.8731 Y4.4337
G1 X37.9494 Y3.7418
G1 X38.81 Y2.795
G1 X39.3962 Y1.6576
G1 X39.6681 Y0.4074
G1 X39.6071 Y-0.8707
G1 X39.2174 Y-2.0894
G1 X38.5255 Y-3.1657
G1 X37.5787 Y-4.0263
G1 X36.4413 Y-4.6125
G1 X35.1911 Y-4.8844
G1 X33.913 Y-4.8234
G1 X32.6943 Y-4.4337
G1 X32.2028 Y-4.1177
G0 Z3.0
G0 X34.6025 Y-0.3845
G0 Z-1.0
G1 F200.0 Z-2.4
G1 F800.0 X34.5092 Y-0.3245
G1 X34.4346 Y-0.2424
G1 X34.3837 Y-0.1437
G1 X34.3601 Y-0.0353
G1 X34.3654 Y0.0755
G1 X34.3992 Y0.1812
G1 X34.4592 Y0.2745
G1 X34.5413 Y0.3491
G1 X34.64 Y0.4
G1 X34.7484 Y0.4236
G1 X34.8592 Y0.4183
G1 X34.9649 Y0.3845
G1 X35.0582 Y0.3245
G1 X35.1329 Y0.2424
G1 X35.1837 Y0.1437
G1 X35.2073 Y0.0353
G1 X35.202 Y-0.0755
G1 X35.1682 Y-0.1812
G1 X35.1082 Y-0.2745
G1 X35.0261 Y-0.3491
G1 X34.9274 Y-0.4
G1 X34.819 Y-0.4236
G1 X34.7082 Y-0.4183
G1 X34.6025 Y-0.3845
G1 F200.0 X34.2597 Y-0.9178
G1 F800.0 X34.0962 Y-0.8127
G1 X33.9092 Y-0.607
G1 X33.7819 Y-0.36
G1 X33.7229 Y-0.0885
G1 X33.7361 Y0.1891
G1 X33.8208 Y0.4538
G1 X33.971 Y0.6876
G1 X34.1767 Y0.8745
G1 X34.4237 Y1.0018
G1 X34.6952 Y1.0608
G1 X34.9728 Y1.0476
G1 X35.2375 Y0.9629
G1 X35.4713 Y0.8127
G1 X35.6582 Y0.607
G1 X35.7855 Y0.36
G1 X35.8445 Y0.0885
G1 X35.8313 Y-0.1891
G1 X35.7466 Y-0.4538
G1 X35.5964 Y-0.6876
G1 X35.3907 Y-0.8745
G1 X35.1437 Y-1.0018
G1 X34.8722 Y-1.0608
G1 X34.5946 Y-1.0476
G1 X34.3299 Y-0.9629
G1 X34.2597 Y-0.9178
G1 F200.0 X33.5741 Y-1.9844
G1 F800.0 X33.2701 Y-1.789
G1 X32.8586 Y-1.3363
G1 X32.5784 Y-0.7926
G1 X32.4484 Y-0.1948
G1 X32.4775 Y0.4163
G1 X32.6639 Y0.999
G1 X32.9947 Y1.5136
G1 X33.4474 Y1.9251
G1 X33.9911 Y2.2053
G1 X34.5889 Y2.3353
G1 X35.2 Y2.3062
G1 X35.7827 Y2.1198
G1 X36.2973 Y1.789
G1 X36.7088 Y1.3363
G1 X36.9891 Y0.7926
G1 X37.119 Y0.1948
G1 X37.0899 Y-0.4163
G1 X36.9035 Y-0.999
G1 X36.5728 Y-1.5136
G1 X36.12 Y-1.9251
G1 X35.5763 Y-2.2053
G1 X34.9785 Y-2.3353
G1 X34.3674 Y-2.3062
G1 X33.7847 Y-2.1198
G1 X33.5741 Y-1.9844
G1 F200.0 X32.8884 Y-3.0511
G1 F800.0 X32.444 Y-2.7654
G1 X31.808 Y-2.0657
G1 X31.3748 Y-1.2251
G1 X31.1739 Y-0.3011
G1 X31.1817 Y-0.136
G1 X31.2189 Y0.6435
G1 X31.507 Y1.5442
G1 X32.0183 Y2.3397
G1 X32.7181 Y2.9757
G1 X33.5586 Y3.4089
G1 X34.4826 Y3.6098
G1 X35.4272 Y3.5648
G1 X36.3279 Y3.2768
G1 X37.1234 Y2.7654
G1 X37.7594 Y2.0657
G1 X38.1926 Y1.2251
G1 X38.3936 Y0.3011
G1 X38.3485 Y-0.6435
G1 X38.0605 Y-1.5442
G1 X37.5491 Y-2.3397
G1 X36.8494 Y-2.9757
G1 X36.0088 Y-3.4089
G1 X35.0848 Y-3.6098
G1 X34.1402 Y-3.5648
G1 X33.2395 Y-3.2768
G1 X32.8884 Y-3.0511
G1 F200.0 X32.2028 Y-4.1177
G1 F800.0 X31.618 Y-3.7418
G1 X30.7574 Y-2.795
G1 X30.1712 Y-1.6576
G1 X29.8993 Y-0.4074
G1 X29.9152 Y-0.0756
G1 X29.9603 Y0.8707
G1 X30.35 Y2.0894
G1 X31.0419 Y3.1657
G1 X31.9887 Y4.0263
G1 X33.1261 Y4.6125
G1 X34.3763 Y4.8844
G1 X35.6544 Y4.8234
G1 X36.8731 Y4.4337
G1 X37.9494 Y3.7418
G1 X38.81 Y2.795
G1 X39.3962 Y1.6576
G1 X39.6681 Y0.4074
G1 X39.6071 Y-0.8707
G1 X39.2174 Y-2.0894
G1 X38.5255 Y-3.1657
G1 X37.5787 Y-4.0263
G1 X36.4413 Y-4.6125
G1 X35.1911 Y-4.8844
G1 X33.913 Y-4.8234
G1 X32.6943 Y-4.4337
G1 X32.2028 Y-4.1177
G0 Z3.0
G0 X34.6025 Y-0.3845
G0 Z-1.4
G1 F200.0 Z-2.5
G1 F800.0 X34.5092 Y-0.3245
G1 X34.4346 Y-0.2424
G1 X34.3837 Y-0.1437
G1 X34.3601 Y-0.0353
G1 X34.3654 Y0.0755
G1 X34.3992 Y0.1812
G1 X34.4592 Y0.2745
G1 X34.5413 Y0.3491
G1 X34.64 Y0.4
G1 X34.7484 Y0.4236
G1 X34.8592 Y0.4183
G1 X34.9649 Y0.3845
G1 X35.0582 Y0.3245
G1 X35.1329 Y0.2424
G1 X35.1837 Y0.1437
G1 X35.2073 Y0.0353
G1 X35.202 Y-0.0755
G1 X35.1682 Y-0.1812
G1 X35.1082 Y-0.2745
G1 X35.0261 Y-0.3491
G1 X34.9274 Y-0.4
G1 X34.819 Y-0.4236
G1 X34.7082 Y-0.4183
G1 X34.6025 Y-0.3845
G1 F200.0 X34.2597 Y-0.9178
G1 F800.0 X34.0962 Y-0.8127
G1 X33.9092 Y-0.607
G1 X33.7819 Y-0.36
G1 X33.7229 Y-0.0885
G1 X33.7361 Y0.1891
G1 X33.8208 Y0.4538
G1 X33.971 Y0.6876
G1 X34.1767 Y0.8745
G1 X34.4237 Y1.0018
G1 X34.6952 Y1.0608
G1 X34.9728 Y1.0476
G1 X35.2375 Y0.9629
G1 X35.4713 Y0.8127
G1 X35.6582 Y0.607
G1 X35.7855 Y0.36
G1 X35.8445 Y0.0885
G1 X35.8313 Y-0.1891
G1 X35.7466 Y-0.4538
G1 X35.5964 Y-0.6876
G1 X35.3907 Y-0.8745
G1 X35.1437 Y-1.0018
G1 X34.8722 Y-1.0608
G1 X34.5946 Y-1.0476
G1 X34.3299 Y-0.9629
G1 X34.2597 Y-0.9178
G1 F200.0 X33.5741 Y-1.9844
G1 F800.0 X33.2701 Y-1.789
G1 X32.8586 Y-1.3363
G1 X32.5784 Y-0.7926
G1 X32.4484 Y-0.1948
G1 X32.4775 Y0.4163
G1 X32.6639 Y0.999
G1 X32.9947 Y1.5136
G1 X33.4474 Y1.9251
G1 X33.9911 Y2.2053
G1 X34.5889 Y2.3353
G1 X35.2 Y2.3062
G1 X35.7827 Y2.1198
G1 X36.2973 Y1.789
G1 X36.7088 Y1.3363
G1 X36.9891 Y0.7926
G1 X37.119 Y0.1948
G1 X37.0899 Y-0.4163
G1 X36.9035 Y-0.999
G1 X36.5728 Y-1.5136
G1 X36.12 Y-1.9251
G1 X35.5763 Y-2.2053
G1 X34.9785 Y-2.3353
G1 X34.3674 Y-2.3062
G1 X33.7847 Y-2.1198
G1 X33.5741 Y-1.9844
G1 F200.0 X32.8884 Y-3.0511
G1 F800.0 X32.444 Y-2.7654
G1 X31.808 Y-2.0657
G1 X31.3748 Y-1.2251
G1 X31.1739 Y-0.3011
G1 X31.1817 Y-0.136
G1 X31.2189 Y0.6435
G1 X31.507 Y1.5442
G1 X32.0183 Y2.3397
G1 X32.7181 Y2.9757
G1 X33.5586 Y3.4089
G1 X34.4826 Y3.6098
G1 X35.4272 Y3.5648
G1 X36.3279 Y3.2768
G1 X37.1234 Y2.7654
G1 X37.7594 Y2.0657
G1 X38.1926 Y1.2251
G1 X38.3936 Y0.3011
G1 X38.3485 Y-0.6435
G1 X38.0605 Y-1.5442
G1 X37.5491 Y-2.3397
G1 X36.8494 Y-2.9757
G1 X36.0088 Y-3.4089
G1 X35.0848 Y-3.6098
G1 X34.1402 Y-3.5648
G1 X33.2395 Y-3.2768
G1 X32.8884 Y-3.0511
G1 F200.0 X32.2028 Y-4.1177
G1 F800.0 X31.618 Y-3.7418
G1 X30.7574 Y-2.795
G1 X30.1712 Y-1.6576
G1 X29.8993 Y-0.4074
G1 X29.9152 Y-0.0756
G1 X29.9603 Y0.8707
G1 X30.35 Y2.0894
G1 X31.0419 Y3.1657
G1 X31.9887 Y4.0263
G1 X33.1261 Y4.6125
G1 X34.3763 Y4.8844
G1 X35.6544 Y4.8234
G1 X36.8731 Y4.4337
G1 X37.9494 Y3.7418
G1 X38.81 Y2.795
G1 X39.3962 Y1.6576
G1 X39.6681 Y0.4074
G1 X39.6071 Y-0.8707
G1 X39.2174 Y-2.0894
G1 X38.5255 Y-3.1657
G1 X37.5787 Y-4.0263
G1 X36.4413 Y-4.6125
G1 X35.1911 Y-4.8844
G1 X33.913 Y-4.8234
G1 X32.6943 Y-4.4337
G1 X32.2028 Y-4.1177
G0 Z3.0
G0 X26.3388 Y22.7638
G0 Z1.0
G1 F200.0 Z-0.4
G1 F800.0 X26.2288 Y22.7493
G1 X26.1188 Y22.7638
G1 X26.0163 Y22.8063
G1 X25.9283 Y22.8738
G1 X25.8607 Y22.9618
G1 X25.8182 Y23.0643
G1 X25.8038 Y23.1743
G1 X25.8182 Y23.2844
G1 X25.8607 Y23.3869
G1 X25.9283 Y23.4749
G1 X26.0163 Y23.5424
G1 X26.1188 Y23.5849
G1 X26.2288 Y23.5994
G1 X26.3388 Y23.5849
G1 X26.4413 Y23.5424
G1 X26.5293 Y23.4749
G1 X26.5969 Y23.3869
G1 X26.6393 Y23.2844
G1 X26.6538 Y23.1743
G1 X26.6393 Y23.0643
G1 X26.5969 Y22.9618
G1 X26.5293 Y22.8738
G1 X26.4413 Y22.8063
G1 X26.3388 Y22.7638
G1 F200.0 X26.4216 Y22.1352
G1 F800.0 X26.2288 Y22.1098
G1 X25.9533 Y22.1461
G1 X25.6965 Y22.2525
G1 X25.4761 Y22.4216
G1 X25.3069 Y22.6421
G1 X25.2006 Y22.8988
G1 X25.1643 Y23.1743
G1 X25.2006 Y23.4499
G1 X25.3069 Y23.7066
G1 X25.4761 Y23.9271
G1 X25.6965 Y24.0962
G1 X25.9533 Y24.2026
G1 X26.2288 Y24.2388
G1 X26.5043 Y24.2026
G1 X26.761 Y24.0962
G1 X26.9815 Y23.9271
G1 X27.1507 Y23.7066
G1 X27.257 Y23.4499
G1 X27.2933 Y23.1743
G1 X27.257 Y22.8988
G1 X27.1507 Y22.6421
G1 X26.9815 Y22.4216
G1 X26.761 Y22.2525
G1 X26.5043 Y22.1461
G1 X26.4216 Y22.1352
G1 F200.0 X26.5871 Y20.8781
G1 F800.0 X26.2288 Y20.8309
G1 X25.6223 Y20.9108
G1 X25.0571 Y21.1449
G1 X24.5717 Y21.5173
G1 X24.1993 Y22.0026
G1 X23.9652 Y22.5678
G1 X23.8854 Y23.1743
G1 X23.9652 Y23.7809
G1 X24.1993 Y24.3461
G1 X24.5717 Y24.8314
G1 X25.0571 Y25.2038
G1 X25.6223 Y25.4379
G1 X26.2288 Y25.5178
G1 X26.8353 Y25.4379
G1 X27.4005 Y25.2038
G1 X27.8859 Y24.8314
G1 X28.2583 Y24.3461
G1 X28.4924 Y23.7809
G1 X28.5722 Y23.1743
G1 X28.4924 Y22.5678
G1 X28.2583 Y22.0026
G1 X27.8859 Y21.5173
G1 X27.4005 Y21.1449
G1 X26.8353 Y20.9108
G1 X26.5871 Y20.8781
G1 F200.0 X26.7526 Y19.6209
G1 F800.0 X26.2288 Y19.552
G1 X25.2913 Y19.6754
G1 X24.4176 Y20.0373
G1 X23.6674 Y20.6129
G1 X23.0917 Y21.3632
G1 X22.7298 Y22.2368
G1 X22.6064 Y23.1743
G1 X22.7298 Y24.1119
G1 X23.0917 Y24.9855
G1 X23.6674 Y25.7358
G1 X24.4176 Y26.3114
G1 X25.2913 Y26.6733
G1 X26.2288 Y26.7967
G1 X27.1663 Y26.6733
G1 X28.04 Y26.3114
G1 X28.7902 Y25.7358
G1 X29.3659 Y24.9855
G1 X29.7277 Y24.1119
G1 X29.8512 Y23.1743
G1 X29.7277 Y22.2368
G1 X29.3659 Y21.3632
G1 X28.7902 Y20.6129
G1 X28.04 Y20.0373
G1 X27.1663 Y19.6754
G1 X26.7526 Y19.6209
G1 F200.0 X26.9181 Y18.3638
G1 F800.0 X26.2288 Y18.273
G1 X24.9602 Y18.44
G1 X23.7781 Y18.9297
G1 X22.763 Y19.7086
G1 X21.9841 Y20.7237
G1 X21.4945 Y21.9058
G1 X21.3275 Y23.1743
G1 X21.4945 Y24.4429
G1 X21.9841 Y25.625
G1 X22.763 Y26.6401
G1 X23.7781 Y27.419
G1 X24.9602 Y27.9087
G1 X26.2288 Y28.0757
G1 X27.4974 Y27.9087
G1 X28.6795 Y27.419
G1 X29.6946 Y26.6401
G1 X30.4735 Y25.625
G1 X30.9631 Y24.4429
G1 X31.1301 Y23.1743
G1 X30.9631 Y21.9058
G1 X30.4735 Y20.7237
G1 X29.6946 Y19.7086
G1 X28.6795 Y18.9297
G1 X27.4974 Y18.44
G1 X26.9181 Y18.3638
G0 Z3.0
G0 X26.3388 Y22.7638
G0 Z0.6
G1 F200.0 Z-0.8
G1 F800.0 X26.2288 Y22.7493
G1 X26.1188 Y22.7638
G1 X26.0163 Y22.8063
G1 X25.9283 Y22.8738
G1 X25.8607 Y22.9618
G1 X25.8182 Y23.0643
G1 X25.8038 Y23.1743
G1 X25.8182 Y23.2844
G1 X25.8607 Y23.3869
G1 X25.9283 Y23.4749
G1 X26.0163 Y23.5424
G1 X26.1188 Y23.5849
G1 X26.2288 Y23.5994
G1 X26.3388 Y23.5849
G1 X26.4413 Y23.5424
G1 X26.5293 Y23.4749
G1 X26.5969 Y23.3869
G1 X26.6393 Y23.2844
G1 X26.6538 Y23.1743
G1 X26.6393 Y23.0643
G1 X26.5969 Y22.9618
G1 X26.5293 Y22.8738
G1 X26.4413 Y22.8063
G1 X26.3388 Y22.7638
G1 F200.0 X26.4216 Y22.1352
G1 F800.0 X26.2288 Y22.1098
G1 X25.9533 Y22.1461
G1 X25.6965 Y22.2525
G1 X25.4761 Y22.4216
G1 X25.3069 Y22.6421
G1 X25.2006 Y22.8988
G1 X25.1643 Y23.1743
G1 X25.2006 Y23.4499
G1 X25.3069 Y23.7066
G1 X25.4761 Y23.9271
G1 X25.6965 Y24.0962
G1 X25.9533 Y24.2026
G1 X26.2288 Y24.2388
G1 X26.5043 Y24.2026
G1 X26.761 Y24.0962
G1 X26.9815 Y23.9271
G1 X27.1507 Y23.7066
G1 X27.257 Y23.4499
G1 X27.2933 Y23.1743
G1 X27.257 Y22.8988
G1 X27.1507 Y22.6421
G1 X26.9815 Y22.4216
G1 X26.761 Y22.2525
G1 X26.5043 Y22.1461
G1 X26.4216 Y22.1352
G1 F200.0 X26.5871 Y20.8781
G1 F800.0 X26.2288 Y20.8309
G1 X25.6223 Y20.9108
G1 X25.0571 Y21.1449
G1 X24.5717 Y21.5173
G1 X24.1993 Y22.0026
G1 X23.9652 Y22.5678
G1 X23.8854 Y23.1743
G1 X23.9652 Y23.7809
G1 X24.1993 Y24.3461
G1 X24.5717 Y24.8314
G1 X25.0571 Y25.2038
G1 X25.6223 Y25.4379
G1 X26.2288 Y25.5178
G1 X26.8353 Y25.4379
G1 X27.4005 Y25.2038
G1 X27.8859 Y24.8314
G1 X28.2583 Y24.3461
G1 X28.4924 Y23.7809
G1 X28.5722 Y23.1743
G1 X28.4924 Y22.5678
G1 X28.2583 Y22.0026
G1 X27.8859 Y21.5173
G1 X27.4005 Y21.1449
G1 X26.8353 Y20.9108
G1 X26.5871 Y20.8781
G1 F200.0 X26.7526 Y19.6209
G1 F800.0 X26.2288 Y19.552
G1 X25.2913 Y19.6754
G1 X24.4176 Y20.0373
G1 X23.6674 Y20.6129
G1 X23.0917 Y21.3632
G1 X22.7298 Y22.2368
G1 X22.6064 Y23.1743
G1 X22.7298 Y24.1119
G1 X23.0917 Y24.9855
G1 X23.6674 Y25.7358
G1 X24.4176 Y26.3114
G1 X25.2913 Y26.6733
G1 X26.2288 Y26.7967
G1 X27.1663 Y26.6733
G1 X28.04 Y26.3114
G1 X28.7902 Y25.7358
G1 X29.3659 Y24.9855
G1 X29.7277 Y24.1119
G1 X29.8512 Y23.1743
G1 X29.7277 Y22.2368
G1 X29.3659 Y21.3632
G1 X28.7902 Y20.6129
G1 X28.04 Y20.0373
G1 X27.1663 Y19.6754
G1 X26.7526 Y19.6209
G1 F200.0 X26.9181 Y18.3638
G1 F800.0 X26.2288 Y18.273
G1 X24.9602 Y18.44
G1 X23.7781 Y18.9297
G1 X22.763 Y19.7086
G1 X21.9841 Y20.7237
G1 X21.4945 Y21.9058
G1 X21.3275 Y23.1743
G1 X21.4945 Y24.4429
G1 X21.9841 Y25.625
G1 X22.763 Y26.6401
G1 X23.7781 Y27.419
G1 X24.9602 Y27.9087
G1 X26.2288 Y28.0757
G1 X27.4974 Y27.9087
G1 X28.6795 Y27.419
G1 X29.6946 Y26.6401
G1 X30.4735 Y25.625
G1 X30.9631 Y24.4429
G1 X31.1301 Y23.1743
G1 X30.9631 Y21.9058
G1 X30.4735 Y20.7237
G1 X29.6946 Y19.7086
G1 X28.6795 Y18.9297
G1 X27.4974 Y18.44
G1 X26.9181 Y18.3638
G0 Z3.0
G0 X26.3388 Y22.7638
G0 Z0.2
G1 F200.0 Z-1.2
G1 F800.0 X26.2288 Y22.7493
G1 X26.1188 Y22.7638
G1 X26.0163 Y22.8063
G1 X25.9283 Y22.8738
G1 X25.8607 Y22.9618
G1 X25.8182 Y23.0643
G1 X25.8038 Y23.1743
G1 X25.8182 Y23.2844
G1 X25.8607 Y23.3869
G1 X25.9283 Y23.4749
G1 X26.0163 Y23.5424
G1 X26.1188 Y23.5849
G1 X26.2288 Y23.5994
G1 X26.3388 Y23.5849
G1 X26.4413 Y23.5424
G1 X26.5293 Y23.4749
G1 X26.5969 Y23.3869
G1 X26.6393 Y23.2844
G1 X26.6538 Y23.1743
G1 X26.6393 Y23.0643
G1 X26.5969 Y22.9618
G1 X26.5293 Y22.8738
G1 X26.4413 Y22.8063
G1 X26.3388 Y22.7638
G1 F200.0 X26.4216 Y22.1352
G1 F800.0 X26.2288 Y22.1098
G1 X25.9533 Y22.1461
G1 X25.6965 Y22.2525
G1 X25.4761 Y22.4216
G1 X25.3069 Y22.6421
G1 X25.2006 Y22.8988
G1 X25.1643 Y23.1743
G1 X25.2006 Y23.4499
G1 X25.3069 Y23.7066
G1 X25.4761 Y23.9271
G1 X25.6965 Y24.0962
G1 X25.9533 Y24.2026
G1 X26.2288 Y24.2388
G1 X26.5043 Y24.2026
G1 X26.761 Y24.0962
G1 X26.9815 Y23.9271
G1 X27.1507 Y23.7066
G1 X27.257 Y23.4499
G1 X27.2933 Y23.1743
G1 X27.257 Y22.8988
G1 X27.1507 Y22.6421
G1 X26.9815 Y22.4216
G1 X26.761 Y22.2525
G1 X26.5043 Y22.1461
G1 X26.4216 Y22.1352
G1 F200.0 X26.5871 Y20.8781
G1 F800.0 X26.2288 Y20.8309
G1 X25.6223 Y20.9108
G1 X25.0571 Y21.1449
G1 X24.5717 Y21.5173
G1 X24.1993 Y22.0026
G1 X23.9652 Y22.5678
G1 X23.8854 Y23.1743
G1 X23.9652 Y23.7809
G1 X24.1993 Y24.3461
G1 X24.5717 Y24.8314
G1 X25.0571 Y25.2038
G1 X25.6223 Y25.4379
G1 X26.2288 Y25.5178
G1 X26.8353 Y25.4379
G1 X27.4005 Y25.2038
G1 X27.8859 Y24.8314
G1 X28.2583 Y24.3461
G1 X28.4924 Y23.7809
G1 X28.5722 Y23.1743
G1 X28.4924 Y22.5678
G1 X28.2583 Y22.0026
G1 X27.8859 Y21.5173
G1 X27.4005 Y21.1449
G1 X26.8353 Y20.9108
G1 X26.5871 Y20.8781
G1 F200.0 X26.7526 Y19.6209
G1 F800.0 X26.2288 Y19.552
G1 X25.2913 Y19.6754
G1 X24.4176 Y20.0373
G1 X23.6674 Y20.6129
G1 X23.0917 Y21.3632
G1 X22.7298 Y22.2368
G1 X22.6064 Y23.1743
G1 X22.7298 Y24.1119
G1 X23.0917 Y24.9855
G1 X23.6674 Y25.7358
G1 X24.4176 Y26.3114
G1 X25.2913 Y26.6733
G1 X26.2288 Y26.7967
G1 X27.1663 Y26.6733
G1 X28.04 Y26.3114
G1 X28.7902 Y25.7358
G1 X29.3659 Y24.9855
G1 X29.7277 Y24.1119
G1 X29.8512 Y23.1743
G1 X29.7277 Y22.2368
G1 X29.3659 Y21.3632
G1 X28.7902 Y20.6129
G1 X28.04 Y20.0373
G1 X27.1663 Y19.6754
G1 X26.7526 Y19.6209
G1 F200.0 X26.9181 Y18.3638
G1 F800.0 X26.2288 Y18.273
G1 X24.9602 Y18.44
G1 X23.7781 Y18.9297
G1 X22.763 Y19.7086
G1 X21.9841 Y20.7237
G1 X21.4945 Y21.9058
G1 X21.3275 Y23.1743
G1 X21.4945 Y24.4429
G1 X21.9841 Y25.625
G1 X22.763 Y26.6401
G1 X23.7781 Y27.419
G1 X24.9602 Y27.9087
G1 X26.2288 Y28.0757
G1 X27.4974 Y27.9087
G1 X28.6795 Y27.419
G1 X29.6946 Y26.6401
G1 X30.4735 Y25.625
G1 X30.9631 Y24.4429
G1 X31.1301 Y23.1743
G1 X30.9631 Y21.9058
G1 X30.4735 Y20.7237
G1 X29.6946 Y19.7086
G1 X28.6795 Y18.9297
G1 X27.4974 Y18.44
G1 X26.9181 Y18.3638
G0 Z3.0
G0 X26.3388 Y22.7638
G0 Z-0.2
G1 F200.0 Z-1.6
G1 F800.0 X26.2288 Y22.7493
G1 X26.1188 Y22.7638
G1 X26.0163 Y22.8063
G1 X25.9283 Y22.8738
G1 X25.8607 Y22.9618
G1 X25.8182 Y23.0643
G1 X25.8038 Y23.1743
G1 X25.8182 Y23.2844
G1 X25.8607 Y23.3869
G1 X25.9283 Y23.4749
G1 X26.0163 Y23.5424
G1 X26.1188 Y23.5849
G1 X26.2288 Y23.5994
G1 X26.3388 Y23.5849
G1 X26.4413 Y23.5424
G1 X26.5293 Y23.4749
G1 X26.5969 Y23.3869
G1 X26.6393 Y23.2844
G1 X26.6538 Y23.1743
G1 X26.6393 Y23.0643
G1 X26.5969 Y22.9618
G1 X26.5293 Y22.8738
G1 X26.4413 Y22.8063
G1 X26.3388 Y22.7638
G1 F200.0 X26.4216 Y22.1352
G1 F800.0 X26.2288 Y22.1098
G1 X25.9533 Y22.1461
G1 X25.6965 Y22.2525
G1 X25.4761 Y22.4216
G1 X25.3069 Y22.6421
G1 X25.2006 Y22.8988
G1 X25.1643 Y23.1743
G1 X25.2006 Y23.4499
G1 X25.3069 Y23.7066
G1 X25.4761 Y23.9271
G1 X25.6965 Y24.0962
G1 X25.9533 Y24.2026
G1 X26.2288 Y24.2388
G1 X26.5043 Y24.2026
G1 X26.761 Y24.0962
G1 X26.9815 Y23.9271
G1 X27.1507 Y23.7066
G1 X27.257 Y23.4499
G1 X27.2933 Y23.1743
G1 X27.257 Y22.8988
G1 X27.1507 Y22.6421
G1 X26.9815 Y22.4216
G1 X26.761 Y22.2525
G1 X26.5043 Y22.1461
G1 X26.4216 Y22.1352
G1 F200.0 X26.5871 Y20.8781
G1 F800.0 X26.2288 Y20.8309
G1 X25.6223 Y20.9108
G1 X25.0571 Y21.1449
G1 X24.5717 Y21.5173
G1 X24.1993 Y22.0026
G1 X23.9652 Y22.5678
G1 X23.8854 Y23.1743
G1 X23.9652 Y23.7809
G1 X24.1993 Y24.3461
G1 X24.5717 Y24.8314
G1 X25.0571 Y25.2038
G1 X25.6223 Y25.4379
G1 X26.2288 Y25.5178
G1 X26.8353 Y25.4379
G1 X27.4005 Y25.2038
G1 X27.8859 Y24.8314
G1 X28.2583 Y24.3461
G1 X28.4924 Y23.7809
G1 X28.5722 Y23.1743
G1 X28.4924 Y22.5678
G1 X28.2583 Y22.0026
G1 X27.8859 Y21.5173
G1 X27.4005 Y21.1449
G1 X26.8353 Y20.9108
G1 X26.5871 Y20.8781
G1 F200.0 X26.7526 Y19.6209
G1 F800.0 X26.2288 Y19.552
G1 X25.2913 Y19.6754
G1 X24.4176 Y20.0373
G1 X23.6674 Y20.6129
G1 X23.0917 Y21.3632
G1 X22.7298 Y22.2368
G1 X22.6064 Y23.1743
G1 X22.7298 Y24.1119
G1 X23.0917 Y24.9855
G1 X23.6674 Y25.7358
G1 X24.4176 Y26.3114
G1 X25.2913 Y26.6733
G1 X26.2288 Y26.7967
G1 X27.1663 Y26.6733
G1 X28.04 Y26.3114
G1 X28.7902 Y25.7358
G1 X29.3659 Y24.9855
G1 X29.7277 Y24.1119
G1 X29.8512 Y23.1743
G1 X29.7277 Y22.2368
G1 X29.3659 Y21.3632
G1 X28.7902 Y20.6129
G1 X28.04 Y20.0373
G1 X27.1663 Y19.6754
G1 X26.7526 Y19.6209
G1 F200.0 X26.9181 Y18.3638
G1 F800.0 X26.2288 Y18.273
G1 X24.9602 Y18.44
G1 X23.7781 Y18.9297
G1 X22.763 Y19.7086
G1 X21.9841 Y20.7237
G1 X21.4945 Y21.9058
G1 X21.3275 Y23.1743
G1 X21.4945 Y24.4429
G1 X21.9841 Y25.625
G1 X22.763 Y26.6401
G1 X23.7781 Y27.419
G1 X24.9602 Y27.9087
G1 X26.2288 Y28.0757
G1 X27.4974 Y27.9087
G1 X28.6795 Y27.419
G1 X29.6946 Y26.6401
G1 X30.4735 Y25.625
G1 X30.9631 Y24.4429
G1 X31.1301 Y23.1743
G1 X30.9631 Y21.9058
G1 X30.4735 Y20.7237
G1 X29.6946 Y19.7086
G1 X28.6795 Y18.9297
G1 X27.4974 Y18.44
G1 X26.9181 Y18.3638
G0 Z3.0
G0 X26.3388 Y22.7638
G0 Z-0.6
G1 F200.0 Z-2.0
G1 F800.0 X26.2288 Y22.7493
G1 X26.1188 Y22.7638
G1 X26.0163 Y22.8063
G1 X25.9283 Y22.8738
G1 X25.8607 Y22.9618
G1 X25.8182 Y23.0643
G1 X25.8038 Y23.1743
G1 X25.8182 Y23.2844
G1 X25.8607 Y23.3869
G1 X25.9283 Y23.4749
G1 X26.0163 Y23.5424
G1 X26.1188 Y23.5849
G1 X26.2288 Y23.5994
G1 X26.3388 Y23.5849
G1 X26.4413 Y23.5424
G1 X26.5293 Y23.4749
G1 X26.5969 Y23.3869
G1 X26.6393 Y23.2844
G1 X26.6538 Y23.1743
G1 X26.6393 Y23.0643
G1 X26.5969 Y22.9618
G1 X26.5293 Y22.8738
G1 X26.4413 Y22.8063
G1 X26.3388 Y22.7638
G1 F200.0 X26.4216 Y22.1352
G1 F800.0 X26.2288 Y22.1098
G1 X25.9533 Y22.1461
G1 X25.6965 Y22.2525
G1 X25.4761 Y22.4216
G1 X25.3069 Y22.6421
G1 X25.2006 Y22.8988
G1 X25.1643 Y23.1743
G1 X25.2006 Y23.4499
G1 X25.3069 Y23.7066
G1 X25.4761 Y23.9271
G1 X25.6965 Y24.0962
G1 X25.9533 Y24.2026
G1 X26.2288 Y24.2388
G1 X26.5043 Y24.2026
G1 X26.761 Y24.0962
G1 X26.9815 Y23.9271
G1 X27.1507 Y23.7066
G1 X27.257 Y23.4499
G1 X27.2933 Y23.1743
G1 X27.257 Y22.8988
G1 X27.1507 Y22.6421
G1 X26.9815 Y22.4216
G1 X26.761 Y22.2525
G1 X26.5043 Y22.1461
G1 X26.4216 Y22.1352
G1 F200.0 X26.5871 Y20.8781
G1 F800.0 X26.2288 Y20.8309
G1 X25.6223 Y20.9108
G1 X25.0571 Y21.1449
G1 X24.5717 Y21.5173
G1 X24.1993 Y22.0026
G1 X23.9652 Y22.5678
G1 X23.8854 Y23.1743
G1 X23.9652 Y23.7809
G1 X24.1993 Y24.3461
G1 X24.5717 Y24.8314
G1 X25.0571 Y25.2038
G1 X25.6223 Y25.4379
G1 X26.2288 Y25.5178
G1 X26.8353 Y25.4379
G1 X27.4005 Y25.2038
G1 X27.8859 Y24.8314
G1 X28.2583 Y24.3461
G1 X28.4924 Y23.7809
G1 X28.5722 Y23.1743
G1 X28.4924 Y22.5678
G1 X28.2583 Y22.0026
G1 X27.8859 Y21.5173
G1 X27.4005 Y21.1449
G1 X26.8353 Y20.9108
G1 X26.5871 Y20.8781
G1 F200.0 X26.7526 Y19.6209
G1 F800.0 X26.2288 Y19.552
G1 X25.2913 Y19.6754
G1 X24.4176 Y20.0373
G1 X23.6674 Y20.6129
G1 X23.0917 Y21.3632
G1 X22.7298 Y22.2368
G1 X22.6064 Y23.1743
G1 X22.7298 Y24.1119
G1 X23.0917 Y24.9855
G1 X23.6674 Y25.7358
G1 X24.4176 Y26.3114
G1 X25.2913 Y26.6733
G1 X26.2288 Y26.7967
G1 X27.1663 Y26.6733
G1 X28.04 Y26.3114
G1 X28.7902 Y25.7358
G1 X29.3659 Y24.9855
G1 X29.7277 Y24.1119
G1 X29.8512 Y23.1743
G1 X29.7277 Y22.2368
G1 X29.3659 Y21.3632
G1 X28.7902 Y20.6129
G1 X28.04 Y20.0373
G1 X27.1663 Y19.6754
G1 X26.7526 Y19.6209
G1 F200.0 X26.9181 Y18.3638
G1 F800.0 X26.2288 Y18.273
G1 X24.9602 Y18.44
G1 X23.7781 Y18.9297
G1 X22.763 Y19.7086
G1 X21.9841 Y20.7237
G1 X21.4945 Y21.9058
G1 X21.3275 Y23.1743
G1 X21.4945 Y24.4429
G1 X21.9841 Y25.625
G1 X22.763 Y26.6401
G1 X23.7781 Y27.419
G1 X24.9602 Y27.9087
G1 X26.2288 Y28.0757
G1 X27.4974 Y27.9087
G1 X28.6795 Y27.419
G1 X29.6946 Y26.6401
G1 X30.4735 Y25.625
G1 X30.9631 Y24.4429
G1 X31.1301 Y23.1743
G1 X30.9631 Y21.9058
G1 X30.4735 Y20.7237
G1 X29.6946 Y19.7086
G1 X28.6795 Y18.9297
G1 X27.4974 Y18.44
G1 X26.9181 Y18.3638
G0 Z3.0
G0 X26.3388 Y22.7638
G0 Z-1.0
G1 F200.0 Z-2.4
G1 F800.0 X26.2288 Y22.7493
G1 X26.1188 Y22.7638
G1 X26.0163 Y22.8063
G1 X25.9283 Y22.8738
G1 X25.8607 Y22.9618
G1 X25.8182 Y23.0643
G1 X25.8038 Y23.1743
G1 X25.8182 Y23.2844
G1 X25.8607 Y23.3869
G1 X25.9283 Y23.4749
G1 X26.0163 Y23.5424
G1 X26.1188 Y23.5849
G1 X26.2288 Y23.5994
G1 X26.3388 Y23.5849
G1 X26.4413 Y23.5424
G1 X26.5293 Y23.4749
G1 X26.5969 Y23.3869
G1 X26.6393 Y23.2844
G1 X26.6538 Y23.1743
G1 X26.6393 Y23.0643
G1 X26.5969 Y22.9618
G1 X26.5293 Y22.8738
G1 X26.4413 Y22.8063
G1 X26.3388 Y22.7638
G1 F200.0 X26.4216 Y22.1352
G1 F800.0 X26.2288 Y22.1098
G1 X25.9533 Y22.1461
G1 X25.6965 Y22.2525
G1 X25.4761 Y22.4216
G1 X25.3069 Y22.6421
G1 X25.2006 Y22.8988
G1 X25.1643 Y23.1743
G1 X25.2006 Y23.4499
G1 X25.3069 Y23.7066
G1 X25.4761 Y23.9271
G1 X25.6965 Y24.0962
G1 X25.9533 Y24.2026
G1 X26.2288 Y24.2388
G1 X26.5043 Y24.2026
G1 X26.761 Y24.0962
G1 X26.9815 Y23.9271
G1 X27.1507 Y23.7066
G1 X27.257 Y23.4499
G1 X27.2933 Y23.1743
G1 X27.257 Y22.8988
G1 X27.1507 Y22.6421
G1 X26.9815 Y22.4216
G1 X26.761 Y22.2525
G1 X26.5043 Y22.1461
G1 X26.4216 Y22.1352
G1 F200.0 X26.5871 Y20.8781
G1 F800.0 X26.2288 Y20.8309
G1 X25.6223 Y20.9108
G1 X25.0571 Y21.1449
G1 X24.5717 Y21.5173
G1 X24.1993 Y22.0026
G1 X23.9652 Y22.5678
G1 X23.8854 Y23.1743
G1 X23.9652 Y23.7809
G1 X24.1993 Y24.3461
G1 X24.5717 Y24.8314
G1 X25.0571 Y25.2038
G1 X25.6223 Y25.4379
G1 X26.2288 Y25.5178
G1 X26.8353 Y25.4379
G1 X27.4005 Y25.2038
G1 X27.8859 Y24.8314
G1 X28.2583 Y24.3461
G1 X28.4924 Y23.7809
G1 X28.5722 Y23.1743
G1 X28.4924 Y22.5678
G1 X28.2583 Y22.0026
G1 X27.8859 Y21.5173
G1 X27.4005 Y21.1449
G1 X26.8353 Y20.9108
G1 X26.5871 Y20.8781
G1 F200.0 X26.7526 Y19.6209
G1 F800.0 X26.2288 Y19.552
G1 X25.2913 Y19.6754
G1 X24.4176 Y20.0373
G1 X23.6674 Y20.6129
G1 X23.0917 Y21.3632
G1 X22.7298 Y22.2368
G1 X22.6064 Y23.1743
G1 X22.7298 Y24.1119
G1 X23.0917 Y24.9855
G1 X23.6674 Y25.7358
G1 X24.4176 Y26.3114
G1 X25.2913 Y26.6733
G1 X26.2288 Y26.7967
G1 X27.1663 Y26.6733
G1 X28.04 Y26.3114
G1 X28.7902 Y25.7358
G1 X29.3659 Y24.9855
G1 X29.7277 Y24.1119
G1 X29.8512 Y23.1743
G1 X29.7277 Y22.2368
G1 X29.3659 Y21.3632
G1 X28.7902 Y20.6129
G1 X28.04 Y20.0373
G1 X27.1663 Y19.6754
G1 X26.7526 Y19.6209
G1 F200.0 X26.9181 Y18.3638
G1 F800.0 X26.2288 Y18.273
G1 X24.9602 Y18.44
G1 X23.7781 Y18.9297
G1 X22.763 Y19.7086
G1 X21.9841 Y20.7237
G1 X21.4945 Y21.9058
G1 X21.3275 Y23.1743
G1 X21.4945 Y24.4429
G1 X21.9841 Y25.625
G1 X22.763 Y26.6401
G1 X23.7781 Y27.419
G1 X24.9602 Y27.9087
G1 X26.2288 Y28.0757
G1 X27.4974 Y27.9087
G1 X28.6795 Y27.419
G1 X29.6946 Y26.6401
G1 X30.4735 Y25.625
G1 X30.9631 Y24.4429
G1 X31.1301 Y23.1743
G1 X30.9631 Y21.9058
G1 X30.4735 Y20.7237
G1 X29.6946 Y19.7086
G1 X28.6795 Y18.9297
G1 X27.4974 Y18.44
G1 X26.9181 Y18.3638
G0 Z3.0
G0 X26.3388 Y22.7638
G0 Z-1.4
G1 F200.0 Z-2.5
G1 F800.0 X26.2288 Y22.7493
G1 X26.1188 Y22.7638
G1 X26.0163 Y22.8063
G1 X25.9283 Y22.8738
G1 X25.8607 Y22.9618
G1 X25.8182 Y23.0643
G1 X25.8038 Y23.1743
G1 X25.8182 Y23.2844
G1 X25.8607 Y23.3869
G1 X25.9283 Y23.4749
G1 X26.0163 Y23.5424
G1 X26.1188 Y23.5849
G1 X26.2288 Y23.5994
G1 X26.3388 Y23.5849
G1 X26.4413 Y23.5424
G1 X26.5293 Y23.4749
G1 X26.5969 Y23.3869
G1 X26.6393 Y23.2844
G1 X26.6538 Y23.1743
G1 X26.6393 Y23.0643
G1 X26.5969 Y22.9618
G1 X26.5293 Y22.8738
G1 X26.4413 Y22.8063
G1 X26.3388 Y22.7638
G1 F200.0 X26.4216 Y22.1352
G1 F800.0 X26.2288 Y22.1098
G1 X25.9533 Y22.1461
G1 X25.6965 Y22.2525
G1 X25.4761 Y22.4216
G1 X25.3069 Y22.6421
G1 X25.2006 Y22.8988
G1 X25.1643 Y23.1743
G1 X25.2006 Y23.4499
G1 X25.3069 Y23.7066
G1 X25.4761 Y23.9271
G1 X25.6965 Y24.0962
G1 X25.9533 Y24.2026
G1 X26.2288 Y24.2388
G1 X26.5043 Y24.2026
G1 X26.761 Y24.0962
G1 X26.9815 Y23.9271
G1 X27.1507 Y23.7066
G1 X27.257 Y23.4499
G1 X27.2933 Y23.1743
G1 X27.257 Y22.8988
G1 X27.1507 Y22.6421
G1 X26.9815 Y22.4216
G1 X26.761 Y22.2525
G1 X26.5043 Y22.1461
G1 X26.4216 Y22.1352
G1 F200.0 X26.5871 Y20.8781
G1 F800.0 X26.2288 Y20.8309
G1 X25.6223 Y20.9108
G1 X25.0571 Y21.1449
G1 X24.5717 Y21.5173
G1 X24.1993 Y22.0026
G1 X23.9652 Y22.5678
G1 X23.8854 Y23.1743
G1 X23.9652 Y23.7809
G1 X24.1993 Y24.3461
G1 X24.5717 Y24.8314
G1 X25.0571 Y25.2038
G1 X25.6223 Y25.4379
G1 X26.2288 Y25.5178
G1 X26.8353 Y25.4379
G1 X27.4005 Y25.2038
G1 X27.8859 Y24.8314
G1 X28.2583 Y24.3461
G1 X28.4924 Y23.7809
G1 X28.5722 Y23.1743
G1 X28.4924 Y22.5678
G1 X28.2583 Y22.0026
G1 X27.8859 Y21.5173
G1 X27.4005 Y21.1449
G1 X26.8353 Y20.9108
G1 X26.5871 Y20.8781
G1 F200.0 X26.7526 Y19.6209
G1 F800.0 X26.2288 Y19.552
G1 X25.2913 Y19.6754
G1 X24.4176 Y20.0373
G1 X23.6674 Y20.6129
G1 X23.0917 Y21.3632
G1 X22.7298 Y22.2368
G1 X22.6064 Y23.1743
G1 X22.7298 Y24.1119
G1 X23.0917 Y24.9855
G1 X23.6674 Y25.7358
G1 X24.4176 Y26.3114
G1 X25.2913 Y26.6733
G1 X26.2288 Y26.7967
G1 X27.1663 Y26.6733
G1 X28.04 Y26.3114
G1 X28.7902 Y25.7358
G1 X29.3659 Y24.9855
G1 X29.7277 Y24.1119
G1 X29.8512 Y23.1743
G1 X29.7277 Y22.2368
G1 X29.3659 Y21.3632
G1 X28.7902 Y20.6129
G1 X28.04 Y20.0373
G1 X27.1663 Y19.6754
G1 X26.7526 Y19.6209
G1 F200.0 X26.9181 Y18.3638
G1 F800.0 X26.2288 Y18.273
G1 X24.9602 Y18.44
G1 X23.7781 Y18.9297
G1 X22.763 Y19.7086
G1 X21.9841 Y20.7237
G1 X21.4945 Y21.9058
G1 X21.3275 Y23.1743
G1 X21.4945 Y24.4429
G1 X21.9841 Y25.625
G1 X22.763 Y26.6401
G1 X23.7781 Y27.419
G1 X24.9602 Y27.9087
G1 X26.2288 Y28.0757
G1 X27.4974 Y27.9087
G1 X28.6795 Y27.419
G1 X29.6946 Y26.6401
G1 X30.4735 Y25.625
G1 X30.9631 Y24.4429
G1 X31.1301 Y23.1743
G1 X30.9631 Y21.9058
G1 X30.4735 Y20.7237
G1 X29.6946 Y19.7086
G1 X28.6795 Y18.9297
G1 X27.4974 Y18.44
G1 X26.9181 Y18.3638
G0 Z3.0
G0 X0.3681 Y34.5712
G0 Z1.0
G1 F200.0 Z-0.4
G1 F800.0 X0.3005 Y34.4832
G1 X0.2125 Y34.4156
G1 X0.11 Y34.3732
G1 X0.0 Y34.3587
G1 X-0.11 Y34.3732
G1 X-0.2125 Y34.4156
G1 X-0.3005 Y34.4832
G1 X-0.3681 Y34.5712
G1 X-0.4105 Y34.6737
G1 X-0.425 Y34.7837
G1 X-0.4105 Y34.8937
G1 X-0.3681 Y34.9962
G1 X-0.3005 Y35.0842
G1 X-0.2125 Y35.1518
G1 X-0.11 Y35.1942
G1 X0.0 Y35.2087
G1 X0.11 Y35.1942
G1 X0.2125 Y35.1518
G1 X0.3005 Y35.0842
G1 X0.3681 Y34.9962
G1 X0.4105 Y34.8937
G1 X0.425 Y34.7837
G1 X0.4105 Y34.6737
G1 X0.3681 Y34.5712
G1 F200.0 X0.8711 Y34.1852
G1 F800.0 X0.7527 Y34.031
G1 X0.5322 Y33.8618
G1 X0.2755 Y33.7555
G1 X0.0 Y33.7192
G1 X-0.2755 Y33.7555
G1 X-0.5322 Y33.8618
G1 X-0.7527 Y34.031
G1 X-0.9219 Y34.2515
G1 X-1.0282 Y34.5082
G1 X-1.0645 Y34.7837
G1 X-1.0282 Y35.0592
G1 X-0.9219 Y35.316
G1 X-0.7527 Y35.5364
G1 X-0.5322 Y35.7056
G1 X-0.2755 Y35.8119
G1 X0.0 Y35.8482
G1 X0.2755 Y35.8119
G1 X0.5322 Y35.7056
G1 X0.7527 Y35.5364
G1 X0.9219 Y35.316
G1 X1.0282 Y35.0592
G1 X1.0645 Y34.7837
G1 X1.0282 Y34.5082
G1 X0.9219 Y34.2515
G1 X0.8711 Y34.1852
G1 F200.0 X1.877 Y33.4133
G1 F800.0 X1.6571 Y33.1266
G1 X1.1717 Y32.7542
G1 X0.6065 Y32.5201
G1 X0.0 Y32.4403
G1 X-0.6065 Y32.5201
G1 X-1.1717 Y32.7542
G1 X-1.6571 Y33.1266
G1 X-2.0295 Y33.612
G1 X-2.2636 Y34.1772
G1 X-2.3434 Y34.7837
G1 X-2.2636 Y35.3902
G1 X-2.0295 Y35.9554
G1 X-1.6571 Y36.4408
G1 X-1.1717 Y36.8132
G1 X-0.6065 Y37.0473
G1 X0.0 Y37.1271
G1 X0.6065 Y37.0473
G1 X1.1717 Y36.8132
G1 X1.6571 Y36.4408
G1 X2.0295 Y35.9554
G1 X2.2636 Y35.3902
G1 X2.3434 Y34.7837
G1 X2.2636 Y34.1772
G1 X2.0295 Y33.612
G1 X1.877 Y33.4133
G1 F200.0 X2.883 Y32.6414
G1 F800.0 X2.5614 Y32.2223
G1 X1.8112 Y31.6466
G1 X0.9375 Y31.2848
G1 X0.0 Y31.1613
G1 X-0.9375 Y31.2848
G1 X-1.8112 Y31.6466
G1 X-2.5614 Y32.2223
G1 X-3.1371 Y32.9725
G1 X-3.499 Y33.8462
G1 X-3.6224 Y34.7837
G1 X-3.499 Y35.7212
G1 X-3.1371 Y36.5949
G1 X-2.5614 Y37.3451
G1 X-1.8112 Y37.9208
G1 X-0.9375 Y38.2827
G1 X0.0 Y38.4061
G1 X0.9375 Y38.2827
G1 X1.8112 Y37.9208
G1 X2.5614 Y37.3451
G1 X3.1371 Y36.5949
G1 X3.499 Y35.7212
G1 X3.6224 Y34.7837
G1 X3.499 Y33.8462
G1 X3.1371 Y32.9725
G1 X2.883 Y32.6414
G1 F200.0 X3.889 Y31.8695
G1 F800.0 X3.4658 Y31.3179
G1 X2.4507 Y30.539
G1 X1.2686 Y30.0494
G1 X0.0 Y29.8824
G1 X-1.2686 Y30.0494
G1 X-2.4507 Y30.539
G1 X-3.4658 Y31.3179
G1 X-4.2447 Y32.333
G1 X-4.7343 Y33.5151
G1 X-4.9013 Y34.7837
G1 X-4.7343 Y36.0523
G1 X-4.2447 Y37.2344
G1 X-3.4658 Y38.2495
G1 X-2.4507 Y39.0284
G1 X-1.2686 Y39.518
G1 X0.0 Y39.685
G1 X1.2686 Y39.518
G1 X2.4507 Y39.0284
G1 X3.4658 Y38.2495
G1 X4.2447 Y37.2344
G1 X4.7343 Y36.0523
G1 X4.9013 Y34.7837
G1 X4.7343 Y33.5151
G1 X4.2447 Y32.333
G1 X3.889 Y31.8695
G0 Z3.0
G0 X0.3681 Y34.5712
G0 Z0.6
G1 F200.0 Z-0.8
G1 F800.0 X0.3005 Y34.4832
G1 X0.2125 Y34.4156
G1 X0.11 Y34.3732
G1 X0.0 Y34.3587
G1 X-0.11 Y34.3732
G1 X-0.2125 Y34.4156
G1 X-0.3005 Y34.4832
G1 X-0.3681 Y34.5712
G1 X-0.4105 Y34.6737
G1 X-0.425 Y34.7837
G1 X-0.4105 Y34.8937
G1 X-0.3681 Y34.9962
G1 X-0.3005 Y35.0842
G1 X-0.2125 Y35.1518
G1 X-0.11 Y35.1942
G1 X0.0 Y35.2087
G1 X0.11 Y35.1942
G1 X0.2125 Y35.1518
G1 X0.3005 Y35.0842
G1 X0.3681 Y34.9962
G1 X0.4105 Y34.8937
G1 X0.425 Y34.7837
G1 X0.4105 Y34.6737
G1 X0.3681 Y34.5712
G1 F200.0 X0.8711 Y34.1852
G1 F800.0 X0.7527 Y34.031
G1 X0.5322 Y33.8618
G1 X0.2755 Y33.7555
G1 X0.0 Y33.7192
G1 X-0.2755 Y33.7555
G1 X-0.5322 Y33.8618
G1 X-0.7527 Y34.031
G1 X-0.9219 Y34.2515
G1 X-1.0282 Y34.5082
G1 X-1.0645 Y34.7837
G1 X-1.0282 Y35.0592
G1 X-0.9219 Y35.316
G1 X-0.7527 Y35.5364
G1 X-0.5322 Y35.7056
G1 X-0.2755 Y35.8119
G1 X0.0 Y35.8482
G1 X0.2755 Y35.8119
G1 X0.5322 Y35.7056
G1 X0.7527 Y35.5364
G1 X0.9219 Y35.316
G1 X1.0282 Y35.0592
G1 X1.0645 Y34.7837
G1 X1.0282 Y34.5082
G1 X0.9219 Y34.2515
G1 X0.8711 Y34.1852
G1 F200.0 X1.877 Y33.4133
G1 F800.0 X1.6571 Y33.1266
G1 X1.1717 Y32.7542
G1 X0.6065 Y32.5201
G1 X0.0 Y32.4403
G1 X-0.6065 Y32.5201
G1 X-1.1717 Y32.7542
G1 X-1.6571 Y33.1266
G1 X-2.0295 Y33.612
G1 X-2.2636 Y34.1772
G1 X-2.3434 Y34.7837
G1 X-2.2636 Y35.3902
G1 X-2.0295 Y35.9554
G1 X-1.6571 Y36.4408
G1 X-1.1717 Y36.8132
G1 X-0.6065 Y37.0473
G1 X0.0 Y37.1271
G1 X0.6065 Y37.0473
G1 X1.1717 Y36.8132
G1 X1.6571 Y36.4408
G1 X2.0295 Y35.9554
G1 X2.2636 Y35.3902
G1 X2.3434 Y34.7837
G1 X2.2636 Y34.1772
G1 X2.0295 Y33.612
G1 X1.877 Y33.4133
G1 F200.0 X2.883 Y32.6414
G1 F800.0 X2.5614 Y32.2223
G1 X1.8112 Y31.6466
G1 X0.9375 Y31.2848
G1 X0.0 Y31.1613
G1 X-0.9375 Y31.2848
G1 X-1.8112 Y31.6466
G1 X-2.5614 Y32.2223
G1 X-3.1371 Y32.9725
G1 X-3.499 Y33.8462
G1 X-3.6224 Y34.7837
G1 X-3.499 Y35.7212
G1 X-3.1371 Y36.5949
G1 X-2.5614 Y37.3451
G1 X-1.8112 Y37.9208
G1 X-0.9375 Y38.2827
G1 X0.0 Y38.4061
G1 X0.9375 Y38.2827
G1 X1.8112 Y37.9208
G1 X2.5614 Y37.3451
G1 X3.1371 Y36.5949
G1 X3.499 Y35.7212
G1 X3.6224 Y34.7837
G1 X3.499 Y33.8462
G1 X3.1371 Y32.9725
G1 X2.883 Y32.6414
G1 F200.0 X3.889 Y31.8695
G1 F800.0 X3.4658 Y31.3179
G1 X2.4507 Y30.539
G1 X1.2686 Y30.0494
G1 X0.0 Y29.8824
G1 X-1.2686 Y30.0494
G1 X-2.4507 Y30.539
G1 X-3.4658 Y31.3179
G1 X-4.2447 Y32.333
G1 X-4.7343 Y33.5151
G1 X-4.9013 Y34.7837
G1 X-4.7343 Y36.0523
G1 X-4.2447 Y37.2344
G1 X-3.4658 Y38.2495
G1 X-2.4507 Y39.0284
G1 X-1.2686 Y39.518
G1 X0.0 Y39.685
G1 X1.2686 Y39.518
G1 X2.4507 Y39.0284
G1 X3.4658 Y38.2495
G1 X4.2447 Y37.2344
G1 X4.7343 Y36.0523
G1 X4.9013 Y34.7837
G1 X4.7343 Y33.5151
G1 X4.2447 Y32.333
G1 X3.889 Y31.8695
G0 Z3.0
G0 X0.3681 Y34.5712
G0 Z0.2
G1 F200.0 Z-1.2
G1 F800.0 X0.3005 Y34.4832
G1 X0.2125 Y34.4156
G1 X0.11 Y34.3732
G1 X0.0 Y34.3587
G1 X-0.11 Y34.3732
G1 X-0.2125 Y34.4156
G1 X-0.3005 Y34.4832
G1 X-0.3681 Y34.5712
G1 X-0.4105 Y34.6737
G1 X-0.425 Y34.7837
G1 X-0.4105 Y34.8937
G1 X-0.3681 Y34.9962
G1 X-0.3005 Y35.0842
G1 X-0.2125 Y35.1518
G1 X-0.11 Y35.1942
G1 X0.0 Y35.2087
G1 X0.11 Y35.1942
G1 X0.2125 Y35.1518
G1 X0.3005 Y35.0842
G1 X0.3681 Y34.9962
G1 X0.4105 Y34.8937
G1 X0.425 Y34.7837
G1 X0.4105 Y34.6737
G1 X0.3681 Y34.5712
G1 F200.0 X0.8711 Y34.1852
G1 F800.0 X0.7527 Y34.031
G1 X0.5322 Y33.8618
G1 X0.2755 Y33.7555
G1 X0.0 Y33.7192
G1 X-0.2755 Y33.7555
G1 X-0.5322 Y33.8618
G1 X-0.7527 Y34.031
G1 X-0.9219 Y34.2515
G1 X-1.0282 Y34.5082
G1 X-1.0645 Y34.7837
G1 X-1.0282 Y35.0592
G1 X-0.9219 Y35.316
G1 X-0.7527 Y35.5364
G1 X-0.5322 Y35.7056
G1 X-0.2755 Y35.8119
G1 X0.0 Y35.8482
G1 X0.2755 Y35.8119
G1 X0.5322 Y35.7056
G1 X0.7527 Y35.5364
G1 X0.9219 Y35.316
G1 X1.0282 Y35.0592
G1 X1.0645 Y34.7837
G1 X1.0282 Y34.5082
G1 X0.9219 Y34.2515
G1 X0.8711 Y34.1852
G1 F200.0 X1.877 Y33.4133
G1 F800.0 X1.6571 Y33.1266
G1 X1.1717 Y32.7542
G1 X0.6065 Y32.5201
G1 X0.0 Y32.4403
G1 X-0.6065 Y32.5201
G1 X-1.1717 Y32.7542
G1 X-1.6571 Y33.1266
G1 X-2.0295 Y33.612
G1 X-2.2636 Y34.1772
G1 X-2.3434 Y34.7837
G1 X-2.2636 Y35.3902
G1 X-2.0295 Y35.9554
G1 X-1.6571 Y36.4408
G1 X-1.1717 Y36.8132
G1 X-0.6065 Y37.0473
G1 X0.0 Y37.1271
G1 X0.6065 Y37.0473
G1 X1.1717 Y36.8132
G1 X1.6571 Y36.4408
G1 X2.0295 Y35.9554
G1 X2.2636 Y35.3902
G1 X2.3434 Y34.7837
G1 X2.2636 Y34.1772
G1 X2.0295 Y33.612
G1 X1.877 Y33.4133
G1 F200.0 X2.883 Y32.6414
G1 F800.0 X2.5614 Y32.2223
G1 X1.8112 Y31.6466
G1 X0.9375 Y31.2848
G1 X0.0 Y31.1613
G1 X-0.9375 Y31.2848
G1 X-1.8112 Y31.6466
G1 X-2.5614 Y32.2223
G1 X-3.1371 Y32.9725
G1 X-3.499 Y33.8462
G1 X-3.6224 Y34.7837
G1 X-3.499 Y35.7212
G1 X-3.1371 Y36.5949
G1 X-2.5614 Y37.3451
G1 X-1.8112 Y37.9208
G1 X-0.9375 Y38.2827
G1 X0.0 Y38.4061
G1 X0.9375 Y38.2827
G1 X1.8112 Y37.9208
G1 X2.5614 Y37.3451
G1 X3.1371 Y36.5949
G1 X3.499 Y35.7212
G1 X3.6224 Y34.7837
G1 X3.499 Y33.8462
G1 X3.1371 Y32.9725
G1 X2.883 Y32.6414
G1 F200.0 X3.889 Y31.8695
G1 F800.0 X3.4658 Y31.3179
G1 X2.4507 Y30.539
G1 X1.2686 Y30.0494
G1 X0.0 Y29.8824
G1 X-1.2686 Y30.0494
G1 X-2.4507 Y30.539
G1 X-3.4658 Y31.3179
G1 X-4.2447 Y32.333
G1 X-4.7343 Y33.5151
G1 X-4.9013 Y34.7837
G1 X-4.7343 Y36.0523
G1 X-4.2447 Y37.2344
G1 X-3.4658 Y38.2495
G1 X-2.4507 Y39.0284
G1 X-1.2686 Y39.518
G1 X0.0 Y39.685
G1 X1.2686 Y39.518
G1 X2.4507 Y39.0284
G1 X3.4658 Y38.2495
G1 X4.2447 Y37.2344
G1 X4.7343 Y36.0523
G1 X4.9013 Y34.7837
G1 X4.7343 Y33.5151
G1 X4.2447 Y32.333
G1 X3.889 Y31.8695
G0 Z3.0
G0 X0.3681 Y34.5712
G0 Z-0.2
G1 F200.0 Z-1.6
G1 F800.0 X0.3005 Y34.4832
G1 X0.2125 Y34.4156
G1 X0.11 Y34.3732
G1 X0.0 Y34.3587
G1 X-0.11 Y34.3732
G1 X-0.2125 Y34.4156
G1 X-0.3005 Y34.4832
G1 X-0.3681 Y34.5712
G1 X-0.4105 Y34.6737
G1 X-0.425 Y34.7837
G1 X-0.4105 Y34.8937
G1 X-0.3681 Y34.9962
G1 X-0.3005 Y35.0842
G1 X-0.2125 Y35.1518
G1 X-0.11 Y35.1942
G1 X0.0 Y35.2087
G1 X0.11 Y35.1942
G1 X0.2125 Y35.1518
G1 X0.3005 Y35.0842
G1 X0.3681 Y34.9962
G1 X0.4105 Y34.8937
G1 X0.425 Y34.7837
