( PCB Contour )
( Generated by Rapid-PCB.com )
( Material Size)
( X= 160.000, Y= 100.000, Z= 1.580)
()
G00
G17
G21
G40
G49
G54
G80
G90
G94
G00 F3000 Z3.000
M03 S9000
G00 F3000 X-23.278 Y-9.098
G00 F1500 Z0
G01 F600 Z-0.200
G01 F600 X-23.703 Y-9.189
G01 F600 X-24.100 Y-9.366
G01 F600 X-24.452 Y-9.621
G01 F600 X-24.743 Y-9.944
G01 F600 X-24.960 Y-10.320
G01 F600 X-25.094 Y-10.734
G01 F600 X-25.140 Y-11.166
G01 F600 X-25.094 Y-11.598
G01 F600 X-24.960 Y-12.012
G01 F600 X-24.743 Y-12.388
G01 F600 X-24.461 Y-12.701
G01 F600 X-23.234 Y-13.927
G01 F600 X-23.234 Y-20.065
G01 F600 X-23.203 Y-20.356
G01 F600 X-23.110 Y-20.643
G01 F600 X-22.959 Y-20.905
G01 F600 X-22.757 Y-21.129
G01 F600 X-22.513 Y-21.306
G01 F600 X-22.237 Y-21.429
G01 F600 X-21.942 Y-21.492
G01 F600 X-17.830 Y-21.492
G01 F600 X-17.535 Y-21.429
G01 F600 X-17.259 Y-21.306
G01 F600 X-17.015 Y-21.129
G01 F600 X-16.813 Y-20.905
G01 F600 X-16.662 Y-20.643
G01 F600 X-16.568 Y-20.356
G01 F600 X-16.537 Y-20.056
G01 F600 X-16.568 Y-19.756
G01 F600 X-16.662 Y-19.469
G01 F600 X-16.813 Y-19.207
G01 F600 X-17.015 Y-18.983
G01 F600 X-17.259 Y-18.806
G01 F600 X-17.535 Y-18.683
G01 F600 X-17.830 Y-18.620
G01 F600 X-20.348 Y-18.620
G01 F600 X-20.343 Y-13.918
G01 F600 X-20.109 Y-13.658
G01 F600 X-19.892 Y-13.282
G01 F600 X-19.757 Y-12.868
G01 F600 X-19.712 Y-12.436
G01 F600 X-19.757 Y-12.004
G01 F600 X-19.892 Y-11.590
G01 F600 X-20.109 Y-11.214
G01 F600 X-20.391 Y-10.901
G01 F600 X-21.673 Y-9.618
G01 F600 X-22.021 Y-9.366
G01 F600 X-22.418 Y-9.189
G01 F600 X-22.844 Y-9.098
G01 F600 X-23.278 Y-9.098
G00 F3000 Z3.000
G00 F3000 X-28.358 Y-9.098
G00 F1500 Z0
G01 F600 Z-0.200
G01 F600 X-28.783 Y-9.189
G01 F600 X-29.180 Y-9.366
G01 F600 X-29.528 Y-9.618
G01 F600 X-30.811 Y-10.901
G01 F600 X-31.093 Y-11.214
G01 F600 X-31.310 Y-11.590
G01 F600 X-31.444 Y-12.004
G01 F600 X-31.490 Y-12.436
G01 F600 X-31.444 Y-12.868
G01 F600 X-31.310 Y-13.282
G01 F600 X-31.093 Y-13.658
G01 F600 X-30.854 Y-13.922
G01 F600 X-30.854 Y-18.620
G01 F600 X-33.372 Y-18.620
G01 F600 X-33.667 Y-18.683
G01 F600 X-33.943 Y-18.806
G01 F600 X-34.183 Y-18.980
G01 F600 X-38.006 Y-22.803
G01 F600 X-38.199 Y-23.017
G01 F600 X-38.350 Y-23.279
G01 F600 X-38.443 Y-23.566
G01 F600 X-38.474 Y-23.857
G01 F600 X-38.474 Y-33.431
G01 F600 X-40.546 Y-35.503
G01 F600 X-40.739 Y-35.717
G01 F600 X-40.890 Y-35.979
G01 F600 X-40.983 Y-36.266
G01 F600 X-41.014 Y-36.557
G01 F600 X-41.014 Y-40.385
G01 F600 X-40.983 Y-40.676
G01 F600 X-40.890 Y-40.963
G01 F600 X-40.739 Y-41.225
G01 F600 X-40.709 Y-41.258
G01 F600 X-40.709 Y-44.195
G01 F600 X-40.685 Y-44.423
G01 F600 X-40.611 Y-44.649
G01 F600 X-40.492 Y-44.856
G01 F600 X-40.342 Y-45.022
G01 F600 X-38.169 Y-47.196
G01 F600 X-38.169 Y-53.085
G01 F600 X-38.145 Y-53.313
G01 F600 X-38.072 Y-53.539
G01 F600 X-37.952 Y-53.746
G01 F600 X-37.802 Y-53.913
G01 F600 X-31.634 Y-60.081
G01 F600 X-31.722 Y-60.233
G01 F600 X-31.795 Y-60.459
G01 F600 X-31.819 Y-60.687
G01 F600 X-31.819 Y-68.453
G01 F600 X-37.826 Y-68.453
G01 F600 X-40.717 Y-65.562
G01 F600 X-40.906 Y-65.425
G01 F600 X-41.124 Y-65.328
G01 F600 X-41.357 Y-65.278
G01 F600 X-41.595 Y-65.278
G01 F600 X-41.828 Y-65.328
G01 F600 X-42.045 Y-65.425
G01 F600 X-42.234 Y-65.562
G01 F600 X-46.396 Y-69.723
G01 F600 X-51.120 Y-69.723
G01 F600 X-51.353 Y-69.773
G01 F600 X-51.570 Y-69.870
G01 F600 X-51.763 Y-70.009
G01 F600 X-51.922 Y-70.186
G01 F600 X-52.041 Y-70.393
G01 F600 X-52.115 Y-70.619
G01 F600 X-52.140 Y-70.856
G01 F600 X-52.115 Y-71.093
G01 F600 X-52.041 Y-71.319
G01 F600 X-51.922 Y-71.526
G01 F600 X-51.763 Y-71.703
G01 F600 X-51.570 Y-71.843
G01 F600 X-51.353 Y-71.939
G01 F600 X-51.120 Y-71.989
G01 F600 X-45.802 Y-71.989
G01 F600 X-45.569 Y-71.939
G01 F600 X-45.351 Y-71.843
G01 F600 X-45.162 Y-71.705
G01 F600 X-41.476 Y-68.019
G01 F600 X-40.492 Y-69.003
G01 F600 X-40.610 Y-69.056
G01 F600 X-40.962 Y-69.311
G01 F600 X-41.253 Y-69.634
G01 F600 X-41.470 Y-70.010
G01 F600 X-41.604 Y-70.424
G01 F600 X-41.649 Y-70.847
G01 F600 X-41.649 Y-73.405
G01 F600 X-41.604 Y-73.828
G01 F600 X-41.470 Y-74.242
G01 F600 X-41.253 Y-74.618
G01 F600 X-40.962 Y-74.941
G01 F600 X-40.610 Y-75.196
G01 F600 X-40.213 Y-75.373
G01 F600 X-39.788 Y-75.464
G01 F600 X-39.354 Y-75.464
G01 F600 X-38.928 Y-75.373
G01 F600 X-38.531 Y-75.196
G01 F600 X-38.180 Y-74.941
G01 F600 X-37.889 Y-74.618
G01 F600 X-37.672 Y-74.242
G01 F600 X-37.537 Y-73.828
G01 F600 X-37.493 Y-73.405
G01 F600 X-37.493 Y-70.847
G01 F600 X-37.506 Y-70.719
G01 F600 X-26.752 Y-70.719
G01 F600 X-26.519 Y-70.669
G01 F600 X-26.301 Y-70.573
G01 F600 X-26.109 Y-70.433
G01 F600 X-25.949 Y-70.256
G01 F600 X-25.830 Y-70.049
G01 F600 X-25.757 Y-69.823
G01 F600 X-25.732 Y-69.586
G01 F600 X-25.757 Y-69.349
G01 F600 X-25.830 Y-69.123
G01 F600 X-25.949 Y-68.916
G01 F600 X-26.109 Y-68.739
G01 F600 X-26.301 Y-68.600
G01 F600 X-26.519 Y-68.503
G01 F600 X-26.752 Y-68.453
G01 F600 X-29.543 Y-68.453
G01 F600 X-29.543 Y-61.169
G01 F600 X-29.259 Y-60.902
G01 F600 X-29.153 Y-60.880
G01 F600 X-28.994 Y-60.809
G01 F600 X-28.853 Y-60.706
G01 F600 X-28.736 Y-60.577
G01 F600 X-28.649 Y-60.426
G01 F600 X-28.595 Y-60.260
G01 F600 X-28.589 Y-60.207
G01 F600 X-28.489 Y-60.096
G01 F600 X-28.370 Y-59.889
G01 F600 X-28.297 Y-59.663
G01 F600 X-28.272 Y-59.426
G01 F600 X-28.297 Y-59.189
G01 F600 X-28.370 Y-58.963
G01 F600 X-28.489 Y-58.756
G01 F600 X-28.589 Y-58.646
G01 F600 X-28.595 Y-58.592
G01 F600 X-28.649 Y-58.426
G01 F600 X-28.736 Y-58.275
G01 F600 X-28.853 Y-58.146
G01 F600 X-28.994 Y-58.043
G01 F600 X-29.153 Y-57.972
G01 F600 X-29.324 Y-57.936
G01 F600 X-29.498 Y-57.936
G01 F600 X-29.669 Y-57.972
G01 F600 X-29.828 Y-58.043
G01 F600 X-29.969 Y-58.146
G01 F600 X-30.086 Y-58.275
G01 F600 X-30.136 Y-58.363
G01 F600 X-35.893 Y-52.607
G01 F600 X-35.893 Y-46.717
G01 F600 X-35.916 Y-46.489
G01 F600 X-35.990 Y-46.263
G01 F600 X-36.109 Y-46.056
G01 F600 X-36.259 Y-45.890
G01 F600 X-38.433 Y-43.717
G01 F600 X-38.433 Y-41.258
G01 F600 X-38.403 Y-41.225
G01 F600 X-38.252 Y-40.963
G01 F600 X-38.158 Y-40.676
G01 F600 X-38.128 Y-40.385
G01 F600 X-38.128 Y-37.161
G01 F600 X-36.056 Y-35.089
G01 F600 X-35.863 Y-34.875
G01 F600 X-35.712 Y-34.613
G01 F600 X-35.618 Y-34.326
G01 F600 X-35.588 Y-34.035
G01 F600 X-35.588 Y-24.461
G01 F600 X-32.619 Y-21.492
G01 F600 X-29.260 Y-21.492
G01 F600 X-28.965 Y-21.429
G01 F600 X-28.689 Y-21.306
G01 F600 X-28.445 Y-21.129
G01 F600 X-28.243 Y-20.905
G01 F600 X-28.092 Y-20.643
G01 F600 X-27.998 Y-20.356
G01 F600 X-27.968 Y-20.065
G01 F600 X-27.963 Y-13.923
G01 F600 X-26.741 Y-12.701
G01 F600 X-26.459 Y-12.388
G01 F600 X-26.242 Y-12.012
G01 F600 X-26.107 Y-11.598
G01 F600 X-26.062 Y-11.166
G01 F600 X-26.107 Y-10.734
G01 F600 X-26.242 Y-10.320
G01 F600 X-26.459 Y-9.944
G01 F600 X-26.750 Y-9.621
G01 F600 X-27.101 Y-9.366
G01 F600 X-27.498 Y-9.189
G01 F600 X-27.924 Y-9.098
G01 F600 X-28.358 Y-9.098
G00 F3000 Z3.000
G00 F3000 X-60.997 Y-13.530
G00 F1500 Z0
G01 F600 Z-0.200
G01 F600 X-61.074 Y-13.546
G01 F600 X-61.146 Y-13.579
G01 F600 X-61.210 Y-13.625
G01 F600 X-61.263 Y-13.684
G01 F600 X-61.302 Y-13.752
G01 F600 X-61.327 Y-13.827
G01 F600 X-61.334 Y-13.896
G01 F600 X-61.334 Y-18.592
G01 F600 X-61.327 Y-18.661
G01 F600 X-61.302 Y-18.736
G01 F600 X-61.263 Y-18.805
G01 F600 X-61.210 Y-18.863
G01 F600 X-61.146 Y-18.909
G01 F600 X-61.074 Y-18.942
G01 F600 X-60.997 Y-18.958
G01 F600 X-58.579 Y-18.958
G01 F600 X-58.502 Y-18.942
G01 F600 X-58.430 Y-18.909
G01 F600 X-58.370 Y-18.866
G01 F600 X-57.578 Y-18.073
G01 F600 X-57.534 Y-18.025
G01 F600 X-57.495 Y-17.957
G01 F600 X-57.470 Y-17.882
G01 F600 X-57.463 Y-17.812
G01 F600 X-57.463 Y-14.676
G01 F600 X-57.470 Y-14.607
G01 F600 X-57.495 Y-14.532
G01 F600 X-57.534 Y-14.463
G01 F600 X-57.578 Y-14.415
G01 F600 X-58.370 Y-13.622
G01 F600 X-58.430 Y-13.579
G01 F600 X-58.502 Y-13.546
G01 F600 X-58.579 Y-13.530
G01 F600 X-60.997 Y-13.530
G00 F3000 Z3.000
G00 F3000 X-60.581 Y-14.280
G00 F1500 Z0
G01 F600 Z-0.200
G01 F600 X-58.775 Y-14.280
G01 F600 X-58.215 Y-14.840
G01 F600 X-58.215 Y-17.648
G01 F600 X-58.775 Y-18.208
G01 F600 X-60.581 Y-18.208
G01 F600 X-60.581 Y-14.280
G00 F3000 Z3.000
G00 F3000 X-41.507 Y-15.089
G00 F1500 Z0
G01 F600 Z-0.200
G01 F600 X-41.584 Y-15.106
G01 F600 X-41.656 Y-15.138
G01 F600 X-41.716 Y-15.182
G01 F600 X-42.509 Y-15.974
G01 F600 X-42.552 Y-16.022
G01 F600 X-42.592 Y-16.091
G01 F600 X-42.616 Y-16.166
G01 F600 X-42.623 Y-16.235
G01 F600 X-42.623 Y-17.812
G01 F600 X-42.616 Y-17.882
G01 F600 X-42.592 Y-17.957
G01 F600 X-42.552 Y-18.025
G01 F600 X-42.509 Y-18.073
G01 F600 X-41.716 Y-18.866
G01 F600 X-41.656 Y-18.909
G01 F600 X-41.584 Y-18.942
G01 F600 X-41.507 Y-18.958
G01 F600 X-39.869 Y-18.958
G01 F600 X-39.792 Y-18.942
G01 F600 X-39.720 Y-18.909
G01 F600 X-39.656 Y-18.863
G01 F600 X-39.603 Y-18.805
G01 F600 X-39.564 Y-18.736
G01 F600 X-39.540 Y-18.661
G01 F600 X-39.531 Y-18.583
G01 F600 X-39.540 Y-18.504
G01 F600 X-39.564 Y-18.429
G01 F600 X-39.603 Y-18.361
G01 F600 X-39.656 Y-18.303
G01 F600 X-39.720 Y-18.256
G01 F600 X-39.792 Y-18.224
G01 F600 X-39.869 Y-18.208
G01 F600 X-41.311 Y-18.208
G01 F600 X-41.871 Y-17.648
G01 F600 X-41.871 Y-17.399
G01 F600 X-39.089 Y-17.399
G01 F600 X-39.012 Y-17.382
G01 F600 X-38.940 Y-17.350
G01 F600 X-38.877 Y-17.304
G01 F600 X-38.824 Y-17.245
G01 F600 X-38.784 Y-17.177
G01 F600 X-38.760 Y-17.102
G01 F600 X-38.753 Y-17.033
G01 F600 X-38.753 Y-16.235
G01 F600 X-38.760 Y-16.166
G01 F600 X-38.784 Y-16.091
G01 F600 X-38.824 Y-16.022
G01 F600 X-38.867 Y-15.974
G01 F600 X-39.660 Y-15.182
G01 F600 X-39.720 Y-15.138
G01 F600 X-39.792 Y-15.106
G01 F600 X-39.869 Y-15.089
G01 F600 X-41.507 Y-15.089
G00 F3000 Z3.000
G00 F3000 X-46.185 Y-15.089
G00 F1500 Z0
G01 F600 Z-0.200
G01 F600 X-46.262 Y-15.106
G01 F600 X-46.334 Y-15.138
G01 F600 X-46.394 Y-15.182
G01 F600 X-47.186 Y-15.974
G01 F600 X-47.230 Y-16.022
G01 F600 X-47.269 Y-16.091
G01 F600 X-47.294 Y-16.166
G01 F600 X-47.301 Y-16.235
G01 F600 X-47.301 Y-17.812
G01 F600 X-47.294 Y-17.882
G01 F600 X-47.269 Y-17.957
G01 F600 X-47.230 Y-18.025
G01 F600 X-47.186 Y-18.073
G01 F600 X-46.394 Y-18.866
G01 F600 X-46.334 Y-18.909
G01 F600 X-46.262 Y-18.942
G01 F600 X-46.185 Y-18.958
G01 F600 X-44.183 Y-18.958
G01 F600 X-44.183 Y-19.207
G01 F600 X-44.743 Y-19.767
G01 F600 X-45.405 Y-19.767
G01 F600 X-45.482 Y-19.783
G01 F600 X-45.554 Y-19.816
G01 F600 X-45.618 Y-19.862
G01 F600 X-45.671 Y-19.920
G01 F600 X-45.710 Y-19.989
G01 F600 X-45.735 Y-20.064
G01 F600 X-45.743 Y-20.142
G01 F600 X-45.735 Y-20.221
G01 F600 X-45.710 Y-20.296
G01 F600 X-45.671 Y-20.364
G01 F600 X-45.618 Y-20.422
G01 F600 X-45.554 Y-20.469
G01 F600 X-45.482 Y-20.501
G01 F600 X-45.405 Y-20.517
G01 F600 X-44.547 Y-20.517
G01 F600 X-44.470 Y-20.501
G01 F600 X-44.398 Y-20.469
G01 F600 X-44.337 Y-20.425
G01 F600 X-43.545 Y-19.632
G01 F600 X-43.501 Y-19.584
G01 F600 X-43.462 Y-19.516
G01 F600 X-43.438 Y-19.441
G01 F600 X-43.430 Y-19.371
G01 F600 X-43.430 Y-15.455
G01 F600 X-43.438 Y-15.386
G01 F600 X-43.462 Y-15.311
G01 F600 X-43.501 Y-15.243
G01 F600 X-43.554 Y-15.184
G01 F600 X-43.618 Y-15.138
G01 F600 X-43.690 Y-15.106
G01 F600 X-43.767 Y-15.089
G01 F600 X-46.185 Y-15.089
G00 F3000 Z3.000
G00 F3000 X-55.540 Y-15.089
G00 F1500 Z0
G01 F600 Z-0.200
G01 F600 X-55.617 Y-15.106
G01 F600 X-55.689 Y-15.138
G01 F600 X-55.753 Y-15.184
G01 F600 X-55.806 Y-15.243
G01 F600 X-55.845 Y-15.311
G01 F600 X-55.869 Y-15.386
G01 F600 X-55.878 Y-15.464
G01 F600 X-55.869 Y-15.543
G01 F600 X-55.845 Y-15.618
G01 F600 X-55.806 Y-15.686
G01 F600 X-55.753 Y-15.745
G01 F600 X-55.689 Y-15.791
G01 F600 X-55.617 Y-15.823
G01 F600 X-55.540 Y-15.840
G01 F600 X-54.098 Y-15.840
G01 F600 X-53.538 Y-16.399
G01 F600 X-53.538 Y-16.648
G01 F600 X-55.540 Y-16.648
G01 F600 X-55.617 Y-16.665
G01 F600 X-55.689 Y-16.697
G01 F600 X-55.749 Y-16.741
G01 F600 X-56.541 Y-17.533
G01 F600 X-56.585 Y-17.582
G01 F600 X-56.625 Y-17.650
G01 F600 X-56.649 Y-17.725
G01 F600 X-56.657 Y-17.803
G01 F600 X-56.649 Y-17.882
G01 F600 X-56.625 Y-17.957
G01 F600 X-56.585 Y-18.025
G01 F600 X-56.541 Y-18.073
G01 F600 X-55.749 Y-18.866
G01 F600 X-55.689 Y-18.909
G01 F600 X-55.617 Y-18.942
G01 F600 X-55.540 Y-18.958
G01 F600 X-53.122 Y-18.958
G01 F600 X-53.045 Y-18.942
G01 F600 X-52.973 Y-18.909
G01 F600 X-52.909 Y-18.863
G01 F600 X-52.857 Y-18.805
G01 F600 X-52.817 Y-18.736
G01 F600 X-52.793 Y-18.661
G01 F600 X-52.785 Y-18.592
G01 F600 X-52.785 Y-16.235
G01 F600 X-52.793 Y-16.166
G01 F600 X-52.817 Y-16.091
G01 F600 X-52.857 Y-16.022
G01 F600 X-52.900 Y-15.974
G01 F600 X-53.692 Y-15.182
G01 F600 X-53.753 Y-15.138
G01 F600 X-53.825 Y-15.106
G01 F600 X-53.902 Y-15.089
G01 F600 X-55.540 Y-15.089
G00 F3000 Z3.000
G00 F3000 X-51.642 Y-15.089
G00 F1500 Z0
G01 F600 Z-0.200
G01 F600 X-51.719 Y-15.106
G01 F600 X-51.791 Y-15.138
G01 F600 X-51.855 Y-15.184
G01 F600 X-51.908 Y-15.243
G01 F600 X-51.947 Y-15.311
G01 F600 X-51.971 Y-15.386
G01 F600 X-51.979 Y-15.455
G01 F600 X-51.979 Y-18.592
G01 F600 X-51.971 Y-18.661
G01 F600 X-51.947 Y-18.736
G01 F600 X-51.908 Y-18.805
G01 F600 X-51.855 Y-18.863
G01 F600 X-51.791 Y-18.909
G01 F600 X-51.719 Y-18.942
G01 F600 X-51.642 Y-18.958
G01 F600 X-51.563 Y-18.958
G01 F600 X-51.486 Y-18.942
G01 F600 X-51.414 Y-18.909
G01 F600 X-51.350 Y-18.863
G01 F600 X-51.297 Y-18.805
G01 F600 X-51.258 Y-18.736
G01 F600 X-51.234 Y-18.661
G01 F600 X-51.226 Y-18.592
G01 F600 X-51.226 Y-15.840
G01 F600 X-49.420 Y-15.840
G01 F600 X-48.860 Y-16.399
G01 F600 X-48.860 Y-18.592
G01 F600 X-48.853 Y-18.661
G01 F600 X-48.829 Y-18.736
G01 F600 X-48.789 Y-18.805
G01 F600 X-48.736 Y-18.863
G01 F600 X-48.672 Y-18.909
G01 F600 X-48.601 Y-18.942
G01 F600 X-48.523 Y-18.958
G01 F600 X-48.445 Y-18.958
G01 F600 X-48.367 Y-18.942
G01 F600 X-48.295 Y-18.909
G01 F600 X-48.232 Y-18.863
G01 F600 X-48.179 Y-18.805
G01 F600 X-48.139 Y-18.736
G01 F600 X-48.115 Y-18.661
G01 F600 X-48.108 Y-18.592
G01 F600 X-48.108 Y-16.235
G01 F600 X-48.115 Y-16.166
G01 F600 X-48.139 Y-16.091
G01 F600 X-48.179 Y-16.022
G01 F600 X-48.222 Y-15.974
G01 F600 X-49.015 Y-15.182
G01 F600 X-49.075 Y-15.138
G01 F600 X-49.147 Y-15.106
G01 F600 X-49.224 Y-15.089
G01 F600 X-51.642 Y-15.089
G00 F3000 Z3.000
G00 F3000 X-37.609 Y-15.089
G00 F1500 Z0
G01 F600 Z-0.200
G01 F600 X-37.686 Y-15.106
G01 F600 X-37.758 Y-15.138
G01 F600 X-37.822 Y-15.184
G01 F600 X-37.875 Y-15.243
G01 F600 X-37.914 Y-15.311
G01 F600 X-37.938 Y-15.386
G01 F600 X-37.946 Y-15.455
G01 F600 X-37.946 Y-18.592
G01 F600 X-37.938 Y-18.661
G01 F600 X-37.914 Y-18.736
G01 F600 X-37.875 Y-18.805
G01 F600 X-37.822 Y-18.863
G01 F600 X-37.758 Y-18.909
G01 F600 X-37.686 Y-18.942
G01 F600 X-37.609 Y-18.958
G01 F600 X-37.530 Y-18.958
G01 F600 X-37.453 Y-18.942
G01 F600 X-37.381 Y-18.909
G01 F600 X-37.317 Y-18.863
G01 F600 X-37.264 Y-18.805
G01 F600 X-37.225 Y-18.736
G01 F600 X-37.201 Y-18.661
G01 F600 X-37.193 Y-18.592
G01 F600 X-37.193 Y-17.179
G01 F600 X-35.854 Y-15.840
G01 F600 X-35.191 Y-15.840
G01 F600 X-35.114 Y-15.823
G01 F600 X-35.042 Y-15.791
G01 F600 X-34.978 Y-15.745
G01 F600 X-34.926 Y-15.686
G01 F600 X-34.886 Y-15.618
G01 F600 X-34.862 Y-15.543
G01 F600 X-34.854 Y-15.464
G01 F600 X-34.862 Y-15.386
G01 F600 X-34.886 Y-15.311
G01 F600 X-34.926 Y-15.243
G01 F600 X-34.978 Y-15.184
G01 F600 X-35.042 Y-15.138
G01 F600 X-35.114 Y-15.106
G01 F600 X-35.191 Y-15.089
G01 F600 X-36.050 Y-15.089
G01 F600 X-36.127 Y-15.106
G01 F600 X-36.199 Y-15.138
G01 F600 X-36.259 Y-15.182
G01 F600 X-37.193 Y-16.116
G01 F600 X-37.193 Y-15.455
G01 F600 X-37.201 Y-15.386
G01 F600 X-37.225 Y-15.311
G01 F600 X-37.264 Y-15.243
G01 F600 X-37.317 Y-15.184
G01 F600 X-37.381 Y-15.138
G01 F600 X-37.453 Y-15.106
G01 F600 X-37.530 Y-15.089
G01 F600 X-37.609 Y-15.089
G00 F3000 Z3.000
G00 F3000 X-41.311 Y-15.840
G00 F1500 Z0
G01 F600 Z-0.200
G01 F600 X-40.065 Y-15.840
G01 F600 X-39.505 Y-16.399
G01 F600 X-39.505 Y-16.648
G01 F600 X-41.871 Y-16.648
G01 F600 X-41.871 Y-16.399
G01 F600 X-41.311 Y-15.840
G00 F3000 Z3.000
G00 F3000 X-45.989 Y-15.840
G00 F1500 Z0
G01 F600 Z-0.200
G01 F600 X-44.183 Y-15.840
G01 F600 X-44.183 Y-18.208
G01 F600 X-45.989 Y-18.208
G01 F600 X-46.549 Y-17.648
G01 F600 X-46.549 Y-16.399
G01 F600 X-45.989 Y-15.840
G00 F3000 Z3.000
G00 F3000 X-55.344 Y-17.399
G00 F1500 Z0
G01 F600 Z-0.200
G01 F600 X-53.538 Y-17.399
G01 F600 X-53.538 Y-18.208
G01 F600 X-55.344 Y-18.208
G01 F600 X-55.748 Y-17.803
G01 F600 X-55.344 Y-17.399
G00 F3000 Z3.000
G00 F3000 X-42.262 Y-27.510
G00 F1500 Z0
G01 F600 Z-0.200
G01 F600 X-42.557 Y-27.573
G01 F600 X-42.833 Y-27.696
G01 F600 X-43.077 Y-27.873
G01 F600 X-43.279 Y-28.097
G01 F600 X-43.430 Y-28.359
G01 F600 X-43.481 Y-28.516
G01 F600 X-43.533 Y-28.607
G01 F600 X-43.587 Y-28.773
G01 F600 X-43.606 Y-28.946
G01 F600 X-43.587 Y-29.120
G01 F600 X-43.554 Y-29.223
G01 F600 X-43.554 Y-32.479
G01 F600 X-43.587 Y-32.583
G01 F600 X-43.606 Y-32.756
G01 F600 X-43.587 Y-32.930
G01 F600 X-43.533 Y-33.095
G01 F600 X-43.481 Y-33.186
G01 F600 X-43.430 Y-33.343
G01 F600 X-43.279 Y-33.605
G01 F600 X-43.077 Y-33.829
G01 F600 X-42.833 Y-34.007
G01 F600 X-42.557 Y-34.129
G01 F600 X-42.262 Y-34.192
G01 F600 X-41.960 Y-34.192
G01 F600 X-41.665 Y-34.129
G01 F600 X-41.389 Y-34.007
G01 F600 X-41.145 Y-33.829
G01 F600 X-40.943 Y-33.605
G01 F600 X-40.792 Y-33.343
G01 F600 X-40.741 Y-33.186
G01 F600 X-40.688 Y-33.095
G01 F600 X-40.634 Y-32.930
G01 F600 X-40.616 Y-32.756
G01 F600 X-40.634 Y-32.583
G01 F600 X-40.668 Y-32.479
G01 F600 X-40.668 Y-29.223
G01 F600 X-40.634 Y-29.120
G01 F600 X-40.616 Y-28.946
G01 F600 X-40.634 Y-28.773
G01 F600 X-40.688 Y-28.607
G01 F600 X-40.741 Y-28.516
G01 F600 X-40.792 Y-28.359
G01 F600 X-40.943 Y-28.097
G01 F600 X-41.145 Y-27.873
G01 F600 X-41.389 Y-27.696
G01 F600 X-41.665 Y-27.573
G01 F600 X-41.960 Y-27.510
G01 F600 X-42.262 Y-27.510
G00 F3000 Z3.000
G00 F3000 X-32.102 Y-27.510
G00 F1500 Z0
G01 F600 Z-0.200
G01 F600 X-32.397 Y-27.573
G01 F600 X-32.673 Y-27.696
G01 F600 X-32.917 Y-27.873
G01 F600 X-33.119 Y-28.097
G01 F600 X-33.270 Y-28.359
G01 F600 X-33.321 Y-28.516
G01 F600 X-33.373 Y-28.607
G01 F600 X-33.427 Y-28.773
G01 F600 X-33.446 Y-28.946
G01 F600 X-33.427 Y-29.120
G01 F600 X-33.394 Y-29.223
G01 F600 X-33.394 Y-40.385
G01 F600 X-33.363 Y-40.676
G01 F600 X-33.270 Y-40.963
G01 F600 X-33.119 Y-41.225
G01 F600 X-32.917 Y-41.449
G01 F600 X-32.673 Y-41.627
G01 F600 X-32.397 Y-41.749
G01 F600 X-32.102 Y-41.812
G01 F600 X-31.800 Y-41.812
G01 F600 X-31.505 Y-41.749
G01 F600 X-31.229 Y-41.627
G01 F600 X-30.985 Y-41.449
G01 F600 X-30.783 Y-41.225
G01 F600 X-30.632 Y-40.963
G01 F600 X-30.538 Y-40.676
G01 F600 X-30.508 Y-40.385
G01 F600 X-30.508 Y-35.462
G01 F600 X-29.584 Y-35.462
G01 F600 X-29.584 Y-44.195
G01 F600 X-29.553 Y-44.486
G01 F600 X-29.460 Y-44.773
G01 F600 X-29.309 Y-45.035
G01 F600 X-29.107 Y-45.259
G01 F600 X-28.863 Y-45.437
G01 F600 X-28.587 Y-45.559
G01 F600 X-28.292 Y-45.622
G01 F600 X-27.990 Y-45.622
G01 F600 X-27.695 Y-45.559
G01 F600 X-27.419 Y-45.437
G01 F600 X-27.175 Y-45.259
G01 F600 X-26.973 Y-45.035
G01 F600 X-26.822 Y-44.773
G01 F600 X-26.728 Y-44.486
G01 F600 X-26.698 Y-44.195
G01 F600 X-26.698 Y-34.017
G01 F600 X-26.728 Y-33.726
G01 F600 X-26.822 Y-33.439
G01 F600 X-26.973 Y-33.177
G01 F600 X-27.175 Y-32.953
G01 F600 X-27.419 Y-32.776
G01 F600 X-27.695 Y-32.653
G01 F600 X-27.990 Y-32.590
G01 F600 X-30.508 Y-32.590
G01 F600 X-30.508 Y-29.223
G01 F600 X-30.474 Y-29.120
G01 F600 X-30.456 Y-28.946
G01 F600 X-30.474 Y-28.773
G01 F600 X-30.528 Y-28.607
G01 F600 X-30.581 Y-28.516
G01 F600 X-30.632 Y-28.359
G01 F600 X-30.783 Y-28.097
G01 F600 X-30.985 Y-27.873
G01 F600 X-31.229 Y-27.696
G01 F600 X-31.505 Y-27.573
G01 F600 X-31.800 Y-27.510
G01 F600 X-32.102 Y-27.510
G00 F3000 Z3.000
G00 F3000 X-18.132 Y-28.780
G00 F1500 Z0
G01 F600 Z-0.200
G01 F600 X-18.427 Y-28.843
G01 F600 X-18.703 Y-28.966
G01 F600 X-18.947 Y-29.143
G01 F600 X-19.149 Y-29.367
G01 F600 X-19.300 Y-29.629
G01 F600 X-19.393 Y-29.916
G01 F600 X-19.424 Y-30.207
G01 F600 X-19.424 Y-39.781
G01 F600 X-25.306 Y-45.663
G01 F600 X-25.499 Y-45.877
G01 F600 X-25.650 Y-46.139
G01 F600 X-25.743 Y-46.426
G01 F600 X-25.775 Y-46.726
G01 F600 X-25.743 Y-47.026
G01 F600 X-25.650 Y-47.313
G01 F600 X-25.499 Y-47.575
G01 F600 X-25.297 Y-47.799
G01 F600 X-25.053 Y-47.977
G01 F600 X-24.777 Y-48.099
G01 F600 X-24.482 Y-48.162
G01 F600 X-24.180 Y-48.162
G01 F600 X-23.885 Y-48.099
G01 F600 X-23.609 Y-47.977
G01 F600 X-23.368 Y-47.802
G01 F600 X-17.006 Y-41.439
G01 F600 X-16.813 Y-41.225
G01 F600 X-16.662 Y-40.963
G01 F600 X-16.568 Y-40.676
G01 F600 X-16.538 Y-40.385
G01 F600 X-16.538 Y-30.207
G01 F600 X-16.568 Y-29.916
G01 F600 X-16.662 Y-29.629
G01 F600 X-16.813 Y-29.367
G01 F600 X-17.015 Y-29.143
G01 F600 X-17.259 Y-28.966
G01 F600 X-17.535 Y-28.843
G01 F600 X-17.830 Y-28.780
G01 F600 X-18.132 Y-28.780
G00 F3000 Z3.000
G00 F3000 X-52.382 Y-31.699
G00 F1500 Z0
G01 F600 Z-0.200
G01 F600 X-52.599 Y-31.745
G01 F600 X-52.803 Y-31.836
G01 F600 X-52.926 Y-31.926
G01 F600 X-53.018 Y-31.926
G01 F600 X-53.189 Y-31.963
G01 F600 X-53.348 Y-32.033
G01 F600 X-53.489 Y-32.136
G01 F600 X-53.606 Y-32.266
G01 F600 X-53.693 Y-32.417
G01 F600 X-53.747 Y-32.583
G01 F600 X-53.766 Y-32.756
G01 F600 X-53.747 Y-32.930
G01 F600 X-53.693 Y-33.095
G01 F600 X-53.606 Y-33.246
G01 F600 X-53.489 Y-33.376
G01 F600 X-53.348 Y-33.479
G01 F600 X-53.333 Y-33.486
G01 F600 X-53.333 Y-43.748
G01 F600 X-54.261 Y-44.676
G01 F600 X-54.401 Y-44.831
G01 F600 X-54.512 Y-45.024
G01 F600 X-54.581 Y-45.235
G01 F600 X-54.603 Y-45.447
G01 F600 X-54.603 Y-46.735
G01 F600 X-54.581 Y-46.947
G01 F600 X-54.512 Y-47.158
G01 F600 X-54.401 Y-47.351
G01 F600 X-54.252 Y-47.516
G01 F600 X-54.072 Y-47.647
G01 F600 X-53.869 Y-47.737
G01 F600 X-53.652 Y-47.783
G01 F600 X-53.430 Y-47.783
G01 F600 X-53.212 Y-47.737
G01 F600 X-53.009 Y-47.647
G01 F600 X-52.830 Y-47.516
G01 F600 X-52.681 Y-47.351
G01 F600 X-52.570 Y-47.158
G01 F600 X-52.501 Y-46.947
G01 F600 X-52.479 Y-46.735
G01 F600 X-52.479 Y-45.894
G01 F600 X-51.550 Y-44.966
G01 F600 X-51.411 Y-44.811
G01 F600 X-51.300 Y-44.618
G01 F600 X-51.231 Y-44.407
G01 F600 X-51.209 Y-44.195
G01 F600 X-51.209 Y-33.486
G01 F600 X-51.193 Y-33.479
G01 F600 X-51.052 Y-33.376
G01 F600 X-50.935 Y-33.246
G01 F600 X-50.848 Y-33.095
G01 F600 X-50.794 Y-32.930
G01 F600 X-50.776 Y-32.756
G01 F600 X-50.794 Y-32.583
G01 F600 X-50.848 Y-32.417
G01 F600 X-50.935 Y-32.266
G01 F600 X-51.052 Y-32.136
G01 F600 X-51.193 Y-32.033
G01 F600 X-51.353 Y-31.963
G01 F600 X-51.521 Y-31.927
G01 F600 X-51.618 Y-31.924
G01 F600 X-51.739 Y-31.836
G01 F600 X-51.942 Y-31.745
G01 F600 X-52.160 Y-31.699
G01 F600 X-52.382 Y-31.699
G00 F3000 Z3.000
G00 F3000 X-54.898 Y-40.156
G00 F1500 Z0
G01 F600 Z-0.200
G01 F600 X-55.069 Y-40.192
G01 F600 X-55.228 Y-40.263
G01 F600 X-55.369 Y-40.366
G01 F600 X-55.486 Y-40.495
G01 F600 X-55.573 Y-40.646
G01 F600 X-55.627 Y-40.812
G01 F600 X-55.632 Y-40.859
G01 F600 X-61.932 Y-47.160
G01 F600 X-62.082 Y-47.326
G01 F600 X-62.202 Y-47.533
G01 F600 X-62.275 Y-47.759
G01 F600 X-62.299 Y-47.987
G01 F600 X-62.299 Y-61.975
G01 F600 X-62.275 Y-62.203
G01 F600 X-62.202 Y-62.429
G01 F600 X-62.082 Y-62.636
G01 F600 X-61.932 Y-62.802
G01 F600 X-57.219 Y-67.516
G01 F600 X-57.219 Y-77.215
G01 F600 X-57.195 Y-77.443
G01 F600 X-57.122 Y-77.669
G01 F600 X-57.002 Y-77.876
G01 F600 X-56.843 Y-78.053
G01 F600 X-56.650 Y-78.193
G01 F600 X-56.433 Y-78.289
G01 F600 X-56.200 Y-78.339
G01 F600 X-35.642 Y-78.339
G01 F600 X-35.409 Y-78.289
G01 F600 X-35.191 Y-78.193
G01 F600 X-35.002 Y-78.055
G01 F600 X-34.908 Y-77.961
G01 F600 X-34.708 Y-78.004
G01 F600 X-34.273 Y-78.004
G01 F600 X-33.848 Y-77.913
G01 F600 X-33.451 Y-77.736
G01 F600 X-33.100 Y-77.481
G01 F600 X-32.809 Y-77.158
G01 F600 X-32.592 Y-76.782
G01 F600 X-32.457 Y-76.368
G01 F600 X-32.413 Y-75.945
G01 F600 X-32.413 Y-74.529
G01 F600 X-25.482 Y-74.529
G01 F600 X-25.249 Y-74.479
G01 F600 X-25.031 Y-74.383
G01 F600 X-24.842 Y-74.245
G01 F600 X-23.559 Y-72.962
G01 F600 X-23.409 Y-72.796
G01 F600 X-23.290 Y-72.589
G01 F600 X-23.216 Y-72.363
G01 F600 X-23.193 Y-72.135
G01 F600 X-23.193 Y-70.056
G01 F600 X-19.749 Y-66.612
G01 F600 X-19.599 Y-66.446
G01 F600 X-19.480 Y-66.239
G01 F600 X-19.407 Y-66.013
G01 F600 X-19.383 Y-65.785
G01 F600 X-19.383 Y-64.497
G01 F600 X-19.407 Y-64.269
G01 F600 X-19.480 Y-64.043
G01 F600 X-19.599 Y-63.836
G01 F600 X-19.759 Y-63.659
G01 F600 X-19.951 Y-63.520
G01 F600 X-20.169 Y-63.423
G01 F600 X-20.402 Y-63.373
G01 F600 X-20.640 Y-63.373
G01 F600 X-20.873 Y-63.423
G01 F600 X-21.090 Y-63.520
G01 F600 X-21.283 Y-63.659
G01 F600 X-21.442 Y-63.836
G01 F600 X-21.562 Y-64.043
G01 F600 X-21.635 Y-64.269
G01 F600 X-21.659 Y-64.497
G01 F600 X-21.659 Y-65.306
G01 F600 X-25.102 Y-68.750
G01 F600 X-25.252 Y-68.916
G01 F600 X-25.372 Y-69.123
G01 F600 X-25.445 Y-69.349
G01 F600 X-25.469 Y-69.577
G01 F600 X-25.469 Y-71.657
G01 F600 X-26.076 Y-72.263
G01 F600 X-32.757 Y-72.263
G01 F600 X-32.809 Y-72.174
G01 F600 X-33.100 Y-71.851
G01 F600 X-33.451 Y-71.596
G01 F600 X-33.848 Y-71.419
G01 F600 X-34.273 Y-71.328
G01 F600 X-34.708 Y-71.328
G01 F600 X-35.133 Y-71.419
G01 F600 X-35.530 Y-71.596
G01 F600 X-35.882 Y-71.851
G01 F600 X-36.173 Y-72.174
G01 F600 X-36.390 Y-72.550
G01 F600 X-36.524 Y-72.964
G01 F600 X-36.569 Y-73.387
G01 F600 X-36.569 Y-75.945
G01 F600 X-36.555 Y-76.073
G01 F600 X-54.943 Y-76.073
G01 F600 X-54.943 Y-67.037
G01 F600 X-54.967 Y-66.809
G01 F600 X-55.040 Y-66.583
G01 F600 X-55.159 Y-66.376
G01 F600 X-55.309 Y-66.210
G01 F600 X-60.023 Y-61.497
G01 F600 X-60.023 Y-48.466
G01 F600 X-54.656 Y-43.122
G01 F600 X-54.553 Y-43.100
G01 F600 X-54.394 Y-43.029
G01 F600 X-54.253 Y-42.926
G01 F600 X-54.136 Y-42.797
G01 F600 X-54.049 Y-42.646
G01 F600 X-53.995 Y-42.480
G01 F600 X-53.989 Y-42.427
G01 F600 X-53.889 Y-42.316
G01 F600 X-53.770 Y-42.109
G01 F600 X-53.697 Y-41.883
G01 F600 X-53.672 Y-41.646
G01 F600 X-53.697 Y-41.409
G01 F600 X-53.770 Y-41.183
G01 F600 X-53.889 Y-40.976
G01 F600 X-53.989 Y-40.866
G01 F600 X-53.995 Y-40.812
G01 F600 X-54.049 Y-40.646
G01 F600 X-54.136 Y-40.495
G01 F600 X-54.253 Y-40.366
G01 F600 X-54.394 Y-40.263
G01 F600 X-54.553 Y-40.192
G01 F600 X-54.724 Y-40.156
G01 F600 X-54.898 Y-40.156
G00 F3000 Z3.000
G00 F3000 X-49.818 Y-40.156
G00 F1500 Z0
G01 F600 Z-0.200
G01 F600 X-49.989 Y-40.192
G01 F600 X-50.148 Y-40.263
G01 F600 X-50.289 Y-40.366
G01 F600 X-50.406 Y-40.495
G01 F600 X-50.493 Y-40.646
G01 F600 X-50.547 Y-40.812
G01 F600 X-50.553 Y-40.866
G01 F600 X-50.652 Y-40.976
G01 F600 X-50.772 Y-41.183
G01 F600 X-50.845 Y-41.409
G01 F600 X-50.869 Y-41.637
G01 F600 X-50.869 Y-46.257
G01 F600 X-51.772 Y-47.160
G01 F600 X-51.922 Y-47.326
G01 F600 X-52.041 Y-47.533
G01 F600 X-52.115 Y-47.759
G01 F600 X-52.139 Y-47.987
G01 F600 X-52.139 Y-54.483
G01 F600 X-52.390 Y-54.483
G01 F600 X-52.623 Y-54.533
G01 F600 X-52.840 Y-54.630
G01 F600 X-53.029 Y-54.767
G01 F600 X-56.852 Y-58.590
G01 F600 X-57.002 Y-58.756
G01 F600 X-57.122 Y-58.963
G01 F600 X-57.195 Y-59.189
G01 F600 X-57.220 Y-59.426
G01 F600 X-57.195 Y-59.663
G01 F600 X-57.122 Y-59.889
G01 F600 X-57.002 Y-60.096
G01 F600 X-56.843 Y-60.273
G01 F600 X-56.650 Y-60.413
G01 F600 X-56.433 Y-60.509
G01 F600 X-56.200 Y-60.559
G01 F600 X-55.962 Y-60.559
G01 F600 X-55.729 Y-60.509
G01 F600 X-55.511 Y-60.413
G01 F600 X-55.322 Y-60.275
G01 F600 X-51.796 Y-56.749
G01 F600 X-50.882 Y-56.749
G01 F600 X-50.649 Y-56.699
G01 F600 X-50.431 Y-56.603
G01 F600 X-50.399 Y-56.579
G01 F600 X-43.966 Y-56.579
G01 F600 X-43.099 Y-57.445
G01 F600 X-42.910 Y-57.583
G01 F600 X-42.693 Y-57.679
G01 F600 X-42.460 Y-57.729
G01 F600 X-41.302 Y-57.729
G01 F600 X-41.069 Y-57.679
G01 F600 X-40.851 Y-57.583
G01 F600 X-40.658 Y-57.443
G01 F600 X-40.499 Y-57.266
G01 F600 X-40.380 Y-57.059
G01 F600 X-40.306 Y-56.833
G01 F600 X-40.282 Y-56.596
G01 F600 X-40.306 Y-56.359
G01 F600 X-40.380 Y-56.133
G01 F600 X-40.499 Y-55.926
G01 F600 X-40.658 Y-55.749
G01 F600 X-40.851 Y-55.609
G01 F600 X-41.069 Y-55.513
G01 F600 X-41.302 Y-55.463
G01 F600 X-41.866 Y-55.463
G01 F600 X-42.732 Y-54.597
G01 F600 X-42.921 Y-54.460
G01 F600 X-43.139 Y-54.363
G01 F600 X-43.372 Y-54.313
G01 F600 X-49.863 Y-54.313
G01 F600 X-49.863 Y-48.466
G01 F600 X-48.959 Y-47.562
G01 F600 X-48.809 Y-47.396
G01 F600 X-48.690 Y-47.189
G01 F600 X-48.617 Y-46.963
G01 F600 X-48.593 Y-46.735
G01 F600 X-48.593 Y-45.319
G01 F600 X-46.396 Y-45.319
G01 F600 X-44.139 Y-47.575
G01 F600 X-43.950 Y-47.713
G01 F600 X-43.733 Y-47.809
G01 F600 X-43.500 Y-47.859
G01 F600 X-43.262 Y-47.859
G01 F600 X-43.029 Y-47.809
G01 F600 X-42.811 Y-47.713
G01 F600 X-42.619 Y-47.573
G01 F600 X-42.459 Y-47.396
G01 F600 X-42.340 Y-47.189
G01 F600 X-42.267 Y-46.963
G01 F600 X-42.242 Y-46.726
G01 F600 X-42.267 Y-46.489
G01 F600 X-42.340 Y-46.263
G01 F600 X-42.459 Y-46.056
G01 F600 X-42.609 Y-45.890
G01 F600 X-45.162 Y-43.337
G01 F600 X-45.351 Y-43.200
G01 F600 X-45.569 Y-43.103
G01 F600 X-45.802 Y-43.053
G01 F600 X-48.593 Y-43.053
G01 F600 X-48.593 Y-41.637
G01 F600 X-48.617 Y-41.409
G01 F600 X-48.690 Y-41.183
G01 F600 X-48.809 Y-40.976
G01 F600 X-48.909 Y-40.866
G01 F600 X-48.915 Y-40.812
G01 F600 X-48.969 Y-40.646
G01 F600 X-49.056 Y-40.495
G01 F600 X-49.172 Y-40.366
G01 F600 X-49.314 Y-40.263
G01 F600 X-49.473 Y-40.192
G01 F600 X-49.644 Y-40.156
G01 F600 X-49.818 Y-40.156
G00 F3000 Z3.000
G00 F3000 X-48.548 Y-49.046
G00 F1500 Z0
G01 F600 Z-0.200
G01 F600 X-48.719 Y-49.082
G01 F600 X-48.878 Y-49.153
G01 F600 X-49.019 Y-49.256
G01 F600 X-49.136 Y-49.385
G01 F600 X-49.223 Y-49.536
G01 F600 X-49.277 Y-49.702
G01 F600 X-49.282 Y-49.756
G01 F600 X-49.382 Y-49.866
G01 F600 X-49.502 Y-50.073
G01 F600 X-49.575 Y-50.299
G01 F600 X-49.600 Y-50.536
G01 F600 X-49.575 Y-50.773
G01 F600 X-49.502 Y-50.999
G01 F600 X-49.382 Y-51.206
G01 F600 X-49.282 Y-51.317
G01 F600 X-49.277 Y-51.370
G01 F600 X-49.223 Y-51.536
G01 F600 X-49.136 Y-51.687
G01 F600 X-49.019 Y-51.816
G01 F600 X-48.878 Y-51.919
G01 F600 X-48.719 Y-51.990
G01 F600 X-48.548 Y-52.026
G01 F600 X-48.374 Y-52.026
G01 F600 X-48.203 Y-51.990
G01 F600 X-48.044 Y-51.919
G01 F600 X-47.903 Y-51.816
G01 F600 X-47.786 Y-51.687
G01 F600 X-47.776 Y-51.669
G01 F600 X-43.856 Y-51.669
G01 F600 X-37.863 Y-57.662
G01 F600 X-37.863 Y-62.778
G01 F600 X-37.839 Y-63.006
G01 F600 X-37.765 Y-63.232
G01 F600 X-37.646 Y-63.438
G01 F600 X-37.487 Y-63.615
G01 F600 X-37.294 Y-63.755
G01 F600 X-37.077 Y-63.852
G01 F600 X-36.843 Y-63.902
G01 F600 X-36.605 Y-63.902
G01 F600 X-36.373 Y-63.852
G01 F600 X-36.155 Y-63.755
G01 F600 X-35.962 Y-63.615
G01 F600 X-35.803 Y-63.438
G01 F600 X-35.684 Y-63.232
G01 F600 X-35.610 Y-63.006
G01 F600 X-35.586 Y-62.778
G01 F600 X-35.586 Y-57.183
G01 F600 X-35.610 Y-56.956
G01 F600 X-35.684 Y-56.729
G01 F600 X-35.803 Y-56.523
G01 F600 X-35.953 Y-56.356
G01 F600 X-42.622 Y-49.687
G01 F600 X-42.811 Y-49.550
G01 F600 X-43.029 Y-49.453
G01 F600 X-43.262 Y-49.403
G01 F600 X-47.776 Y-49.403
G01 F600 X-47.786 Y-49.385
G01 F600 X-47.903 Y-49.256
G01 F600 X-48.044 Y-49.153
G01 F600 X-48.203 Y-49.082
G01 F600 X-48.374 Y-49.046
G01 F600 X-48.548 Y-49.046
G00 F3000 Z3.000
G00 F3000 X-53.628 Y-49.046
G00 F1500 Z0
G01 F600 Z-0.200
G01 F600 X-53.799 Y-49.082
G01 F600 X-53.958 Y-49.153
G01 F600 X-54.099 Y-49.256
G01 F600 X-54.216 Y-49.385
G01 F600 X-54.226 Y-49.403
G01 F600 X-57.470 Y-49.403
G01 F600 X-57.703 Y-49.453
G01 F600 X-57.920 Y-49.550
G01 F600 X-58.109 Y-49.687
G01 F600 X-59.392 Y-50.970
G01 F600 X-59.542 Y-51.136
G01 F600 X-59.662 Y-51.343
G01 F600 X-59.735 Y-51.569
G01 F600 X-59.759 Y-51.797
G01 F600 X-59.759 Y-60.705
G01 F600 X-59.735 Y-60.933
G01 F600 X-59.662 Y-61.159
G01 F600 X-59.542 Y-61.366
G01 F600 X-59.392 Y-61.533
G01 F600 X-54.679 Y-66.246
G01 F600 X-54.679 Y-72.135
G01 F600 X-54.655 Y-72.363
G01 F600 X-54.582 Y-72.589
G01 F600 X-54.462 Y-72.796
G01 F600 X-54.312 Y-72.963
G01 F600 X-53.029 Y-74.245
G01 F600 X-52.840 Y-74.383
G01 F600 X-52.623 Y-74.479
G01 F600 X-52.390 Y-74.529
G01 F600 X-50.882 Y-74.529
G01 F600 X-50.649 Y-74.479
G01 F600 X-50.431 Y-74.383
G01 F600 X-50.239 Y-74.243
G01 F600 X-50.079 Y-74.066
G01 F600 X-49.960 Y-73.859
G01 F600 X-49.887 Y-73.633
G01 F600 X-49.862 Y-73.396
G01 F600 X-49.887 Y-73.159
G01 F600 X-49.960 Y-72.933
G01 F600 X-50.079 Y-72.726
G01 F600 X-50.239 Y-72.549
G01 F600 X-50.431 Y-72.410
G01 F600 X-50.649 Y-72.313
G01 F600 X-50.882 Y-72.263
G01 F600 X-51.796 Y-72.263
G01 F600 X-52.403 Y-71.657
G01 F600 X-52.403 Y-65.767
G01 F600 X-52.427 Y-65.539
G01 F600 X-52.500 Y-65.313
G01 F600 X-52.619 Y-65.106
G01 F600 X-52.769 Y-64.940
G01 F600 X-55.313 Y-62.396
G01 F600 X-57.483 Y-60.227
G01 F600 X-57.483 Y-52.276
G01 F600 X-56.876 Y-51.669
G01 F600 X-54.226 Y-51.669
G01 F600 X-54.216 Y-51.687
G01 F600 X-54.099 Y-51.816
G01 F600 X-53.958 Y-51.919
G01 F600 X-53.799 Y-51.990
G01 F600 X-53.628 Y-52.026
G01 F600 X-53.454 Y-52.026
G01 F600 X-53.283 Y-51.990
G01 F600 X-53.124 Y-51.919
G01 F600 X-52.983 Y-51.816
G01 F600 X-52.866 Y-51.687
G01 F600 X-52.779 Y-51.536
G01 F600 X-52.725 Y-51.370
G01 F600 X-52.719 Y-51.317
G01 F600 X-52.619 Y-51.206
G01 F600 X-52.500 Y-50.999
G01 F600 X-52.427 Y-50.773
G01 F600 X-52.402 Y-50.536
G01 F600 X-52.427 Y-50.299
G01 F600 X-52.500 Y-50.073
G01 F600 X-52.619 Y-49.866
G01 F600 X-52.719 Y-49.756
G01 F600 X-52.725 Y-49.702
G01 F600 X-52.779 Y-49.536
G01 F600 X-52.866 Y-49.385
G01 F600 X-52.983 Y-49.256
G01 F600 X-53.124 Y-49.153
G01 F600 X-53.283 Y-49.082
G01 F600 X-53.454 Y-49.046
G01 F600 X-53.628 Y-49.046
G00 F3000 Z3.000
G00 F3000 X-33.910 Y-49.503
G00 F1500 Z0
G01 F600 Z-0.200
G01 F600 X-34.143 Y-49.553
G01 F600 X-34.360 Y-49.650
G01 F600 X-34.553 Y-49.790
G01 F600 X-34.712 Y-49.967
G01 F600 X-34.831 Y-50.173
G01 F600 X-34.905 Y-50.399
G01 F600 X-34.930 Y-50.636
G01 F600 X-34.905 Y-50.873
G01 F600 X-34.831 Y-51.099
G01 F600 X-34.712 Y-51.306
G01 F600 X-34.553 Y-51.483
G01 F600 X-34.360 Y-51.623
G01 F600 X-34.143 Y-51.720
G01 F600 X-33.910 Y-51.769
G01 F600 X-32.326 Y-51.769
G01 F600 X-28.899 Y-55.195
G01 F600 X-28.710 Y-55.333
G01 F600 X-28.493 Y-55.429
G01 F600 X-28.260 Y-55.479
G01 F600 X-25.469 Y-55.479
G01 F600 X-25.469 Y-59.435
G01 F600 X-25.445 Y-59.663
G01 F600 X-25.372 Y-59.889
G01 F600 X-25.252 Y-60.096
G01 F600 X-25.152 Y-60.207
G01 F600 X-25.147 Y-60.260
G01 F600 X-25.093 Y-60.426
G01 F600 X-25.006 Y-60.577
G01 F600 X-24.889 Y-60.706
G01 F600 X-24.748 Y-60.809
G01 F600 X-24.589 Y-60.880
G01 F600 X-24.418 Y-60.916
G01 F600 X-24.244 Y-60.916
G01 F600 X-24.073 Y-60.880
G01 F600 X-23.914 Y-60.809
G01 F600 X-23.773 Y-60.706
G01 F600 X-23.656 Y-60.577
G01 F600 X-23.646 Y-60.559
G01 F600 X-20.402 Y-60.559
G01 F600 X-20.169 Y-60.509
G01 F600 X-19.951 Y-60.413
G01 F600 X-19.759 Y-60.273
G01 F600 X-19.599 Y-60.096
G01 F600 X-19.480 Y-59.889
G01 F600 X-19.407 Y-59.663
G01 F600 X-19.382 Y-59.426
G01 F600 X-19.407 Y-59.189
G01 F600 X-19.480 Y-58.963
G01 F600 X-19.599 Y-58.756
G01 F600 X-19.759 Y-58.579
G01 F600 X-19.951 Y-58.440
G01 F600 X-20.169 Y-58.343
G01 F600 X-20.402 Y-58.293
G01 F600 X-23.193 Y-58.293
G01 F600 X-23.193 Y-54.337
G01 F600 X-23.216 Y-54.109
G01 F600 X-23.290 Y-53.883
G01 F600 X-23.409 Y-53.676
G01 F600 X-23.569 Y-53.499
G01 F600 X-23.761 Y-53.360
G01 F600 X-23.979 Y-53.263
G01 F600 X-24.212 Y-53.213
G01 F600 X-27.666 Y-53.213
G01 F600 X-31.092 Y-49.787
G01 F600 X-31.281 Y-49.650
G01 F600 X-31.499 Y-49.553
G01 F600 X-31.732 Y-49.503
G01 F600 X-33.910 Y-49.503
G00 F3000 Z3.000
G00 F3000 X-26.958 Y-57.936
G00 F1500 Z0
G01 F600 Z-0.200
G01 F600 X-27.129 Y-57.972
G01 F600 X-27.288 Y-58.043
G01 F600 X-27.429 Y-58.146
G01 F600 X-27.546 Y-58.275
G01 F600 X-27.633 Y-58.426
G01 F600 X-27.687 Y-58.592
G01 F600 X-27.693 Y-58.646
G01 F600 X-27.792 Y-58.756
G01 F600 X-27.912 Y-58.963
G01 F600 X-27.985 Y-59.189
G01 F600 X-28.010 Y-59.426
G01 F600 X-27.985 Y-59.663
G01 F600 X-27.979 Y-59.682
G01 F600 X-27.979 Y-62.883
G01 F600 X-28.252 Y-63.724
G01 F600 X-28.252 Y-63.724
G01 F600 X-28.291 Y-63.846
G01 F600 X-28.315 Y-64.073
G01 F600 X-28.315 Y-66.252
G01 F600 X-28.291 Y-66.480
G01 F600 X-28.218 Y-66.707
G01 F600 X-28.099 Y-66.913
G01 F600 X-27.939 Y-67.090
G01 F600 X-27.747 Y-67.230
G01 F600 X-27.529 Y-67.327
G01 F600 X-27.296 Y-67.376
G01 F600 X-27.058 Y-67.376
G01 F600 X-26.825 Y-67.327
G01 F600 X-26.608 Y-67.230
G01 F600 X-26.415 Y-67.090
G01 F600 X-26.256 Y-66.913
G01 F600 X-26.137 Y-66.707
G01 F600 X-26.063 Y-66.480
G01 F600 X-26.039 Y-66.252
G01 F600 X-26.039 Y-64.245
G01 F600 X-25.727 Y-63.283
G01 F600 X-25.703 Y-63.055
G01 F600 X-25.703 Y-59.447
G01 F600 X-25.727 Y-59.219
G01 F600 X-25.800 Y-58.993
G01 F600 X-25.919 Y-58.786
G01 F600 X-26.050 Y-58.642
G01 F600 X-26.055 Y-58.592
G01 F600 X-26.109 Y-58.426
G01 F600 X-26.196 Y-58.275
G01 F600 X-26.313 Y-58.146
G01 F600 X-26.454 Y-58.043
G01 F600 X-26.613 Y-57.972
G01 F600 X-26.784 Y-57.936
G01 F600 X-26.958 Y-57.936
G00 F3000 Z3.000
G00 F3000 X-46.040 Y-58.293
G00 F1500 Z0
G01 F600 Z-0.200
G01 F600 X-46.273 Y-58.343
G01 F600 X-46.490 Y-58.440
G01 F600 X-46.683 Y-58.579
G01 F600 X-46.842 Y-58.756
G01 F600 X-46.962 Y-58.963
G01 F600 X-47.035 Y-59.189
G01 F600 X-47.059 Y-59.417
G01 F600 X-47.059 Y-67.055
G01 F600 X-47.035 Y-67.283
G01 F600 X-46.962 Y-67.509
G01 F600 X-46.842 Y-67.716
G01 F600 X-46.683 Y-67.893
G01 F600 X-46.490 Y-68.032
G01 F600 X-46.273 Y-68.129
G01 F600 X-46.040 Y-68.179
G01 F600 X-45.802 Y-68.179
G01 F600 X-45.569 Y-68.129
G01 F600 X-45.351 Y-68.032
G01 F600 X-45.159 Y-67.893
G01 F600 X-44.999 Y-67.716
G01 F600 X-44.880 Y-67.509
G01 F600 X-44.806 Y-67.283
G01 F600 X-44.783 Y-67.055
G01 F600 X-44.783 Y-60.902
G01 F600 X-37.789 Y-67.895
G01 F600 X-37.600 Y-68.032
G01 F600 X-37.383 Y-68.129
G01 F600 X-37.150 Y-68.179
G01 F600 X-33.572 Y-68.179
G01 F600 X-33.339 Y-68.129
G01 F600 X-33.121 Y-68.032
G01 F600 X-32.928 Y-67.893
G01 F600 X-32.769 Y-67.716
G01 F600 X-32.650 Y-67.509
G01 F600 X-32.576 Y-67.283
G01 F600 X-32.553 Y-67.055
G01 F600 X-32.553 Y-60.887
G01 F600 X-32.576 Y-60.659
G01 F600 X-32.650 Y-60.433
G01 F600 X-32.769 Y-60.226
G01 F600 X-32.919 Y-60.059
G01 F600 X-33.032 Y-59.947
G01 F600 X-33.221 Y-59.809
G01 F600 X-33.439 Y-59.713
G01 F600 X-33.672 Y-59.663
G01 F600 X-33.910 Y-59.663
G01 F600 X-34.143 Y-59.713
G01 F600 X-34.360 Y-59.809
G01 F600 X-34.553 Y-59.950
G01 F600 X-34.712 Y-60.127
G01 F600 X-34.831 Y-60.333
G01 F600 X-34.905 Y-60.559
G01 F600 X-34.930 Y-60.796
G01 F600 X-34.905 Y-61.033
G01 F600 X-34.831 Y-61.259
G01 F600 X-34.829 Y-61.264
G01 F600 X-34.829 Y-65.913
G01 F600 X-36.556 Y-65.913
G01 F600 X-43.892 Y-58.577
G01 F600 X-44.081 Y-58.440
G01 F600 X-44.299 Y-58.343
G01 F600 X-44.532 Y-58.293
G01 F600 X-46.040 Y-58.293
G00 F3000 Z3.000
G00 F3000 X-28.379 Y-8.898
G00 F1500 Z0
G01 F600 Z-0.200
G01 F600 X-28.845 Y-8.998
G01 F600 X-29.281 Y-9.191
G01 F600 X-29.659 Y-9.466
G01 F600 X-30.956 Y-10.764
G01 F600 X-31.255 Y-11.096
G01 F600 X-31.494 Y-11.509
G01 F600 X-31.641 Y-11.962
G01 F600 X-31.691 Y-12.436
G01 F600 X-31.641 Y-12.910
G01 F600 X-31.494 Y-13.363
G01 F600 X-31.255 Y-13.777
G01 F600 X-31.054 Y-13.999
G01 F600 X-31.054 Y-18.420
G01 F600 X-33.393 Y-18.420
G01 F600 X-33.729 Y-18.491
G01 F600 X-34.043 Y-18.631
G01 F600 X-34.314 Y-18.828
G01 F600 X-38.151 Y-22.665
G01 F600 X-38.362 Y-22.899
G01 F600 X-38.534 Y-23.197
G01 F600 X-38.640 Y-23.524
G01 F600 X-38.674 Y-23.846
G01 F600 X-38.674 Y-33.348
G01 F600 X-40.691 Y-35.365
G01 F600 X-40.902 Y-35.599
G01 F600 X-41.074 Y-35.897
G01 F600 X-41.180 Y-36.224
G01 F600 X-41.214 Y-36.546
G01 F600 X-41.214 Y-40.396
G01 F600 X-41.180 Y-40.718
G01 F600 X-41.074 Y-41.045
G01 F600 X-40.909 Y-41.330
G01 F600 X-40.909 Y-44.206
G01 F600 X-40.882 Y-44.465
G01 F600 X-40.795 Y-44.731
G01 F600 X-40.655 Y-44.974
G01 F600 X-40.487 Y-45.160
G01 F600 X-38.369 Y-47.278
G01 F600 X-38.369 Y-53.096
G01 F600 X-38.342 Y-53.355
G01 F600 X-38.255 Y-53.621
G01 F600 X-38.115 Y-53.864
G01 F600 X-37.947 Y-54.050
G01 F600 X-31.884 Y-60.114
G01 F600 X-31.905 Y-60.151
G01 F600 X-31.992 Y-60.417
G01 F600 X-32.019 Y-60.676
G01 F600 X-32.019 Y-68.253
G01 F600 X-33.125 Y-68.253
G01 F600 X-33.021 Y-68.207
G01 F600 X-32.794 Y-68.042
G01 F600 X-32.606 Y-67.834
G01 F600 X-32.466 Y-67.591
G01 F600 X-32.380 Y-67.325
G01 F600 X-32.352 Y-67.066
G01 F600 X-32.352 Y-60.876
G01 F600 X-32.380 Y-60.617
G01 F600 X-32.466 Y-60.351
G01 F600 X-32.606 Y-60.108
G01 F600 X-32.774 Y-59.922
G01 F600 X-32.902 Y-59.794
G01 F600 X-33.121 Y-59.635
G01 F600 X-33.377 Y-59.521
G01 F600 X-33.651 Y-59.463
G01 F600 X-33.931 Y-59.463
G01 F600 X-34.205 Y-59.521
G01 F600 X-34.461 Y-59.635
G01 F600 X-34.688 Y-59.800
G01 F600 X-34.875 Y-60.008
G01 F600 X-35.015 Y-60.251
G01 F600 X-35.102 Y-60.517
G01 F600 X-35.131 Y-60.796
G01 F600 X-35.102 Y-61.075
G01 F600 X-35.029 Y-61.299
G01 F600 X-35.029 Y-65.713
G01 F600 X-36.473 Y-65.713
G01 F600 X-43.762 Y-58.424
G01 F600 X-43.981 Y-58.265
G01 F600 X-44.237 Y-58.151
G01 F600 X-44.511 Y-58.093
G01 F600 X-46.061 Y-58.093
G01 F600 X-46.335 Y-58.151
G01 F600 X-46.591 Y-58.265
G01 F600 X-46.818 Y-58.430
G01 F600 X-47.005 Y-58.638
G01 F600 X-47.145 Y-58.881
G01 F600 X-47.232 Y-59.147
G01 F600 X-47.259 Y-59.406
G01 F600 X-47.259 Y-67.066
G01 F600 X-47.232 Y-67.325
G01 F600 X-47.145 Y-67.591
G01 F600 X-47.005 Y-67.834
G01 F600 X-46.818 Y-68.042
G01 F600 X-46.591 Y-68.207
G01 F600 X-46.335 Y-68.321
G01 F600 X-46.061 Y-68.379
G01 F600 X-45.781 Y-68.379
G01 F600 X-45.507 Y-68.321
G01 F600 X-45.251 Y-68.207
G01 F600 X-45.024 Y-68.042
G01 F600 X-44.837 Y-67.834
G01 F600 X-44.696 Y-67.591
G01 F600 X-44.610 Y-67.325
G01 F600 X-44.583 Y-67.066
G01 F600 X-44.583 Y-61.385
G01 F600 X-37.920 Y-68.048
G01 F600 X-37.701 Y-68.207
G01 F600 X-37.597 Y-68.253
G01 F600 X-37.743 Y-68.253
G01 F600 X-40.587 Y-65.409
G01 F600 X-40.806 Y-65.250
G01 F600 X-41.062 Y-65.136
G01 F600 X-41.336 Y-65.078
G01 F600 X-41.616 Y-65.078
G01 F600 X-41.890 Y-65.136
G01 F600 X-42.146 Y-65.250
G01 F600 X-42.365 Y-65.409
G01 F600 X-46.479 Y-69.523
G01 F600 X-51.141 Y-69.523
G01 F600 X-51.415 Y-69.581
G01 F600 X-51.671 Y-69.695
G01 F600 X-51.898 Y-69.860
G01 F600 X-52.085 Y-70.068
G01 F600 X-52.203 Y-70.272
G01 F600 X-52.203 Y-65.756
G01 F600 X-52.230 Y-65.497
G01 F600 X-52.316 Y-65.231
G01 F600 X-52.457 Y-64.988
G01 F600 X-52.624 Y-64.802
G01 F600 X-55.171 Y-62.255
G01 F600 X-57.283 Y-60.144
G01 F600 X-57.283 Y-60.010
G01 F600 X-57.165 Y-60.214
G01 F600 X-56.978 Y-60.422
G01 F600 X-56.751 Y-60.587
G01 F600 X-56.495 Y-60.701
G01 F600 X-56.221 Y-60.759
G01 F600 X-55.941 Y-60.759
G01 F600 X-55.667 Y-60.701
G01 F600 X-55.411 Y-60.587
G01 F600 X-55.192 Y-60.428
G01 F600 X-51.713 Y-56.949
G01 F600 X-50.861 Y-56.949
G01 F600 X-50.587 Y-56.891
G01 F600 X-50.336 Y-56.779
G01 F600 X-44.048 Y-56.779
G01 F600 X-43.230 Y-57.598
G01 F600 X-43.011 Y-57.757
G01 F600 X-42.755 Y-57.871
G01 F600 X-42.481 Y-57.929
G01 F600 X-41.281 Y-57.929
G01 F600 X-41.007 Y-57.871
G01 F600 X-40.751 Y-57.757
G01 F600 X-40.524 Y-57.592
G01 F600 X-40.336 Y-57.384
G01 F600 X-40.196 Y-57.141
G01 F600 X-40.110 Y-56.875
G01 F600 X-40.080 Y-56.596
G01 F600 X-40.110 Y-56.317
G01 F600 X-40.196 Y-56.051
G01 F600 X-40.336 Y-55.808
G01 F600 X-40.524 Y-55.600
G01 F600 X-40.751 Y-55.435
G01 F600 X-41.007 Y-55.321
G01 F600 X-41.281 Y-55.263
G01 F600 X-41.783 Y-55.263
G01 F600 X-42.602 Y-54.444
G01 F600 X-42.821 Y-54.285
G01 F600 X-43.077 Y-54.171
G01 F600 X-43.351 Y-54.113
G01 F600 X-49.663 Y-54.113
G01 F600 X-49.663 Y-51.120
G01 F600 X-49.545 Y-51.324
G01 F600 X-49.475 Y-51.402
G01 F600 X-49.474 Y-51.412
G01 F600 X-49.407 Y-51.618
G01 F600 X-49.299 Y-51.805
G01 F600 X-49.154 Y-51.966
G01 F600 X-48.979 Y-52.093
G01 F600 X-48.781 Y-52.181
G01 F600 X-48.569 Y-52.226
G01 F600 X-48.353 Y-52.226
G01 F600 X-48.141 Y-52.181
G01 F600 X-47.943 Y-52.093
G01 F600 X-47.768 Y-51.966
G01 F600 X-47.681 Y-51.869
G01 F600 X-43.938 Y-51.869
G01 F600 X-38.063 Y-57.745
G01 F600 X-38.063 Y-62.788
G01 F600 X-38.035 Y-63.047
G01 F600 X-37.949 Y-63.314
G01 F600 X-37.809 Y-63.556
G01 F600 X-37.621 Y-63.765
G01 F600 X-37.395 Y-63.929
G01 F600 X-37.139 Y-64.043
G01 F600 X-36.865 Y-64.102
G01 F600 X-36.584 Y-64.102
G01 F600 X-36.310 Y-64.043
G01 F600 X-36.054 Y-63.929
G01 F600 X-35.828 Y-63.765
G01 F600 X-35.640 Y-63.556
G01 F600 X-35.500 Y-63.314
G01 F600 X-35.413 Y-63.047
G01 F600 X-35.386 Y-62.788
G01 F600 X-35.386 Y-57.173
G01 F600 X-35.413 Y-56.914
G01 F600 X-35.500 Y-56.647
G01 F600 X-35.640 Y-56.405
G01 F600 X-35.808 Y-56.218
G01 F600 X-42.492 Y-49.534
G01 F600 X-42.711 Y-49.375
G01 F600 X-42.967 Y-49.261
G01 F600 X-43.241 Y-49.203
G01 F600 X-47.681 Y-49.203
G01 F600 X-47.768 Y-49.106
G01 F600 X-47.943 Y-48.979
G01 F600 X-48.141 Y-48.891
G01 F600 X-48.353 Y-48.846
G01 F600 X-48.569 Y-48.846
G01 F600 X-48.781 Y-48.891
G01 F600 X-48.979 Y-48.979
G01 F600 X-49.154 Y-49.106
G01 F600 X-49.299 Y-49.267
G01 F600 X-49.407 Y-49.454
G01 F600 X-49.474 Y-49.660
G01 F600 X-49.475 Y-49.670
G01 F600 X-49.545 Y-49.748
G01 F600 X-49.663 Y-49.952
G01 F600 X-49.663 Y-48.548
G01 F600 X-48.814 Y-47.700
G01 F600 X-48.647 Y-47.514
G01 F600 X-48.506 Y-47.271
G01 F600 X-48.420 Y-47.005
G01 F600 X-48.393 Y-46.746
G01 F600 X-48.393 Y-45.519
G01 F600 X-46.478 Y-45.519
G01 F600 X-44.270 Y-47.728
G01 F600 X-44.051 Y-47.887
G01 F600 X-43.795 Y-48.001
G01 F600 X-43.521 Y-48.059
G01 F600 X-43.241 Y-48.059
G01 F600 X-42.967 Y-48.001
G01 F600 X-42.711 Y-47.887
G01 F600 X-42.484 Y-47.722
G01 F600 X-42.297 Y-47.514
G01 F600 X-42.156 Y-47.271
G01 F600 X-42.070 Y-47.005
G01 F600 X-42.041 Y-46.726
G01 F600 X-42.070 Y-46.447
G01 F600 X-42.156 Y-46.181
G01 F600 X-42.297 Y-45.938
G01 F600 X-42.464 Y-45.752
G01 F600 X-45.032 Y-43.184
G01 F600 X-45.251 Y-43.025
G01 F600 X-45.507 Y-42.911
G01 F600 X-45.781 Y-42.853
G01 F600 X-48.393 Y-42.853
G01 F600 X-48.393 Y-41.626
G01 F600 X-48.420 Y-41.367
G01 F600 X-48.506 Y-41.101
G01 F600 X-48.647 Y-40.858
G01 F600 X-48.717 Y-40.780
G01 F600 X-48.718 Y-40.770
G01 F600 X-48.785 Y-40.564
G01 F600 X-48.893 Y-40.377
G01 F600 X-49.038 Y-40.216
G01 F600 X-49.213 Y-40.089
G01 F600 X-49.411 Y-40.001
G01 F600 X-49.623 Y-39.956
G01 F600 X-49.839 Y-39.956
G01 F600 X-50.051 Y-40.001
G01 F600 X-50.249 Y-40.089
G01 F600 X-50.424 Y-40.216
G01 F600 X-50.569 Y-40.377
G01 F600 X-50.677 Y-40.564
G01 F600 X-50.744 Y-40.770
G01 F600 X-50.745 Y-40.780
G01 F600 X-50.815 Y-40.858
G01 F600 X-50.955 Y-41.101
G01 F600 X-51.009 Y-41.266
G01 F600 X-51.009 Y-33.592
G01 F600 X-50.918 Y-33.525
G01 F600 X-50.773 Y-33.365
G01 F600 X-50.665 Y-33.177
G01 F600 X-50.598 Y-32.971
G01 F600 X-50.575 Y-32.756
G01 F600 X-50.598 Y-32.541
G01 F600 X-50.665 Y-32.335
G01 F600 X-50.773 Y-32.147
G01 F600 X-50.918 Y-31.987
G01 F600 X-51.093 Y-31.859
G01 F600 X-51.291 Y-31.771
G01 F600 X-51.497 Y-31.727
G01 F600 X-51.550 Y-31.726
G01 F600 X-51.639 Y-31.661
G01 F600 X-51.880 Y-31.554
G01 F600 X-52.139 Y-31.499
G01 F600 X-52.403 Y-31.499
G01 F600 X-52.662 Y-31.554
G01 F600 X-52.904 Y-31.662
G01 F600 X-52.991 Y-31.726
G01 F600 X-53.039 Y-31.726
G01 F600 X-53.251 Y-31.771
G01 F600 X-53.449 Y-31.859
G01 F600 X-53.624 Y-31.987
G01 F600 X-53.769 Y-32.147
G01 F600 X-53.877 Y-32.335
G01 F600 X-53.944 Y-32.541
G01 F600 X-53.967 Y-32.756
G01 F600 X-53.944 Y-32.971
G01 F600 X-53.877 Y-33.177
G01 F600 X-53.769 Y-33.365
G01 F600 X-53.624 Y-33.525
G01 F600 X-53.533 Y-33.592
G01 F600 X-53.533 Y-41.266
G01 F600 X-53.586 Y-41.101
G01 F600 X-53.727 Y-40.858
G01 F600 X-53.797 Y-40.780
G01 F600 X-53.798 Y-40.770
G01 F600 X-53.865 Y-40.564
G01 F600 X-53.973 Y-40.377
G01 F600 X-54.118 Y-40.216
G01 F600 X-54.293 Y-40.089
G01 F600 X-54.491 Y-40.001
G01 F600 X-54.703 Y-39.956
G01 F600 X-54.919 Y-39.956
G01 F600 X-55.131 Y-40.001
G01 F600 X-55.329 Y-40.089
G01 F600 X-55.504 Y-40.216
G01 F600 X-55.649 Y-40.377
G01 F600 X-55.757 Y-40.564
G01 F600 X-55.823 Y-40.767
G01 F600 X-62.077 Y-47.022
G01 F600 X-62.245 Y-47.208
G01 F600 X-62.385 Y-47.451
G01 F600 X-62.472 Y-47.717
G01 F600 X-62.499 Y-47.976
G01 F600 X-62.499 Y-61.986
G01 F600 X-62.472 Y-62.245
G01 F600 X-62.385 Y-62.511
G01 F600 X-62.245 Y-62.754
G01 F600 X-62.077 Y-62.940
G01 F600 X-57.419 Y-67.598
G01 F600 X-57.419 Y-77.226
G01 F600 X-57.392 Y-77.485
G01 F600 X-57.305 Y-77.751
G01 F600 X-57.165 Y-77.994
G01 F600 X-56.978 Y-78.202
G01 F600 X-56.751 Y-78.367
G01 F600 X-56.495 Y-78.481
G01 F600 X-56.221 Y-78.539
G01 F600 X-35.621 Y-78.539
G01 F600 X-35.347 Y-78.481
G01 F600 X-35.091 Y-78.367
G01 F600 X-34.872 Y-78.208
G01 F600 X-34.843 Y-78.179
G01 F600 X-34.729 Y-78.204
G01 F600 X-34.253 Y-78.204
G01 F600 X-33.786 Y-78.105
G01 F600 X-33.351 Y-77.911
G01 F600 X-32.965 Y-77.630
G01 F600 X-32.646 Y-77.276
G01 F600 X-32.408 Y-76.863
G01 F600 X-32.261 Y-76.410
G01 F600 X-32.213 Y-75.956
G01 F600 X-32.213 Y-74.729
G01 F600 X-25.461 Y-74.729
G01 F600 X-25.187 Y-74.671
G01 F600 X-24.931 Y-74.557
G01 F600 X-24.712 Y-74.398
G01 F600 X-23.414 Y-73.100
G01 F600 X-23.247 Y-72.914
G01 F600 X-23.106 Y-72.671
G01 F600 X-23.020 Y-72.405
G01 F600 X-22.993 Y-72.146
G01 F600 X-22.993 Y-70.138
G01 F600 X-19.604 Y-66.750
G01 F600 X-19.437 Y-66.564
G01 F600 X-19.296 Y-66.321
G01 F600 X-19.210 Y-66.055
G01 F600 X-19.183 Y-65.796
G01 F600 X-19.183 Y-64.486
G01 F600 X-19.210 Y-64.227
G01 F600 X-19.296 Y-63.961
G01 F600 X-19.437 Y-63.718
G01 F600 X-19.624 Y-63.510
G01 F600 X-19.851 Y-63.345
G01 F600 X-20.107 Y-63.231
G01 F600 X-20.381 Y-63.173
G01 F600 X-20.661 Y-63.173
G01 F600 X-20.935 Y-63.231
G01 F600 X-21.191 Y-63.345
G01 F600 X-21.418 Y-63.510
G01 F600 X-21.605 Y-63.718
G01 F600 X-21.745 Y-63.961
G01 F600 X-21.832 Y-64.227
G01 F600 X-21.859 Y-64.486
G01 F600 X-21.859 Y-65.224
G01 F600 X-25.247 Y-68.612
G01 F600 X-25.415 Y-68.798
G01 F600 X-25.555 Y-69.041
G01 F600 X-25.601 Y-69.181
G01 F600 X-25.646 Y-69.041
G01 F600 X-25.787 Y-68.798
G01 F600 X-25.974 Y-68.590
G01 F600 X-26.201 Y-68.425
G01 F600 X-26.457 Y-68.311
G01 F600 X-26.731 Y-68.253
G01 F600 X-29.343 Y-68.253
G01 F600 X-29.343 Y-61.256
G01 F600 X-29.162 Y-61.086
G01 F600 X-29.091 Y-61.071
G01 F600 X-28.893 Y-60.983
G01 F600 X-28.718 Y-60.856
G01 F600 X-28.573 Y-60.695
G01 F600 X-28.465 Y-60.508
G01 F600 X-28.398 Y-60.302
G01 F600 X-28.397 Y-60.292
G01 F600 X-28.327 Y-60.214
G01 F600 X-28.186 Y-59.971
G01 F600 X-28.179 Y-59.948
G01 F600 X-28.179 Y-62.851
G01 F600 X-28.527 Y-63.924
G01 F600 X-28.501 Y-63.924
G01 F600 X-28.515 Y-64.063
G01 F600 X-28.515 Y-66.263
G01 F600 X-28.488 Y-66.522
G01 F600 X-28.402 Y-66.788
G01 F600 X-28.261 Y-67.031
G01 F600 X-28.074 Y-67.239
G01 F600 X-27.847 Y-67.404
G01 F600 X-27.591 Y-67.518
G01 F600 X-27.317 Y-67.576
G01 F600 X-27.037 Y-67.576
G01 F600 X-26.763 Y-67.518
G01 F600 X-26.507 Y-67.404
G01 F600 X-26.280 Y-67.239
G01 F600 X-26.093 Y-67.031
G01 F600 X-25.953 Y-66.788
G01 F600 X-25.866 Y-66.522
G01 F600 X-25.839 Y-66.263
G01 F600 X-25.839 Y-64.277
G01 F600 X-25.530 Y-63.325
G01 F600 X-25.503 Y-63.066
G01 F600 X-25.503 Y-60.062
G01 F600 X-25.415 Y-60.214
G01 F600 X-25.345 Y-60.292
G01 F600 X-25.344 Y-60.302
G01 F600 X-25.277 Y-60.508
G01 F600 X-25.169 Y-60.695
G01 F600 X-25.024 Y-60.856
G01 F600 X-24.849 Y-60.983
G01 F600 X-24.651 Y-61.071
G01 F600 X-24.439 Y-61.116
G01 F600 X-24.223 Y-61.116
G01 F600 X-24.011 Y-61.071
G01 F600 X-23.813 Y-60.983
G01 F600 X-23.638 Y-60.856
G01 F600 X-23.551 Y-60.759
G01 F600 X-20.381 Y-60.759
G01 F600 X-20.107 Y-60.701
G01 F600 X-19.851 Y-60.587
G01 F600 X-19.624 Y-60.422
G01 F600 X-19.437 Y-60.214
G01 F600 X-19.296 Y-59.971
G01 F600 X-19.210 Y-59.705
G01 F600 X-19.181 Y-59.426
G01 F600 X-19.210 Y-59.147
G01 F600 X-19.296 Y-58.881
G01 F600 X-19.437 Y-58.638
G01 F600 X-19.624 Y-58.430
G01 F600 X-19.851 Y-58.265
G01 F600 X-20.107 Y-58.151
G01 F600 X-20.381 Y-58.093
G01 F600 X-22.993 Y-58.093
G01 F600 X-22.993 Y-54.326
G01 F600 X-23.020 Y-54.067
G01 F600 X-23.106 Y-53.801
G01 F600 X-23.247 Y-53.558
G01 F600 X-23.434 Y-53.350
G01 F600 X-23.661 Y-53.185
G01 F600 X-23.917 Y-53.071
G01 F600 X-24.191 Y-53.013
G01 F600 X-27.583 Y-53.013
G01 F600 X-30.962 Y-49.634
G01 F600 X-31.181 Y-49.475
G01 F600 X-31.437 Y-49.361
G01 F600 X-31.711 Y-49.303
G01 F600 X-33.931 Y-49.303
G01 F600 X-34.205 Y-49.361
G01 F600 X-34.461 Y-49.475
G01 F600 X-34.688 Y-49.640
G01 F600 X-34.875 Y-49.848
G01 F600 X-35.015 Y-50.091
G01 F600 X-35.102 Y-50.357
G01 F600 X-35.131 Y-50.636
G01 F600 X-35.102 Y-50.915
G01 F600 X-35.015 Y-51.181
G01 F600 X-34.875 Y-51.424
G01 F600 X-34.688 Y-51.632
G01 F600 X-34.461 Y-51.797
G01 F600 X-34.205 Y-51.911
G01 F600 X-33.931 Y-51.969
G01 F600 X-32.408 Y-51.969
G01 F600 X-29.030 Y-55.348
G01 F600 X-28.811 Y-55.507
G01 F600 X-28.555 Y-55.621
G01 F600 X-28.281 Y-55.679
G01 F600 X-25.669 Y-55.679
G01 F600 X-25.669 Y-58.820
G01 F600 X-25.757 Y-58.668
G01 F600 X-25.857 Y-58.556
G01 F600 X-25.858 Y-58.550
G01 F600 X-25.925 Y-58.344
G01 F600 X-26.033 Y-58.157
G01 F600 X-26.178 Y-57.996
G01 F600 X-26.353 Y-57.869
G01 F600 X-26.551 Y-57.781
G01 F600 X-26.763 Y-57.736
G01 F600 X-26.979 Y-57.736
G01 F600 X-27.191 Y-57.781
G01 F600 X-27.389 Y-57.869
G01 F600 X-27.564 Y-57.996
G01 F600 X-27.709 Y-58.157
G01 F600 X-27.817 Y-58.344
G01 F600 X-27.884 Y-58.550
G01 F600 X-27.885 Y-58.560
G01 F600 X-27.955 Y-58.638
G01 F600 X-28.095 Y-58.881
G01 F600 X-28.141 Y-59.021
G01 F600 X-28.186 Y-58.881
G01 F600 X-28.327 Y-58.638
G01 F600 X-28.397 Y-58.560
G01 F600 X-28.398 Y-58.550
G01 F600 X-28.465 Y-58.344
G01 F600 X-28.573 Y-58.157
G01 F600 X-28.718 Y-57.996
G01 F600 X-28.893 Y-57.869
G01 F600 X-29.091 Y-57.781
G01 F600 X-29.303 Y-57.736
G01 F600 X-29.519 Y-57.736
G01 F600 X-29.731 Y-57.781
G01 F600 X-29.929 Y-57.869
G01 F600 X-30.104 Y-57.996
G01 F600 X-30.159 Y-58.057
G01 F600 X-35.693 Y-52.524
G01 F600 X-35.693 Y-46.706
G01 F600 X-35.720 Y-46.447
G01 F600 X-35.806 Y-46.181
G01 F600 X-35.947 Y-45.938
G01 F600 X-36.114 Y-45.752
G01 F600 X-38.233 Y-43.634
G01 F600 X-38.233 Y-41.330
G01 F600 X-38.068 Y-41.045
G01 F600 X-37.962 Y-40.718
G01 F600 X-37.928 Y-40.396
G01 F600 X-37.928 Y-37.244
G01 F600 X-35.910 Y-35.227
G01 F600 X-35.700 Y-34.993
G01 F600 X-35.528 Y-34.695
G01 F600 X-35.422 Y-34.368
G01 F600 X-35.388 Y-34.046
G01 F600 X-35.388 Y-24.544
G01 F600 X-32.536 Y-21.692
G01 F600 X-29.239 Y-21.692
G01 F600 X-28.902 Y-21.621
G01 F600 X-28.588 Y-21.481
G01 F600 X-28.310 Y-21.279
G01 F600 X-28.080 Y-21.023
G01 F600 X-27.908 Y-20.725
G01 F600 X-27.802 Y-20.398
G01 F600 X-27.768 Y-20.076
G01 F600 X-27.763 Y-14.006
G01 F600 X-26.596 Y-12.838
G01 F600 X-26.296 Y-12.506
G01 F600 X-26.058 Y-12.093
G01 F600 X-25.911 Y-11.640
G01 F600 X-25.861 Y-11.166
G01 F600 X-25.911 Y-10.692
G01 F600 X-26.058 Y-10.239
G01 F600 X-26.296 Y-9.826
G01 F600 X-26.615 Y-9.472
G01 F600 X-27.001 Y-9.191
G01 F600 X-27.436 Y-8.998
G01 F600 X-27.902 Y-8.898
G01 F600 X-28.379 Y-8.898
G00 F3000 Z3.000
G00 F3000 X-23.299 Y-8.898
G00 F1500 Z0
G01 F600 Z-0.200
G01 F600 X-23.765 Y-8.998
G01 F600 X-24.201 Y-9.191
G01 F600 X-24.587 Y-9.472
G01 F600 X-24.905 Y-9.826
G01 F600 X-25.144 Y-10.239
G01 F600 X-25.291 Y-10.692
G01 F600 X-25.341 Y-11.166
G01 F600 X-25.291 Y-11.640
G01 F600 X-25.144 Y-12.093
G01 F600 X-24.905 Y-12.506
G01 F600 X-24.606 Y-12.839
G01 F600 X-23.434 Y-14.010
G01 F600 X-23.434 Y-20.076
G01 F600 X-23.400 Y-20.398
G01 F600 X-23.294 Y-20.725
G01 F600 X-23.122 Y-21.023
G01 F600 X-22.892 Y-21.279
G01 F600 X-22.613 Y-21.481
G01 F600 X-22.299 Y-21.621
G01 F600 X-21.963 Y-21.692
G01 F600 X-17.809 Y-21.692
G01 F600 X-17.473 Y-21.621
G01 F600 X-17.158 Y-21.481
G01 F600 X-16.880 Y-21.279
G01 F600 X-16.650 Y-21.023
G01 F600 X-16.478 Y-20.725
G01 F600 X-16.372 Y-20.398
G01 F600 X-16.336 Y-20.056
G01 F600 X-16.372 Y-19.714
G01 F600 X-16.478 Y-19.387
G01 F600 X-16.650 Y-19.089
G01 F600 X-16.880 Y-18.834
G01 F600 X-17.158 Y-18.631
G01 F600 X-17.473 Y-18.491
G01 F600 X-17.809 Y-18.420
G01 F600 X-20.147 Y-18.420
G01 F600 X-20.143 Y-13.995
G01 F600 X-19.946 Y-13.776
G01 F600 X-19.708 Y-13.363
G01 F600 X-19.561 Y-12.910
G01 F600 X-19.511 Y-12.436
G01 F600 X-19.561 Y-11.962
G01 F600 X-19.708 Y-11.509
G01 F600 X-19.946 Y-11.096
G01 F600 X-20.245 Y-10.764
G01 F600 X-21.543 Y-9.466
G01 F600 X-21.921 Y-9.191
G01 F600 X-22.356 Y-8.998
G01 F600 X-22.823 Y-8.898
G01 F600 X-23.299 Y-8.898
G00 F3000 Z3.000
G00 F3000 X-61.018 Y-13.330
G00 F1500 Z0
G01 F600 Z-0.200
G01 F600 X-61.136 Y-13.355
G01 F600 X-61.247 Y-13.404
G01 F600 X-61.345 Y-13.476
G01 F600 X-61.425 Y-13.565
G01 F600 X-61.486 Y-13.670
G01 F600 X-61.523 Y-13.785
G01 F600 X-61.534 Y-13.886
G01 F600 X-61.534 Y-18.602
G01 F600 X-61.523 Y-18.703
G01 F600 X-61.486 Y-18.818
G01 F600 X-61.425 Y-18.923
G01 F600 X-61.345 Y-19.013
G01 F600 X-61.247 Y-19.084
G01 F600 X-61.136 Y-19.133
G01 F600 X-61.018 Y-19.158
G01 F600 X-58.558 Y-19.158
G01 F600 X-58.440 Y-19.133
G01 F600 X-58.330 Y-19.084
G01 F600 X-58.240 Y-19.018
G01 F600 X-57.433 Y-18.211
G01 F600 X-57.371 Y-18.143
G01 F600 X-57.311 Y-18.038
G01 F600 X-57.274 Y-17.924
G01 F600 X-57.263 Y-17.823
G01 F600 X-57.263 Y-14.665
G01 F600 X-57.274 Y-14.565
G01 F600 X-57.311 Y-14.450
G01 F600 X-57.371 Y-14.345
G01 F600 X-57.433 Y-14.277
G01 F600 X-58.240 Y-13.470
G01 F600 X-58.330 Y-13.404
G01 F600 X-58.440 Y-13.355
G01 F600 X-58.558 Y-13.330
G01 F600 X-61.018 Y-13.330
G00 F3000 Z3.000
G00 F3000 X-60.381 Y-14.480
G00 F1500 Z0
G01 F600 Z-0.200
G01 F600 X-58.858 Y-14.480
G01 F600 X-58.415 Y-14.923
G01 F600 X-58.415 Y-17.565
G01 F600 X-58.858 Y-18.008
G01 F600 X-60.381 Y-18.008
G01 F600 X-60.381 Y-14.480
G00 F3000 Z3.000
G00 F3000 X-37.630 Y-14.889
G00 F1500 Z0
G01 F600 Z-0.200
G01 F600 X-37.748 Y-14.914
G01 F600 X-37.859 Y-14.964
G01 F600 X-37.956 Y-15.035
G01 F600 X-38.037 Y-15.125
G01 F600 X-38.098 Y-15.229
G01 F600 X-38.135 Y-15.344
G01 F600 X-38.146 Y-15.445
G01 F600 X-38.146 Y-18.602
G01 F600 X-38.135 Y-18.703
G01 F600 X-38.098 Y-18.818
G01 F600 X-38.037 Y-18.923
G01 F600 X-37.956 Y-19.013
G01 F600 X-37.859 Y-19.084
G01 F600 X-37.748 Y-19.133
G01 F600 X-37.630 Y-19.158
G01 F600 X-37.509 Y-19.158
G01 F600 X-37.391 Y-19.133
G01 F600 X-37.281 Y-19.084
G01 F600 X-37.183 Y-19.013
G01 F600 X-37.102 Y-18.923
G01 F600 X-37.041 Y-18.818
G01 F600 X-37.004 Y-18.703
G01 F600 X-36.993 Y-18.602
G01 F600 X-36.993 Y-17.262
G01 F600 X-35.771 Y-16.040
G01 F600 X-35.170 Y-16.040
G01 F600 X-35.052 Y-16.014
G01 F600 X-34.942 Y-15.965
G01 F600 X-34.844 Y-15.894
G01 F600 X-34.763 Y-15.804
G01 F600 X-34.703 Y-15.700
G01 F600 X-34.665 Y-15.585
G01 F600 X-34.652 Y-15.464
G01 F600 X-34.665 Y-15.344
G01 F600 X-34.703 Y-15.229
G01 F600 X-34.763 Y-15.125
G01 F600 X-34.844 Y-15.035
G01 F600 X-34.942 Y-14.964
G01 F600 X-35.052 Y-14.914
G01 F600 X-35.170 Y-14.889
G01 F600 X-36.071 Y-14.889
G01 F600 X-36.189 Y-14.914
G01 F600 X-36.300 Y-14.964
G01 F600 X-36.390 Y-15.029
G01 F600 X-36.993 Y-15.633
G01 F600 X-36.993 Y-15.445
G01 F600 X-37.004 Y-15.344
G01 F600 X-37.041 Y-15.229
G01 F600 X-37.102 Y-15.125
G01 F600 X-37.183 Y-15.035
G01 F600 X-37.280 Y-14.964
G01 F600 X-37.391 Y-14.914
G01 F600 X-37.509 Y-14.889
G01 F600 X-37.630 Y-14.889
G00 F3000 Z3.000
G00 F3000 X-51.663 Y-14.889
G00 F1500 Z0
G01 F600 Z-0.200
G01 F600 X-51.781 Y-14.914
G01 F600 X-51.892 Y-14.964
G01 F600 X-51.989 Y-15.035
G01 F600 X-52.070 Y-15.125
G01 F600 X-52.131 Y-15.229
G01 F600 X-52.168 Y-15.344
G01 F600 X-52.179 Y-15.445
G01 F600 X-52.179 Y-18.602
G01 F600 X-52.168 Y-18.703
G01 F600 X-52.131 Y-18.818
G01 F600 X-52.070 Y-18.923
G01 F600 X-51.989 Y-19.013
G01 F600 X-51.892 Y-19.084
G01 F600 X-51.781 Y-19.133
G01 F600 X-51.663 Y-19.158
G01 F600 X-51.542 Y-19.158
G01 F600 X-51.424 Y-19.133
G01 F600 X-51.313 Y-19.084
G01 F600 X-51.216 Y-19.013
G01 F600 X-51.135 Y-18.923
G01 F600 X-51.074 Y-18.818
G01 F600 X-51.037 Y-18.703
G01 F600 X-51.026 Y-18.602
G01 F600 X-51.026 Y-16.040
G01 F600 X-49.503 Y-16.040
G01 F600 X-49.060 Y-16.482
G01 F600 X-49.060 Y-18.602
G01 F600 X-49.050 Y-18.703
G01 F600 X-49.012 Y-18.818
G01 F600 X-48.952 Y-18.923
G01 F600 X-48.871 Y-19.013
G01 F600 X-48.773 Y-19.084
G01 F600 X-48.663 Y-19.133
G01 F600 X-48.544 Y-19.158
G01 F600 X-48.424 Y-19.158
G01 F600 X-48.305 Y-19.133
G01 F600 X-48.195 Y-19.084
G01 F600 X-48.097 Y-19.013
G01 F600 X-48.016 Y-18.923
G01 F600 X-47.956 Y-18.818
G01 F600 X-47.918 Y-18.703
G01 F600 X-47.908 Y-18.602
G01 F600 X-47.908 Y-16.224
G01 F600 X-47.918 Y-16.124
G01 F600 X-47.956 Y-16.009
G01 F600 X-48.016 Y-15.904
G01 F600 X-48.077 Y-15.836
G01 F600 X-48.885 Y-15.029
G01 F600 X-48.974 Y-14.964
G01 F600 X-49.085 Y-14.914
G01 F600 X-49.203 Y-14.889
G01 F600 X-51.663 Y-14.889
G00 F3000 Z3.000
G00 F3000 X-55.561 Y-14.889
G00 F1500 Z0
G01 F600 Z-0.200
G01 F600 X-55.679 Y-14.914
G01 F600 X-55.790 Y-14.964
G01 F600 X-55.887 Y-15.035
G01 F600 X-55.968 Y-15.125
G01 F600 X-56.029 Y-15.229
G01 F600 X-56.066 Y-15.344
G01 F600 X-56.079 Y-15.464
G01 F600 X-56.066 Y-15.585
G01 F600 X-56.029 Y-15.700
G01 F600 X-55.968 Y-15.804
G01 F600 X-55.887 Y-15.894
G01 F600 X-55.790 Y-15.965
G01 F600 X-55.679 Y-16.014
G01 F600 X-55.561 Y-16.040
G01 F600 X-54.181 Y-16.040
G01 F600 X-53.772 Y-16.448
G01 F600 X-55.561 Y-16.448
G01 F600 X-55.679 Y-16.474
G01 F600 X-55.790 Y-16.523
G01 F600 X-55.879 Y-16.588
G01 F600 X-56.686 Y-17.395
G01 F600 X-56.748 Y-17.463
G01 F600 X-56.808 Y-17.568
G01 F600 X-56.846 Y-17.683
G01 F600 X-56.858 Y-17.803
G01 F600 X-56.846 Y-17.924
G01 F600 X-56.808 Y-18.038
G01 F600 X-56.748 Y-18.143
G01 F600 X-56.687 Y-18.211
G01 F600 X-55.879 Y-19.018
G01 F600 X-55.790 Y-19.084
G01 F600 X-55.679 Y-19.133
G01 F600 X-55.561 Y-19.158
G01 F600 X-53.101 Y-19.158
G01 F600 X-52.983 Y-19.133
G01 F600 X-52.873 Y-19.084
G01 F600 X-52.775 Y-19.013
G01 F600 X-52.694 Y-18.923
G01 F600 X-52.633 Y-18.818
G01 F600 X-52.596 Y-18.703
G01 F600 X-52.585 Y-18.602
G01 F600 X-52.585 Y-16.224
G01 F600 X-52.596 Y-16.124
G01 F600 X-52.633 Y-16.009
G01 F600 X-52.694 Y-15.904
G01 F600 X-52.755 Y-15.836
G01 F600 X-53.562 Y-15.029
G01 F600 X-53.652 Y-14.964
G01 F600 X-53.763 Y-14.914
G01 F600 X-53.881 Y-14.889
G01 F600 X-55.561 Y-14.889
G00 F3000 Z3.000
G00 F3000 X-46.206 Y-14.889
G00 F1500 Z0
G01 F600 Z-0.200
G01 F600 X-46.324 Y-14.914
G01 F600 X-46.434 Y-14.964
G01 F600 X-46.524 Y-15.029
G01 F600 X-47.332 Y-15.836
G01 F600 X-47.393 Y-15.904
G01 F600 X-47.453 Y-16.009
G01 F600 X-47.491 Y-16.124
G01 F600 X-47.501 Y-16.224
G01 F600 X-47.501 Y-17.823
G01 F600 X-47.491 Y-17.924
G01 F600 X-47.453 Y-18.038
G01 F600 X-47.393 Y-18.143
G01 F600 X-47.331 Y-18.211
G01 F600 X-46.524 Y-19.018
G01 F600 X-46.434 Y-19.084
G01 F600 X-46.324 Y-19.133
G01 F600 X-46.206 Y-19.158
G01 F600 X-44.416 Y-19.158
G01 F600 X-44.825 Y-19.567
G01 F600 X-45.426 Y-19.567
G01 F600 X-45.544 Y-19.592
G01 F600 X-45.655 Y-19.641
G01 F600 X-45.752 Y-19.712
G01 F600 X-45.833 Y-19.802
G01 F600 X-45.894 Y-19.907
G01 F600 X-45.931 Y-20.022
G01 F600 X-45.944 Y-20.142
G01 F600 X-45.931 Y-20.262
G01 F600 X-45.894 Y-20.377
G01 F600 X-45.833 Y-20.482
G01 F600 X-45.752 Y-20.572
G01 F600 X-45.655 Y-20.643
G01 F600 X-45.544 Y-20.692
G01 F600 X-45.426 Y-20.717
G01 F600 X-44.526 Y-20.717
G01 F600 X-44.407 Y-20.692
G01 F600 X-44.297 Y-20.643
G01 F600 X-44.207 Y-20.578
G01 F600 X-43.400 Y-19.770
G01 F600 X-43.339 Y-19.702
G01 F600 X-43.278 Y-19.598
G01 F600 X-43.241 Y-19.483
G01 F600 X-43.230 Y-19.382
G01 F600 X-43.230 Y-15.445
G01 F600 X-43.241 Y-15.344
G01 F600 X-43.278 Y-15.229
G01 F600 X-43.339 Y-15.125
G01 F600 X-43.419 Y-15.035
G01 F600 X-43.517 Y-14.964
G01 F600 X-43.628 Y-14.914
G01 F600 X-43.746 Y-14.889
G01 F600 X-46.206 Y-14.889
G00 F3000 Z3.000
G00 F3000 X-41.528 Y-14.889
G00 F1500 Z0
G01 F600 Z-0.200
G01 F600 X-41.646 Y-14.914
G01 F600 X-41.757 Y-14.964
G01 F600 X-41.847 Y-15.029
G01 F600 X-42.654 Y-15.836
G01 F600 X-42.715 Y-15.904
G01 F600 X-42.775 Y-16.009
G01 F600 X-42.813 Y-16.124
G01 F600 X-42.823 Y-16.224
G01 F600 X-42.823 Y-17.823
G01 F600 X-42.813 Y-17.924
G01 F600 X-42.775 Y-18.038
G01 F600 X-42.715 Y-18.143
G01 F600 X-42.654 Y-18.211
G01 F600 X-41.846 Y-19.018
G01 F600 X-41.757 Y-19.084
G01 F600 X-41.646 Y-19.133
G01 F600 X-41.528 Y-19.158
G01 F600 X-39.848 Y-19.158
G01 F600 X-39.730 Y-19.133
G01 F600 X-39.619 Y-19.084
G01 F600 X-39.522 Y-19.013
G01 F600 X-39.441 Y-18.923
G01 F600 X-39.380 Y-18.818
G01 F600 X-39.343 Y-18.703
G01 F600 X-39.330 Y-18.583
G01 F600 X-39.343 Y-18.463
G01 F600 X-39.380 Y-18.348
G01 F600 X-39.441 Y-18.243
G01 F600 X-39.522 Y-18.153
G01 F600 X-39.619 Y-18.082
G01 F600 X-39.730 Y-18.033
G01 F600 X-39.848 Y-18.008
G01 F600 X-41.228 Y-18.008
G01 F600 X-41.638 Y-17.599
G01 F600 X-39.068 Y-17.599
G01 F600 X-38.950 Y-17.573
G01 F600 X-38.840 Y-17.524
G01 F600 X-38.742 Y-17.453
G01 F600 X-38.661 Y-17.363
G01 F600 X-38.601 Y-17.259
G01 F600 X-38.563 Y-17.144
G01 F600 X-38.553 Y-17.043
G01 F600 X-38.553 Y-16.224
G01 F600 X-38.563 Y-16.124
G01 F600 X-38.601 Y-16.009
G01 F600 X-38.661 Y-15.904
G01 F600 X-38.722 Y-15.836
G01 F600 X-39.529 Y-15.029
G01 F600 X-39.619 Y-14.964
G01 F600 X-39.730 Y-14.914
G01 F600 X-39.848 Y-14.889
G01 F600 X-41.528 Y-14.889
G00 F3000 Z3.000
G00 F3000 X-41.228 Y-16.040
G00 F1500 Z0
G01 F600 Z-0.200
G01 F600 X-40.148 Y-16.040
G01 F600 X-39.739 Y-16.448
G01 F600 X-41.637 Y-16.448
G01 F600 X-41.228 Y-16.040
G00 F3000 Z3.000
G00 F3000 X-45.906 Y-16.040
G00 F1500 Z0
G01 F600 Z-0.200
G01 F600 X-44.383 Y-16.040
G01 F600 X-44.383 Y-18.008
G01 F600 X-45.906 Y-18.008
G01 F600 X-46.349 Y-17.565
G01 F600 X-46.349 Y-16.482
G01 F600 X-45.906 Y-16.040
G00 F3000 Z3.000
G00 F3000 X-55.261 Y-17.599
G00 F1500 Z0
G01 F600 Z-0.200
G01 F600 X-53.738 Y-17.599
G01 F600 X-53.738 Y-18.008
G01 F600 X-55.261 Y-18.008
G01 F600 X-55.466 Y-17.803
G01 F600 X-55.261 Y-17.599
G00 F3000 Z3.000
G00 F3000 X-32.123 Y-27.310
G00 F1500 Z0
G01 F600 Z-0.200
G01 F600 X-32.459 Y-27.381
G01 F600 X-32.773 Y-27.521
G01 F600 X-33.052 Y-27.724
G01 F600 X-33.282 Y-27.979
G01 F600 X-33.454 Y-28.277
G01 F600 X-33.504 Y-28.434
G01 F600 X-33.557 Y-28.525
G01 F600 X-33.624 Y-28.731
G01 F600 X-33.647 Y-28.946
G01 F600 X-33.624 Y-29.161
G01 F600 X-33.594 Y-29.254
G01 F600 X-33.594 Y-40.396
G01 F600 X-33.560 Y-40.718
G01 F600 X-33.454 Y-41.045
G01 F600 X-33.282 Y-41.343
G01 F600 X-33.052 Y-41.599
G01 F600 X-32.773 Y-41.801
G01 F600 X-32.459 Y-41.941
G01 F600 X-32.123 Y-42.012
G01 F600 X-31.779 Y-42.012
G01 F600 X-31.443 Y-41.941
G01 F600 X-31.128 Y-41.801
G01 F600 X-30.850 Y-41.599
G01 F600 X-30.620 Y-41.343
G01 F600 X-30.448 Y-41.045
G01 F600 X-30.342 Y-40.718
G01 F600 X-30.308 Y-40.396
G01 F600 X-30.308 Y-35.662
G01 F600 X-29.784 Y-35.662
G01 F600 X-29.784 Y-44.206
G01 F600 X-29.750 Y-44.528
G01 F600 X-29.644 Y-44.855
G01 F600 X-29.472 Y-45.153
G01 F600 X-29.242 Y-45.409
G01 F600 X-28.963 Y-45.611
G01 F600 X-28.649 Y-45.751
G01 F600 X-28.313 Y-45.822
G01 F600 X-27.969 Y-45.822
G01 F600 X-27.633 Y-45.751
G01 F600 X-27.318 Y-45.611
G01 F600 X-27.040 Y-45.409
G01 F600 X-26.810 Y-45.153
G01 F600 X-26.638 Y-44.855
G01 F600 X-26.532 Y-44.528
G01 F600 X-26.498 Y-44.206
G01 F600 X-26.498 Y-34.006
G01 F600 X-26.532 Y-33.684
G01 F600 X-26.638 Y-33.357
G01 F600 X-26.810 Y-33.059
G01 F600 X-27.040 Y-32.803
G01 F600 X-27.318 Y-32.601
G01 F600 X-27.633 Y-32.461
G01 F600 X-27.969 Y-32.390
G01 F600 X-30.308 Y-32.390
G01 F600 X-30.308 Y-29.254
G01 F600 X-30.278 Y-29.161
G01 F600 X-30.255 Y-28.946
G01 F600 X-30.278 Y-28.731
G01 F600 X-30.345 Y-28.525
G01 F600 X-30.397 Y-28.434
G01 F600 X-30.448 Y-28.277
G01 F600 X-30.620 Y-27.979
G01 F600 X-30.850 Y-27.724
G01 F600 X-31.128 Y-27.521
G01 F600 X-31.443 Y-27.381
G01 F600 X-31.779 Y-27.310
G01 F600 X-32.123 Y-27.310
G00 F3000 Z3.000
G00 F3000 X-42.283 Y-27.310
G00 F1500 Z0
G01 F600 Z-0.200
G01 F600 X-42.619 Y-27.381
G01 F600 X-42.933 Y-27.521
G01 F600 X-43.212 Y-27.724
G01 F600 X-43.442 Y-27.979
G01 F600 X-43.614 Y-28.277
G01 F600 X-43.664 Y-28.434
G01 F600 X-43.717 Y-28.525
G01 F600 X-43.784 Y-28.731
G01 F600 X-43.807 Y-28.946
G01 F600 X-43.784 Y-29.161
G01 F600 X-43.754 Y-29.254
G01 F600 X-43.754 Y-32.448
G01 F600 X-43.784 Y-32.541
G01 F600 X-43.807 Y-32.756
G01 F600 X-43.784 Y-32.971
G01 F600 X-43.717 Y-33.177
G01 F600 X-43.664 Y-33.269
G01 F600 X-43.614 Y-33.425
G01 F600 X-43.442 Y-33.723
G01 F600 X-43.212 Y-33.979
G01 F600 X-42.933 Y-34.181
G01 F600 X-42.619 Y-34.321
G01 F600 X-42.283 Y-34.392
G01 F600 X-41.939 Y-34.392
G01 F600 X-41.602 Y-34.321
G01 F600 X-41.288 Y-34.181
G01 F600 X-41.010 Y-33.979
G01 F600 X-40.780 Y-33.723
G01 F600 X-40.608 Y-33.425
G01 F600 X-40.557 Y-33.269
G01 F600 X-40.505 Y-33.177
G01 F600 X-40.438 Y-32.971
G01 F600 X-40.415 Y-32.756
G01 F600 X-40.438 Y-32.541
G01 F600 X-40.468 Y-32.448
G01 F600 X-40.468 Y-29.254
G01 F600 X-40.438 Y-29.161
G01 F600 X-40.415 Y-28.946
G01 F600 X-40.438 Y-28.731
G01 F600 X-40.505 Y-28.525
G01 F600 X-40.557 Y-28.434
G01 F600 X-40.608 Y-28.277
G01 F600 X-40.780 Y-27.979
G01 F600 X-41.010 Y-27.724
G01 F600 X-41.288 Y-27.521
G01 F600 X-41.602 Y-27.381
G01 F600 X-41.939 Y-27.310
G01 F600 X-42.283 Y-27.310
G00 F3000 Z3.000
G00 F3000 X-18.153 Y-28.580
G00 F1500 Z0
G01 F600 Z-0.200
G01 F600 X-18.489 Y-28.651
G01 F600 X-18.803 Y-28.791
G01 F600 X-19.082 Y-28.994
G01 F600 X-19.312 Y-29.249
G01 F600 X-19.484 Y-29.547
G01 F600 X-19.590 Y-29.874
G01 F600 X-19.624 Y-30.196
G01 F600 X-19.624 Y-39.698
G01 F600 X-25.451 Y-45.525
G01 F600 X-25.662 Y-45.759
G01 F600 X-25.834 Y-46.057
G01 F600 X-25.940 Y-46.384
G01 F600 X-25.976 Y-46.726
G01 F600 X-25.940 Y-47.068
G01 F600 X-25.834 Y-47.395
G01 F600 X-25.662 Y-47.693
G01 F600 X-25.432 Y-47.949
G01 F600 X-25.153 Y-48.151
G01 F600 X-24.839 Y-48.291
G01 F600 X-24.503 Y-48.362
G01 F600 X-24.159 Y-48.362
G01 F600 X-23.823 Y-48.291
G01 F600 X-23.508 Y-48.151
G01 F600 X-23.238 Y-47.954
G01 F600 X-16.860 Y-41.577
G01 F600 X-16.650 Y-41.343
G01 F600 X-16.478 Y-41.045
G01 F600 X-16.372 Y-40.718
G01 F600 X-16.338 Y-40.396
G01 F600 X-16.338 Y-30.196
G01 F600 X-16.372 Y-29.874
G01 F600 X-16.478 Y-29.547
G01 F600 X-16.650 Y-29.249
G01 F600 X-16.880 Y-28.994
G01 F600 X-17.158 Y-28.791
G01 F600 X-17.473 Y-28.651
G01 F600 X-17.809 Y-28.580
G01 F600 X-18.153 Y-28.580
G00 F3000 Z3.000
G00 F3000 X-53.533 Y-42.026
G00 F1500 Z0
G01 F600 Z-0.200
G01 F600 X-53.533 Y-43.665
G01 F600 X-54.406 Y-44.538
G01 F600 X-54.563 Y-44.713
G01 F600 X-54.696 Y-44.942
G01 F600 X-54.777 Y-45.193
G01 F600 X-54.803 Y-45.436
G01 F600 X-54.803 Y-46.746
G01 F600 X-54.777 Y-46.989
G01 F600 X-54.696 Y-47.240
G01 F600 X-54.563 Y-47.469
G01 F600 X-54.387 Y-47.665
G01 F600 X-54.173 Y-47.821
G01 F600 X-53.931 Y-47.928
G01 F600 X-53.673 Y-47.983
G01 F600 X-53.409 Y-47.983
G01 F600 X-53.150 Y-47.928
G01 F600 X-52.909 Y-47.821
G01 F600 X-52.695 Y-47.665
G01 F600 X-52.518 Y-47.469
G01 F600 X-52.386 Y-47.240
G01 F600 X-52.304 Y-46.989
G01 F600 X-52.279 Y-46.746
G01 F600 X-52.279 Y-45.977
G01 F600 X-51.405 Y-45.104
G01 F600 X-51.248 Y-44.929
G01 F600 X-51.116 Y-44.700
G01 F600 X-51.069 Y-44.555
G01 F600 X-51.069 Y-46.174
G01 F600 X-51.917 Y-47.022
G01 F600 X-52.085 Y-47.208
G01 F600 X-52.225 Y-47.451
G01 F600 X-52.312 Y-47.717
G01 F600 X-52.339 Y-47.976
G01 F600 X-52.339 Y-49.952
G01 F600 X-52.457 Y-49.748
G01 F600 X-52.527 Y-49.670
G01 F600 X-52.528 Y-49.660
G01 F600 X-52.595 Y-49.454
G01 F600 X-52.703 Y-49.267
G01 F600 X-52.848 Y-49.106
G01 F600 X-53.023 Y-48.979
G01 F600 X-53.221 Y-48.891
G01 F600 X-53.433 Y-48.846
G01 F600 X-53.649 Y-48.846
G01 F600 X-53.861 Y-48.891
G01 F600 X-54.059 Y-48.979
G01 F600 X-54.234 Y-49.106
G01 F600 X-54.321 Y-49.203
G01 F600 X-57.491 Y-49.203
G01 F600 X-57.765 Y-49.261
G01 F600 X-58.021 Y-49.375
G01 F600 X-58.240 Y-49.534
G01 F600 X-59.537 Y-50.832
G01 F600 X-59.705 Y-51.018
G01 F600 X-59.823 Y-51.222
G01 F600 X-59.823 Y-48.549
G01 F600 X-54.556 Y-43.305
G01 F600 X-54.491 Y-43.291
G01 F600 X-54.293 Y-43.203
G01 F600 X-54.118 Y-43.076
G01 F600 X-53.973 Y-42.915
G01 F600 X-53.865 Y-42.728
G01 F600 X-53.798 Y-42.522
G01 F600 X-53.797 Y-42.512
G01 F600 X-53.727 Y-42.434
G01 F600 X-53.586 Y-42.191
G01 F600 X-53.533 Y-42.026
G00 F3000 Z3.000
G00 F3000 X-52.339 Y-51.120
G00 F1500 Z0
G01 F600 Z-0.200
G01 F600 X-52.339 Y-54.283
G01 F600 X-52.411 Y-54.283
G01 F600 X-52.685 Y-54.341
G01 F600 X-52.941 Y-54.455
G01 F600 X-53.160 Y-54.614
G01 F600 X-56.997 Y-58.452
G01 F600 X-57.165 Y-58.638
G01 F600 X-57.283 Y-58.842
G01 F600 X-57.283 Y-52.358
G01 F600 X-56.793 Y-51.869
G01 F600 X-54.321 Y-51.869
G01 F600 X-54.234 Y-51.966
G01 F600 X-54.059 Y-52.093
G01 F600 X-53.861 Y-52.181
G01 F600 X-53.649 Y-52.226
G01 F600 X-53.433 Y-52.226
G01 F600 X-53.221 Y-52.181
G01 F600 X-53.023 Y-52.093
G01 F600 X-52.848 Y-51.966
G01 F600 X-52.703 Y-51.805
G01 F600 X-52.595 Y-51.618
G01 F600 X-52.528 Y-51.412
G01 F600 X-52.527 Y-51.402
G01 F600 X-52.457 Y-51.324
G01 F600 X-52.339 Y-51.120
G00 F3000 Z3.000
G00 F3000 X-59.823 Y-61.280
G00 F1500 Z0
G01 F600 Z-0.200
G01 F600 X-59.705 Y-61.484
G01 F600 X-59.537 Y-61.670
G01 F600 X-54.879 Y-66.328
G01 F600 X-54.879 Y-66.462
G01 F600 X-54.997 Y-66.258
G01 F600 X-55.164 Y-66.072
G01 F600 X-59.823 Y-61.414
G01 F600 X-59.823 Y-61.280
G00 F3000 Z3.000
G00 F3000 X-41.476 Y-68.302
G00 F1500 Z0
G01 F600 Z-0.200
G01 F600 X-40.818 Y-68.959
G01 F600 X-41.096 Y-69.162
G01 F600 X-41.415 Y-69.516
G01 F600 X-41.654 Y-69.929
G01 F600 X-41.801 Y-70.382
G01 F600 X-41.849 Y-70.836
G01 F600 X-41.849 Y-73.416
G01 F600 X-41.801 Y-73.870
G01 F600 X-41.654 Y-74.323
G01 F600 X-41.415 Y-74.736
G01 F600 X-41.096 Y-75.091
G01 F600 X-40.711 Y-75.371
G01 F600 X-40.275 Y-75.565
G01 F600 X-39.809 Y-75.664
G01 F600 X-39.333 Y-75.664
G01 F600 X-38.866 Y-75.565
G01 F600 X-38.431 Y-75.371
G01 F600 X-38.045 Y-75.091
G01 F600 X-37.726 Y-74.736
G01 F600 X-37.488 Y-74.323
G01 F600 X-37.341 Y-73.870
G01 F600 X-37.293 Y-73.416
G01 F600 X-37.293 Y-70.919
G01 F600 X-26.731 Y-70.919
G01 F600 X-26.457 Y-70.861
G01 F600 X-26.201 Y-70.747
G01 F600 X-25.974 Y-70.582
G01 F600 X-25.787 Y-70.374
G01 F600 X-25.669 Y-70.170
G01 F600 X-25.669 Y-71.574
G01 F600 X-26.159 Y-72.063
G01 F600 X-32.642 Y-72.063
G01 F600 X-32.646 Y-72.056
G01 F600 X-32.965 Y-71.702
G01 F600 X-33.351 Y-71.421
G01 F600 X-33.786 Y-71.228
G01 F600 X-34.253 Y-71.128
G01 F600 X-34.729 Y-71.128
G01 F600 X-35.195 Y-71.228
G01 F600 X-35.631 Y-71.421
G01 F600 X-36.017 Y-71.702
G01 F600 X-36.335 Y-72.056
G01 F600 X-36.574 Y-72.469
G01 F600 X-36.721 Y-72.922
G01 F600 X-36.769 Y-73.376
G01 F600 X-36.769 Y-75.873
G01 F600 X-54.743 Y-75.873
G01 F600 X-54.743 Y-72.710
G01 F600 X-54.625 Y-72.914
G01 F600 X-54.457 Y-73.100
G01 F600 X-53.160 Y-74.398
G01 F600 X-52.941 Y-74.557
G01 F600 X-52.685 Y-74.671
G01 F600 X-52.411 Y-74.729
G01 F600 X-50.861 Y-74.729
G01 F600 X-50.587 Y-74.671
G01 F600 X-50.331 Y-74.557
G01 F600 X-50.104 Y-74.392
G01 F600 X-49.916 Y-74.184
G01 F600 X-49.776 Y-73.941
G01 F600 X-49.690 Y-73.675
G01 F600 X-49.660 Y-73.396
G01 F600 X-49.690 Y-73.117
G01 F600 X-49.776 Y-72.851
G01 F600 X-49.916 Y-72.608
G01 F600 X-50.104 Y-72.400
G01 F600 X-50.331 Y-72.235
G01 F600 X-50.435 Y-72.189
G01 F600 X-45.781 Y-72.189
G01 F600 X-45.507 Y-72.131
G01 F600 X-45.251 Y-72.017
G01 F600 X-45.032 Y-71.858
G01 F600 X-41.476 Y-68.302
G00 F3000 Z3.000
G00 F3000 X-52.203 Y-71.440
G00 F1500 Z0
G01 F600 Z-0.200
G01 F600 X-52.085 Y-71.644
G01 F600 X-51.898 Y-71.852
G01 F600 X-51.671 Y-72.017
G01 F600 X-51.567 Y-72.063
G01 F600 X-51.713 Y-72.063
G01 F600 X-52.203 Y-71.574
G01 F600 X-52.203 Y-71.440
G00 F3000 Z3.000
G00 F3000 X-23.320 Y-8.698
G00 F1500 Z0
G01 F600 Z-0.200
G01 F600 X-23.828 Y-8.806
G01 F600 X-24.301 Y-9.017
G01 F600 X-24.721 Y-9.322
G01 F600 X-25.068 Y-9.708
G01 F600 X-25.327 Y-10.157
G01 F600 X-25.488 Y-10.650
G01 F600 X-25.542 Y-11.166
G01 F600 X-25.488 Y-11.682
G01 F600 X-25.327 Y-12.175
G01 F600 X-25.068 Y-12.624
G01 F600 X-24.751 Y-12.976
G01 F600 X-23.634 Y-14.093
G01 F600 X-23.634 Y-20.086
G01 F600 X-23.597 Y-20.440
G01 F600 X-23.477 Y-20.807
G01 F600 X-23.284 Y-21.141
G01 F600 X-23.026 Y-21.428
G01 F600 X-22.714 Y-21.655
G01 F600 X-22.361 Y-21.812
G01 F600 X-21.984 Y-21.892
G01 F600 X-17.788 Y-21.892
G01 F600 X-17.410 Y-21.812
G01 F600 X-17.058 Y-21.655
G01 F600 X-16.745 Y-21.428
G01 F600 X-16.487 Y-21.141
G01 F600 X-16.294 Y-20.807
G01 F600 X-16.175 Y-20.440
G01 F600 X-16.135 Y-20.056
G01 F600 X-16.175 Y-19.672
G01 F600 X-16.294 Y-19.305
G01 F600 X-16.487 Y-18.971
G01 F600 X-16.745 Y-18.684
G01 F600 X-17.058 Y-18.457
G01 F600 X-17.410 Y-18.300
G01 F600 X-17.788 Y-18.220
G01 F600 X-19.947 Y-18.220
G01 F600 X-19.943 Y-14.072
G01 F600 X-19.784 Y-13.894
G01 F600 X-19.524 Y-13.445
G01 F600 X-19.364 Y-12.952
G01 F600 X-19.310 Y-12.436
G01 F600 X-19.364 Y-11.920
G01 F600 X-19.524 Y-11.427
G01 F600 X-19.784 Y-10.978
G01 F600 X-20.100 Y-10.626
G01 F600 X-21.413 Y-9.313
G01 F600 X-21.820 Y-9.017
G01 F600 X-22.294 Y-8.806
G01 F600 X-22.802 Y-8.698
G01 F600 X-23.320 Y-8.698
G00 F3000 Z3.000
G00 F3000 X-28.400 Y-8.698
G00 F1500 Z0
G01 F600 Z-0.200
G01 F600 X-28.908 Y-8.806
G01 F600 X-29.382 Y-9.017
G01 F600 X-29.789 Y-9.313
G01 F600 X-31.101 Y-10.626
G01 F600 X-31.418 Y-10.978
G01 F600 X-31.677 Y-11.427
G01 F600 X-31.838 Y-11.920
G01 F600 X-31.892 Y-12.436
G01 F600 X-31.838 Y-12.952
G01 F600 X-31.677 Y-13.445
G01 F600 X-31.418 Y-13.895
G01 F600 X-31.254 Y-14.076
G01 F600 X-31.254 Y-18.220
G01 F600 X-33.414 Y-18.220
G01 F600 X-33.791 Y-18.300
G01 F600 X-34.144 Y-18.457
G01 F600 X-34.444 Y-18.675
G01 F600 X-38.296 Y-22.528
G01 F600 X-38.524 Y-22.781
G01 F600 X-38.717 Y-23.115
G01 F600 X-38.837 Y-23.482
G01 F600 X-38.874 Y-23.836
G01 F600 X-38.874 Y-33.265
G01 F600 X-40.836 Y-35.228
G01 F600 X-41.064 Y-35.481
G01 F600 X-41.257 Y-35.815
G01 F600 X-41.377 Y-36.182
G01 F600 X-41.414 Y-36.536
G01 F600 X-41.414 Y-40.406
G01 F600 X-41.377 Y-40.760
G01 F600 X-41.257 Y-41.127
G01 F600 X-41.109 Y-41.384
G01 F600 X-41.109 Y-44.216
G01 F600 X-41.079 Y-44.506
G01 F600 X-40.979 Y-44.813
G01 F600 X-40.818 Y-45.092
G01 F600 X-40.632 Y-45.298
G01 F600 X-38.569 Y-47.361
G01 F600 X-38.569 Y-53.106
G01 F600 X-38.561 Y-53.183
G01 F600 X-42.362 Y-49.382
G01 F600 X-42.610 Y-49.201
G01 F600 X-42.904 Y-49.070
G01 F600 X-43.220 Y-49.003
G01 F600 X-47.592 Y-49.003
G01 F600 X-47.633 Y-48.957
G01 F600 X-47.842 Y-48.805
G01 F600 X-48.079 Y-48.700
G01 F600 X-48.332 Y-48.646
G01 F600 X-48.590 Y-48.646
G01 F600 X-48.843 Y-48.700
G01 F600 X-49.079 Y-48.805
G01 F600 X-49.288 Y-48.957
G01 F600 X-49.461 Y-49.149
G01 F600 X-49.463 Y-49.151
G01 F600 X-49.463 Y-48.631
G01 F600 X-48.669 Y-47.838
G01 F600 X-48.484 Y-47.632
G01 F600 X-48.323 Y-47.353
G01 F600 X-48.223 Y-47.046
G01 F600 X-48.193 Y-46.756
G01 F600 X-48.193 Y-45.719
G01 F600 X-46.561 Y-45.719
G01 F600 X-44.400 Y-47.880
G01 F600 X-44.152 Y-48.061
G01 F600 X-43.857 Y-48.192
G01 F600 X-43.542 Y-48.259
G01 F600 X-43.220 Y-48.259
G01 F600 X-42.905 Y-48.192
G01 F600 X-42.610 Y-48.061
G01 F600 X-42.350 Y-47.872
G01 F600 X-42.134 Y-47.632
G01 F600 X-41.973 Y-47.353
G01 F600 X-41.873 Y-47.046
G01 F600 X-41.839 Y-46.726
G01 F600 X-41.873 Y-46.406
G01 F600 X-41.973 Y-46.099
G01 F600 X-42.134 Y-45.820
G01 F600 X-42.319 Y-45.614
G01 F600 X-44.902 Y-43.032
G01 F600 X-45.150 Y-42.851
G01 F600 X-45.445 Y-42.720
G01 F600 X-45.760 Y-42.653
G01 F600 X-48.193 Y-42.653
G01 F600 X-48.193 Y-41.616
G01 F600 X-48.223 Y-41.326
G01 F600 X-48.323 Y-41.019
G01 F600 X-48.484 Y-40.740
G01 F600 X-48.537 Y-40.681
G01 F600 X-48.601 Y-40.483
G01 F600 X-48.730 Y-40.259
G01 F600 X-48.903 Y-40.067
G01 F600 X-49.112 Y-39.915
G01 F600 X-49.349 Y-39.809
G01 F600 X-49.602 Y-39.756
G01 F600 X-49.860 Y-39.756
G01 F600 X-50.113 Y-39.809
G01 F600 X-50.349 Y-39.915
G01 F600 X-50.558 Y-40.067
G01 F600 X-50.731 Y-40.259
G01 F600 X-50.809 Y-40.393
G01 F600 X-50.809 Y-33.694
G01 F600 X-50.783 Y-33.675
G01 F600 X-50.610 Y-33.483
G01 F600 X-50.481 Y-33.259
G01 F600 X-50.401 Y-33.013
G01 F600 X-50.374 Y-32.756
G01 F600 X-50.401 Y-32.499
G01 F600 X-50.481 Y-32.253
G01 F600 X-50.610 Y-32.029
G01 F600 X-50.783 Y-31.837
G01 F600 X-50.992 Y-31.685
G01 F600 X-51.228 Y-31.580
G01 F600 X-51.473 Y-31.528
G01 F600 X-51.483 Y-31.528
G01 F600 X-51.538 Y-31.487
G01 F600 X-51.818 Y-31.363
G01 F600 X-52.118 Y-31.299
G01 F600 X-52.424 Y-31.299
G01 F600 X-52.724 Y-31.363
G01 F600 X-53.005 Y-31.488
G01 F600 X-53.057 Y-31.526
G01 F600 X-53.060 Y-31.526
G01 F600 X-53.313 Y-31.580
G01 F600 X-53.550 Y-31.685
G01 F600 X-53.759 Y-31.837
G01 F600 X-53.932 Y-32.029
G01 F600 X-54.061 Y-32.253
G01 F600 X-54.141 Y-32.499
G01 F600 X-54.168 Y-32.756
G01 F600 X-54.141 Y-33.013
G01 F600 X-54.061 Y-33.259
G01 F600 X-53.932 Y-33.483
G01 F600 X-53.759 Y-33.675
G01 F600 X-53.733 Y-33.694
G01 F600 X-53.733 Y-40.393
G01 F600 X-53.810 Y-40.259
G01 F600 X-53.983 Y-40.067
G01 F600 X-54.192 Y-39.915
G01 F600 X-54.429 Y-39.809
G01 F600 X-54.682 Y-39.756
G01 F600 X-54.940 Y-39.756
G01 F600 X-55.193 Y-39.809
G01 F600 X-55.429 Y-39.915
G01 F600 X-55.638 Y-40.067
G01 F600 X-55.811 Y-40.259
G01 F600 X-55.940 Y-40.483
G01 F600 X-55.998 Y-40.660
G01 F600 X-62.222 Y-46.884
G01 F600 X-62.408 Y-47.090
G01 F600 X-62.569 Y-47.369
G01 F600 X-62.669 Y-47.676
G01 F600 X-62.699 Y-47.966
G01 F600 X-62.699 Y-61.996
G01 F600 X-62.669 Y-62.286
G01 F600 X-62.569 Y-62.593
G01 F600 X-62.408 Y-62.872
G01 F600 X-62.222 Y-63.078
G01 F600 X-57.619 Y-67.681
G01 F600 X-57.619 Y-77.236
G01 F600 X-57.589 Y-77.526
G01 F600 X-57.489 Y-77.833
G01 F600 X-57.328 Y-78.112
G01 F600 X-57.112 Y-78.352
G01 F600 X-56.851 Y-78.541
G01 F600 X-56.557 Y-78.672
G01 F600 X-56.242 Y-78.739
G01 F600 X-35.600 Y-78.739
G01 F600 X-35.285 Y-78.672
G01 F600 X-34.990 Y-78.541
G01 F600 X-34.790 Y-78.395
G01 F600 X-34.750 Y-78.404
G01 F600 X-34.232 Y-78.404
G01 F600 X-33.724 Y-78.296
G01 F600 X-33.250 Y-78.085
G01 F600 X-32.831 Y-77.780
G01 F600 X-32.483 Y-77.394
G01 F600 X-32.224 Y-76.945
G01 F600 X-32.064 Y-76.452
G01 F600 X-32.013 Y-75.966
G01 F600 X-32.013 Y-74.929
G01 F600 X-25.440 Y-74.929
G01 F600 X-25.125 Y-74.862
G01 F600 X-24.830 Y-74.731
G01 F600 X-24.582 Y-74.550
G01 F600 X-23.269 Y-73.238
G01 F600 X-23.084 Y-73.032
G01 F600 X-22.923 Y-72.753
G01 F600 X-22.823 Y-72.446
G01 F600 X-22.793 Y-72.156
G01 F600 X-22.793 Y-70.221
G01 F600 X-19.459 Y-66.888
G01 F600 X-19.274 Y-66.682
G01 F600 X-19.113 Y-66.403
G01 F600 X-19.013 Y-66.096
G01 F600 X-18.983 Y-65.806
G01 F600 X-18.983 Y-64.476
G01 F600 X-19.013 Y-64.186
G01 F600 X-19.113 Y-63.879
G01 F600 X-19.274 Y-63.600
G01 F600 X-19.490 Y-63.360
G01 F600 X-19.750 Y-63.171
G01 F600 X-20.045 Y-63.040
G01 F600 X-20.360 Y-62.973
G01 F600 X-20.682 Y-62.973
G01 F600 X-20.997 Y-63.040
G01 F600 X-21.291 Y-63.171
G01 F600 X-21.552 Y-63.360
G01 F600 X-21.768 Y-63.600
G01 F600 X-21.929 Y-63.879
G01 F600 X-22.029 Y-64.186
G01 F600 X-22.059 Y-64.476
G01 F600 X-22.059 Y-65.141
G01 F600 X-25.392 Y-68.474
G01 F600 X-25.578 Y-68.680
G01 F600 X-25.601 Y-68.720
G01 F600 X-25.624 Y-68.680
G01 F600 X-25.840 Y-68.440
G01 F600 X-26.100 Y-68.251
G01 F600 X-26.395 Y-68.120
G01 F600 X-26.710 Y-68.053
G01 F600 X-29.143 Y-68.053
G01 F600 X-29.143 Y-61.342
G01 F600 X-29.066 Y-61.270
G01 F600 X-29.029 Y-61.262
G01 F600 X-28.792 Y-61.157
G01 F600 X-28.583 Y-61.005
G01 F600 X-28.410 Y-60.813
G01 F600 X-28.379 Y-60.759
G01 F600 X-28.379 Y-62.820
G01 F600 X-28.802 Y-64.124
G01 F600 X-28.715 Y-64.124
G01 F600 X-28.715 Y-66.273
G01 F600 X-28.685 Y-66.564
G01 F600 X-28.585 Y-66.870
G01 F600 X-28.424 Y-67.149
G01 F600 X-28.209 Y-67.389
G01 F600 X-27.948 Y-67.578
G01 F600 X-27.653 Y-67.709
G01 F600 X-27.338 Y-67.776
G01 F600 X-27.016 Y-67.776
G01 F600 X-26.701 Y-67.709
G01 F600 X-26.406 Y-67.578
G01 F600 X-26.146 Y-67.389
G01 F600 X-25.930 Y-67.149
G01 F600 X-25.769 Y-66.870
G01 F600 X-25.670 Y-66.564
G01 F600 X-25.639 Y-66.273
G01 F600 X-25.639 Y-64.308
G01 F600 X-25.333 Y-63.366
G01 F600 X-25.303 Y-63.076
G01 F600 X-25.303 Y-60.845
G01 F600 X-25.158 Y-61.005
G01 F600 X-24.949 Y-61.157
G01 F600 X-24.713 Y-61.263
G01 F600 X-24.460 Y-61.316
G01 F600 X-24.202 Y-61.316
G01 F600 X-23.949 Y-61.263
G01 F600 X-23.712 Y-61.157
G01 F600 X-23.503 Y-61.005
G01 F600 X-23.462 Y-60.959
G01 F600 X-20.360 Y-60.959
G01 F600 X-20.045 Y-60.892
G01 F600 X-19.750 Y-60.761
G01 F600 X-19.490 Y-60.572
G01 F600 X-19.274 Y-60.332
G01 F600 X-19.113 Y-60.053
G01 F600 X-19.013 Y-59.746
G01 F600 X-18.979 Y-59.426
G01 F600 X-19.013 Y-59.106
G01 F600 X-19.113 Y-58.799
G01 F600 X-19.274 Y-58.520
G01 F600 X-19.490 Y-58.280
G01 F600 X-19.750 Y-58.091
G01 F600 X-20.045 Y-57.960
G01 F600 X-20.360 Y-57.893
G01 F600 X-22.793 Y-57.893
G01 F600 X-22.793 Y-54.316
G01 F600 X-22.823 Y-54.026
G01 F600 X-22.923 Y-53.719
G01 F600 X-23.084 Y-53.440
G01 F600 X-23.300 Y-53.200
G01 F600 X-23.560 Y-53.011
G01 F600 X-23.855 Y-52.880
G01 F600 X-24.170 Y-52.813
G01 F600 X-27.500 Y-52.813
G01 F600 X-30.832 Y-49.482
G01 F600 X-31.080 Y-49.301
G01 F600 X-31.375 Y-49.170
G01 F600 X-31.690 Y-49.103
G01 F600 X-33.952 Y-49.103
G01 F600 X-34.267 Y-49.170
G01 F600 X-34.562 Y-49.301
G01 F600 X-34.822 Y-49.491
G01 F600 X-35.038 Y-49.730
G01 F600 X-35.199 Y-50.009
G01 F600 X-35.298 Y-50.316
G01 F600 X-35.332 Y-50.636
G01 F600 X-35.298 Y-50.957
G01 F600 X-35.199 Y-51.263
G01 F600 X-35.038 Y-51.542
G01 F600 X-34.822 Y-51.782
G01 F600 X-34.562 Y-51.971
G01 F600 X-34.267 Y-52.102
G01 F600 X-33.952 Y-52.169
G01 F600 X-32.491 Y-52.169
G01 F600 X-29.160 Y-55.500
G01 F600 X-28.912 Y-55.681
G01 F600 X-28.617 Y-55.812
G01 F600 X-28.302 Y-55.879
G01 F600 X-25.869 Y-55.879
G01 F600 X-25.869 Y-58.041
G01 F600 X-25.870 Y-58.039
G01 F600 X-26.043 Y-57.847
G01 F600 X-26.252 Y-57.695
G01 F600 X-26.489 Y-57.590
G01 F600 X-26.742 Y-57.536
G01 F600 X-27.000 Y-57.536
G01 F600 X-27.253 Y-57.590
G01 F600 X-27.489 Y-57.695
G01 F600 X-27.698 Y-57.847
G01 F600 X-27.871 Y-58.039
G01 F600 X-28.000 Y-58.263
G01 F600 X-28.065 Y-58.461
G01 F600 X-28.118 Y-58.520
G01 F600 X-28.141 Y-58.560
G01 F600 X-28.164 Y-58.520
G01 F600 X-28.217 Y-58.461
G01 F600 X-28.281 Y-58.263
G01 F600 X-28.410 Y-58.039
G01 F600 X-28.583 Y-57.847
G01 F600 X-28.792 Y-57.695
G01 F600 X-29.029 Y-57.590
G01 F600 X-29.282 Y-57.536
G01 F600 X-29.540 Y-57.536
G01 F600 X-29.793 Y-57.590
G01 F600 X-30.029 Y-57.695
G01 F600 X-30.151 Y-57.783
G01 F600 X-35.493 Y-52.441
G01 F600 X-35.493 Y-46.696
G01 F600 X-35.523 Y-46.406
G01 F600 X-35.623 Y-46.099
G01 F600 X-35.784 Y-45.820
G01 F600 X-35.969 Y-45.614
G01 F600 X-38.033 Y-43.551
G01 F600 X-38.033 Y-41.384
G01 F600 X-37.884 Y-41.127
G01 F600 X-37.765 Y-40.760
G01 F600 X-37.728 Y-40.406
G01 F600 X-37.728 Y-37.327
G01 F600 X-35.765 Y-35.364
G01 F600 X-35.537 Y-35.111
G01 F600 X-35.344 Y-34.777
G01 F600 X-35.225 Y-34.410
G01 F600 X-35.188 Y-34.056
G01 F600 X-35.188 Y-24.627
G01 F600 X-32.453 Y-21.892
G01 F600 X-29.218 Y-21.892
G01 F600 X-28.840 Y-21.812
G01 F600 X-28.488 Y-21.655
G01 F600 X-28.175 Y-21.428
G01 F600 X-27.917 Y-21.141
G01 F600 X-27.724 Y-20.807
G01 F600 X-27.605 Y-20.440
G01 F600 X-27.568 Y-20.086
G01 F600 X-27.563 Y-14.089
G01 F600 X-26.450 Y-12.976
G01 F600 X-26.134 Y-12.624
G01 F600 X-25.874 Y-12.175
G01 F600 X-25.714 Y-11.682
G01 F600 X-25.660 Y-11.166
G01 F600 X-25.714 Y-10.650
G01 F600 X-25.874 Y-10.157
G01 F600 X-26.134 Y-9.708
G01 F600 X-26.481 Y-9.322
G01 F600 X-26.900 Y-9.017
G01 F600 X-27.374 Y-8.806
G01 F600 X-27.882 Y-8.698
G01 F600 X-28.400 Y-8.698
G00 F3000 Z3.000
G00 F3000 X-61.039 Y-13.130
G00 F1500 Z0
G01 F600 Z-0.200
G01 F600 X-61.199 Y-13.164
G01 F600 X-61.347 Y-13.230
G01 F600 X-61.479 Y-13.326
G01 F600 X-61.588 Y-13.447
G01 F600 X-61.670 Y-13.588
G01 F600 X-61.720 Y-13.743
G01 F600 X-61.734 Y-13.875
G01 F600 X-61.734 Y-18.613
G01 F600 X-61.720 Y-18.745
G01 F600 X-61.670 Y-18.900
G01 F600 X-61.588 Y-19.041
G01 F600 X-61.479 Y-19.162
G01 F600 X-61.347 Y-19.258
G01 F600 X-61.198 Y-19.324
G01 F600 X-61.039 Y-19.358
G01 F600 X-58.537 Y-19.358
G01 F600 X-58.378 Y-19.324
G01 F600 X-58.229 Y-19.258
G01 F600 X-58.110 Y-19.171
G01 F600 X-57.288 Y-18.349
G01 F600 X-57.209 Y-18.261
G01 F600 X-57.127 Y-18.120
G01 F600 X-57.077 Y-17.966
G01 F600 X-57.063 Y-17.833
G01 F600 X-57.063 Y-14.655
G01 F600 X-57.077 Y-14.523
G01 F600 X-57.127 Y-14.368
G01 F600 X-57.209 Y-14.227
G01 F600 X-57.288 Y-14.139
G01 F600 X-58.110 Y-13.317
G01 F600 X-58.229 Y-13.230
G01 F600 X-58.378 Y-13.164
G01 F600 X-58.537 Y-13.130
G01 F600 X-61.039 Y-13.130
G00 F3000 Z3.000
G00 F3000 X-60.181 Y-14.680
G00 F1500 Z0
G01 F600 Z-0.200
G01 F600 X-58.941 Y-14.680
G01 F600 X-58.615 Y-15.006
G01 F600 X-58.615 Y-17.482
G01 F600 X-58.941 Y-17.808
G01 F600 X-60.181 Y-17.808
G01 F600 X-60.181 Y-14.680
G00 F3000 Z3.000
G00 F3000 X-41.549 Y-14.689
G00 F1500 Z0
G01 F600 Z-0.200
G01 F600 X-41.708 Y-14.723
G01 F600 X-41.858 Y-14.790
G01 F600 X-41.977 Y-14.877
G01 F600 X-42.799 Y-15.698
G01 F600 X-42.878 Y-15.786
G01 F600 X-42.959 Y-15.927
G01 F600 X-43.010 Y-16.082
G01 F600 X-43.023 Y-16.214
G01 F600 X-43.023 Y-17.833
G01 F600 X-43.010 Y-17.966
G01 F600 X-42.959 Y-18.120
G01 F600 X-42.878 Y-18.261
G01 F600 X-42.799 Y-18.349
G01 F600 X-41.977 Y-19.171
G01 F600 X-41.857 Y-19.258
G01 F600 X-41.709 Y-19.324
G01 F600 X-41.549 Y-19.358
G01 F600 X-39.827 Y-19.358
G01 F600 X-39.667 Y-19.324
G01 F600 X-39.519 Y-19.258
G01 F600 X-39.387 Y-19.162
G01 F600 X-39.278 Y-19.041
G01 F600 X-39.196 Y-18.900
G01 F600 X-39.146 Y-18.745
G01 F600 X-39.129 Y-18.583
G01 F600 X-39.146 Y-18.421
G01 F600 X-39.196 Y-18.266
G01 F600 X-39.278 Y-18.125
G01 F600 X-39.387 Y-18.004
G01 F600 X-39.519 Y-17.908
G01 F600 X-39.667 Y-17.842
G01 F600 X-39.827 Y-17.808
G01 F600 X-41.146 Y-17.808
G01 F600 X-41.155 Y-17.799
G01 F600 X-39.047 Y-17.799
G01 F600 X-38.888 Y-17.765
G01 F600 X-38.739 Y-17.698
G01 F600 X-38.608 Y-17.603
G01 F600 X-38.498 Y-17.482
G01 F600 X-38.417 Y-17.341
G01 F600 X-38.367 Y-17.186
G01 F600 X-38.353 Y-17.054
G01 F600 X-38.353 Y-16.214
G01 F600 X-38.367 Y-16.082
G01 F600 X-38.417 Y-15.927
G01 F600 X-38.498 Y-15.786
G01 F600 X-38.577 Y-15.698
G01 F600 X-39.399 Y-14.877
G01 F600 X-39.519 Y-14.790
G01 F600 X-39.668 Y-14.723
G01 F600 X-39.827 Y-14.689
G01 F600 X-41.549 Y-14.689
G00 F3000 Z3.000
G00 F3000 X-46.227 Y-14.689
G00 F1500 Z0
G01 F600 Z-0.200
G01 F600 X-46.386 Y-14.723
G01 F600 X-46.535 Y-14.790
G01 F600 X-46.655 Y-14.877
G01 F600 X-47.477 Y-15.698
G01 F600 X-47.556 Y-15.786
G01 F600 X-47.637 Y-15.927
G01 F600 X-47.687 Y-16.082
G01 F600 X-47.701 Y-16.214
G01 F600 X-47.701 Y-17.833
G01 F600 X-47.687 Y-17.966
G01 F600 X-47.637 Y-18.120
G01 F600 X-47.555 Y-18.262
G01 F600 X-47.476 Y-18.349
G01 F600 X-46.654 Y-19.171
G01 F600 X-46.535 Y-19.258
G01 F600 X-46.386 Y-19.324
G01 F600 X-46.227 Y-19.358
G01 F600 X-44.899 Y-19.358
G01 F600 X-44.908 Y-19.367
G01 F600 X-45.447 Y-19.367
G01 F600 X-45.607 Y-19.401
G01 F600 X-45.755 Y-19.467
G01 F600 X-45.887 Y-19.563
G01 F600 X-45.996 Y-19.684
G01 F600 X-46.078 Y-19.825
G01 F600 X-46.128 Y-19.980
G01 F600 X-46.145 Y-20.142
G01 F600 X-46.128 Y-20.304
G01 F600 X-46.078 Y-20.459
G01 F600 X-45.996 Y-20.600
G01 F600 X-45.887 Y-20.721
G01 F600 X-45.755 Y-20.817
G01 F600 X-45.607 Y-20.883
G01 F600 X-45.447 Y-20.917
G01 F600 X-44.505 Y-20.917
G01 F600 X-44.345 Y-20.883
G01 F600 X-44.197 Y-20.817
G01 F600 X-44.077 Y-20.730
G01 F600 X-43.255 Y-19.908
G01 F600 X-43.176 Y-19.820
G01 F600 X-43.095 Y-19.679
G01 F600 X-43.044 Y-19.524
G01 F600 X-43.030 Y-19.392
G01 F600 X-43.030 Y-15.434
G01 F600 X-43.044 Y-15.302
G01 F600 X-43.095 Y-15.147
G01 F600 X-43.176 Y-15.006
G01 F600 X-43.285 Y-14.885
G01 F600 X-43.417 Y-14.790
G01 F600 X-43.566 Y-14.723
G01 F600 X-43.725 Y-14.689
G01 F600 X-46.227 Y-14.689
G00 F3000 Z3.000
G00 F3000 X-55.582 Y-14.689
G00 F1500 Z0
G01 F600 Z-0.200
G01 F600 X-55.741 Y-14.723
G01 F600 X-55.890 Y-14.790
G01 F600 X-56.022 Y-14.885
G01 F600 X-56.131 Y-15.006
G01 F600 X-56.212 Y-15.147
G01 F600 X-56.263 Y-15.302
G01 F600 X-56.280 Y-15.464
G01 F600 X-56.263 Y-15.627
G01 F600 X-56.212 Y-15.781
G01 F600 X-56.131 Y-15.923
G01 F600 X-56.022 Y-16.044
G01 F600 X-55.890 Y-16.140
G01 F600 X-55.741 Y-16.206
G01 F600 X-55.582 Y-16.239
G01 F600 X-54.263 Y-16.239
G01 F600 X-54.254 Y-16.248
G01 F600 X-55.582 Y-16.248
G01 F600 X-55.741 Y-16.282
G01 F600 X-55.890 Y-16.349
G01 F600 X-56.010 Y-16.435
G01 F600 X-56.832 Y-17.258
G01 F600 X-56.910 Y-17.345
G01 F600 X-56.992 Y-17.486
G01 F600 X-57.042 Y-17.641
G01 F600 X-57.059 Y-17.803
G01 F600 X-57.042 Y-17.965
G01 F600 X-56.992 Y-18.120
G01 F600 X-56.911 Y-18.262
G01 F600 X-56.832 Y-18.349
G01 F600 X-56.010 Y-19.171
G01 F600 X-55.890 Y-19.258
G01 F600 X-55.741 Y-19.324
G01 F600 X-55.582 Y-19.358
G01 F600 X-53.080 Y-19.358
G01 F600 X-52.921 Y-19.324
G01 F600 X-52.772 Y-19.258
G01 F600 X-52.640 Y-19.162
G01 F600 X-52.531 Y-19.041
G01 F600 X-52.450 Y-18.900
G01 F600 X-52.399 Y-18.745
G01 F600 X-52.385 Y-18.613
G01 F600 X-52.385 Y-16.214
G01 F600 X-52.399 Y-16.082
G01 F600 X-52.450 Y-15.927
G01 F600 X-52.531 Y-15.786
G01 F600 X-52.610 Y-15.699
G01 F600 X-53.432 Y-14.877
G01 F600 X-53.551 Y-14.790
G01 F600 X-53.701 Y-14.723
G01 F600 X-53.860 Y-14.689
G01 F600 X-55.582 Y-14.689
G00 F3000 Z3.000
G00 F3000 X-51.684 Y-14.689
G00 F1500 Z0
G01 F600 Z-0.200
G01 F600 X-51.843 Y-14.723
G01 F600 X-51.992 Y-14.790
G01 F600 X-52.124 Y-14.885
G01 F600 X-52.233 Y-15.006
G01 F600 X-52.315 Y-15.147
G01 F600 X-52.365 Y-15.303
G01 F600 X-52.379 Y-15.434
G01 F600 X-52.379 Y-18.613
G01 F600 X-52.365 Y-18.745
G01 F600 X-52.315 Y-18.900
G01 F600 X-52.233 Y-19.041
G01 F600 X-52.124 Y-19.162
G01 F600 X-51.992 Y-19.258
G01 F600 X-51.844 Y-19.324
G01 F600 X-51.684 Y-19.358
G01 F600 X-51.521 Y-19.358
G01 F600 X-51.362 Y-19.324
G01 F600 X-51.213 Y-19.258
G01 F600 X-51.081 Y-19.162
G01 F600 X-50.972 Y-19.041
G01 F600 X-50.891 Y-18.900
G01 F600 X-50.840 Y-18.745
G01 F600 X-50.826 Y-18.613
G01 F600 X-50.826 Y-16.239
G01 F600 X-49.586 Y-16.239
G01 F600 X-49.260 Y-16.565
G01 F600 X-49.260 Y-18.613
G01 F600 X-49.246 Y-18.745
G01 F600 X-49.196 Y-18.900
G01 F600 X-49.114 Y-19.041
G01 F600 X-49.006 Y-19.162
G01 F600 X-48.873 Y-19.258
G01 F600 X-48.725 Y-19.324
G01 F600 X-48.565 Y-19.358
G01 F600 X-48.403 Y-19.358
G01 F600 X-48.243 Y-19.324
G01 F600 X-48.094 Y-19.258
G01 F600 X-47.962 Y-19.162
G01 F600 X-47.853 Y-19.041
G01 F600 X-47.772 Y-18.900
G01 F600 X-47.722 Y-18.745
G01 F600 X-47.708 Y-18.613
G01 F600 X-47.708 Y-16.214
G01 F600 X-47.722 Y-16.082
G01 F600 X-47.772 Y-15.927
G01 F600 X-47.853 Y-15.786
G01 F600 X-47.932 Y-15.698
G01 F600 X-48.754 Y-14.877
G01 F600 X-48.874 Y-14.790
G01 F600 X-49.023 Y-14.723
G01 F600 X-49.183 Y-14.689
G01 F600 X-51.684 Y-14.689
G00 F3000 Z3.000
G00 F3000 X-37.651 Y-14.689
G00 F1500 Z0
G01 F600 Z-0.200
G01 F600 X-37.810 Y-14.723
G01 F600 X-37.959 Y-14.790
G01 F600 X-38.091 Y-14.885
G01 F600 X-38.200 Y-15.006
G01 F600 X-38.282 Y-15.148
G01 F600 X-38.332 Y-15.303
G01 F600 X-38.346 Y-15.434
G01 F600 X-38.346 Y-18.613
G01 F600 X-38.332 Y-18.745
G01 F600 X-38.282 Y-18.900
G01 F600 X-38.200 Y-19.041
G01 F600 X-38.091 Y-19.162
G01 F600 X-37.959 Y-19.258
G01 F600 X-37.811 Y-19.324
G01 F600 X-37.651 Y-19.358
G01 F600 X-37.488 Y-19.358
G01 F600 X-37.329 Y-19.324
G01 F600 X-37.180 Y-19.258
G01 F600 X-37.048 Y-19.162
G01 F600 X-36.939 Y-19.041
G01 F600 X-36.858 Y-18.900
G01 F600 X-36.807 Y-18.745
G01 F600 X-36.793 Y-18.613
G01 F600 X-36.793 Y-17.345
G01 F600 X-35.688 Y-16.239
G01 F600 X-35.149 Y-16.239
G01 F600 X-34.990 Y-16.206
G01 F600 X-34.841 Y-16.140
G01 F600 X-34.709 Y-16.044
G01 F600 X-34.600 Y-15.922
G01 F600 X-34.519 Y-15.782
G01 F600 X-34.468 Y-15.627
G01 F600 X-34.451 Y-15.464
G01 F600 X-34.468 Y-15.302
G01 F600 X-34.519 Y-15.147
G01 F600 X-34.600 Y-15.006
G01 F600 X-34.709 Y-14.885
G01 F600 X-34.841 Y-14.790
G01 F600 X-34.990 Y-14.723
G01 F600 X-35.150 Y-14.689
G01 F600 X-36.092 Y-14.689
G01 F600 X-36.251 Y-14.723
G01 F600 X-36.400 Y-14.790
G01 F600 X-36.520 Y-14.877
G01 F600 X-36.841 Y-15.198
G01 F600 X-36.858 Y-15.147
G01 F600 X-36.939 Y-15.006
G01 F600 X-37.048 Y-14.885
G01 F600 X-37.180 Y-14.790
G01 F600 X-37.329 Y-14.723
G01 F600 X-37.488 Y-14.689
G01 F600 X-37.651 Y-14.689
G00 F3000 Z3.000
G00 F3000 X-41.146 Y-16.239
G00 F1500 Z0
G01 F600 Z-0.200
G01 F600 X-40.231 Y-16.239
G01 F600 X-40.222 Y-16.248
G01 F600 X-41.154 Y-16.248
G01 F600 X-41.146 Y-16.239
G00 F3000 Z3.000
G00 F3000 X-45.823 Y-16.239
G00 F1500 Z0
G01 F600 Z-0.200
G01 F600 X-44.583 Y-16.239
G01 F600 X-44.583 Y-17.808
G01 F600 X-45.823 Y-17.808
G01 F600 X-46.149 Y-17.482
G01 F600 X-46.149 Y-16.565
G01 F600 X-45.823 Y-16.239
G00 F3000 Z3.000
G00 F3000 X-55.178 Y-17.799
G00 F1500 Z0
G01 F600 Z-0.200
G01 F600 X-53.938 Y-17.799
G01 F600 X-53.938 Y-17.808
G01 F600 X-55.178 Y-17.808
G01 F600 X-55.183 Y-17.803
G01 F600 X-55.178 Y-17.799
G00 F3000 Z3.000
G00 F3000 X-42.304 Y-27.110
G00 F1500 Z0
G01 F600 Z-0.200
G01 F600 X-42.681 Y-27.190
G01 F600 X-43.034 Y-27.347
G01 F600 X-43.346 Y-27.574
G01 F600 X-43.604 Y-27.861
G01 F600 X-43.797 Y-28.195
G01 F600 X-43.848 Y-28.352
G01 F600 X-43.901 Y-28.443
G01 F600 X-43.981 Y-28.689
G01 F600 X-44.008 Y-28.946
G01 F600 X-43.981 Y-29.203
G01 F600 X-43.954 Y-29.286
G01 F600 X-43.954 Y-32.416
G01 F600 X-43.981 Y-32.499
G01 F600 X-44.008 Y-32.756
G01 F600 X-43.981 Y-33.013
G01 F600 X-43.901 Y-33.259
G01 F600 X-43.848 Y-33.350
G01 F600 X-43.797 Y-33.507
G01 F600 X-43.604 Y-33.841
G01 F600 X-43.346 Y-34.128
G01 F600 X-43.034 Y-34.355
G01 F600 X-42.681 Y-34.512
G01 F600 X-42.304 Y-34.592
G01 F600 X-41.918 Y-34.592
G01 F600 X-41.540 Y-34.512
G01 F600 X-41.188 Y-34.355
G01 F600 X-40.875 Y-34.128
G01 F600 X-40.617 Y-33.841
G01 F600 X-40.424 Y-33.507
G01 F600 X-40.374 Y-33.350
G01 F600 X-40.321 Y-33.259
G01 F600 X-40.241 Y-33.013
G01 F600 X-40.214 Y-32.756
G01 F600 X-40.241 Y-32.499
